(Exported by FreeCAD)
(Post Processor: script_module)
(Output Time:2024-12-14 17:50:28.014196)
(Begin preamble)
G17 G90
G20
(Begin operation: Fixture)
(Path: Fixture)
G54
(Finish operation: Fixture)
(Begin operation: TC: 375_endmill)
(Path: TC: 375_endmill)
(TC: 375_endmill)
(Begin toolchange)
( M6 T16 )
M3 S1000
(Finish operation: TC: 375_endmill)
(Begin operation: Helix)
(Path: Helix)
(Helix)
(helix cut operation)
G0 Z0.7359
G0 Z0.7359
G0 X2.0000 Y2.0000 Z0.7359

m7
m8


G0 X2.0000 Y2.0000 Z0.5390
G0 X2.1875 Y2.0000
G1 Z0.5390 F10.0000
G2 X1.8125 Y2.0000 Z0.4042 I-0.1875 J0.0000 F10.0000
G2 X2.1875 Y2.0000 Z0.2695 I0.1875 J0.0000 F10.0000
G2 X1.8125 Y2.0000 Z0.1348 I-0.1875 J0.0000 F10.0000
G2 X2.1875 Y2.0000 Z0.0000 I0.1875 J0.0000 F10.0000
G2 X1.8125 Y2.0000 Z0.0000 I-0.1875 J0.0000 F10.0000
G2 X2.1875 Y2.0000 Z0.0000 I0.1875 J0.0000 F10.0000
G0 X2.0000 Y2.0000 Z0.0000
G0 Z0.5390
G0 X2.3438 Y2.0000
G1 Z0.5390 F10.0000
G2 X1.6562 Y2.0000 Z0.4042 I-0.3438 J0.0000 F10.0000
G2 X2.3438 Y2.0000 Z0.2695 I0.3438 J0.0000 F10.0000
G2 X1.6562 Y2.0000 Z0.1348 I-0.3438 J0.0000 F10.0000
G2 X2.3438 Y2.0000 Z0.0000 I0.3438 J0.0000 F10.0000
G2 X1.6562 Y2.0000 Z0.0000 I-0.3438 J0.0000 F10.0000
G2 X2.3438 Y2.0000 Z0.0000 I0.3438 J0.0000 F10.0000
G0 X2.0000 Y2.0000 Z0.0000
G0 Z0.5390
G0 X2.5000 Y2.0000
G1 Z0.5390 F10.0000
G2 X1.5000 Y2.0000 Z0.4042 I-0.5000 J0.0000 F10.0000
G2 X2.5000 Y2.0000 Z0.2695 I0.5000 J0.0000 F10.0000
G2 X1.5000 Y2.0000 Z0.1348 I-0.5000 J0.0000 F10.0000
G2 X2.5000 Y2.0000 Z0.0000 I0.5000 J0.0000 F10.0000
G2 X1.5000 Y2.0000 Z0.0000 I-0.5000 J0.0000 F10.0000
G2 X2.5000 Y2.0000 Z0.0000 I0.5000 J0.0000 F10.0000
G0 X2.0000 Y2.0000 Z0.0000
G0 Z0.5390
G0 X2.6562 Y2.0000
G1 Z0.5390 F10.0000
G2 X1.3437 Y2.0000 Z0.4042 I-0.6562 J0.0000 F10.0000
G2 X2.6562 Y2.0000 Z0.2695 I0.6562 J0.0000 F10.0000
G2 X1.3437 Y2.0000 Z0.1348 I-0.6562 J0.0000 F10.0000
G2 X2.6562 Y2.0000 Z0.0000 I0.6562 J0.0000 F10.0000
G2 X1.3437 Y2.0000 Z0.0000 I-0.6562 J0.0000 F10.0000
G2 X2.6562 Y2.0000 Z0.0000 I0.6562 J0.0000 F10.0000
G0 X2.0000 Y2.0000 Z0.0000
G0 Z0.5390
G0 X2.8125 Y2.0000
G1 Z0.5390 F10.0000
G2 X1.1875 Y2.0000 Z0.4042 I-0.8125 J0.0000 F10.0000
G2 X2.8125 Y2.0000 Z0.2695 I0.8125 J0.0000 F10.0000
G2 X1.1875 Y2.0000 Z0.1348 I-0.8125 J0.0000 F10.0000
G2 X2.8125 Y2.0000 Z0.0000 I0.8125 J0.0000 F10.0000
G2 X1.1875 Y2.0000 Z0.0000 I-0.8125 J0.0000 F10.0000
G2 X2.8125 Y2.0000 Z0.0000 I0.8125 J0.0000 F10.0000
G0 X2.0000 Y2.0000 Z0.0000

m9

G0 Z0.5390
G0 Z0.7359
(Finish operation: Helix)
(Begin postamble)
M5
G17 G90
M2
