(Exported by FreeCAD)
(Post Processor: grbl_post)
(Output Time:2024-01-03 20:33:04.979294)
(Begin preamble)
G17 G90
G20
(Begin operation: Fixture)
(Path: Fixture)
G54
(Finish operation: Fixture)
(Begin operation: 716_endmill001)
(Path: 716_endmill001)
(716_endmill001)
(Begin toolchange)
( M6 T2 )
M3 S1000
(Finish operation: 716_endmill001)
(Begin operation: Adaptive)
(Path: Adaptive)
(Adaptive)
(Helix to depth: 26.974800)
G0 Z1.6969
G0 X0.9596 Y0.5512 Z1.6969
G0 X0.9596 Y0.5512 Z1.6181
G1 X0.9596 Y0.5512 Z1.5000 F10.0000
G1 X0.9596 Y0.5512 Z1.5000 F10.0000
G1 X0.9816 Y0.5745 Z1.4972 F10.0000
G1 X0.9987 Y0.6017 Z1.4944 F10.0000
G1 X1.0101 Y0.6317 Z1.4915 F10.0000
G1 X1.0155 Y0.6634 Z1.4887 F10.0000
G1 X1.0145 Y0.6954 Z1.4859 F10.0000
G1 X1.0074 Y0.7267 Z1.4831 F10.0000
G1 X0.9942 Y0.7560 Z1.4803 F10.0000
G1 X0.9756 Y0.7822 Z1.4774 F10.0000
G1 X0.9523 Y0.8042 Z1.4746 F10.0000
G1 X0.9251 Y0.8213 Z1.4718 F10.0000
G1 X0.8951 Y0.8327 Z1.4690 F10.0000
G1 X0.8635 Y0.8380 Z1.4662 F10.0000
G1 X0.8314 Y0.8371 Z1.4633 F10.0000
G1 X0.8001 Y0.8300 Z1.4605 F10.0000
G1 X0.7708 Y0.8168 Z1.4577 F10.0000
G1 X0.7446 Y0.7982 Z1.4549 F10.0000
G1 X0.7226 Y0.7749 Z1.4521 F10.0000
G1 X0.7056 Y0.7477 Z1.4493 F10.0000
G1 X0.6941 Y0.7177 Z1.4464 F10.0000
G1 X0.6888 Y0.6861 Z1.4436 F10.0000
G1 X0.6897 Y0.6540 Z1.4408 F10.0000
G1 X0.6969 Y0.6227 Z1.4380 F10.0000
G1 X0.7100 Y0.5934 Z1.4352 F10.0000
G1 X0.7286 Y0.5672 Z1.4323 F10.0000
G1 X0.7519 Y0.5452 Z1.4295 F10.0000
G1 X0.7791 Y0.5281 Z1.4267 F10.0000
G1 X0.8091 Y0.5167 Z1.4239 F10.0000
G1 X0.8408 Y0.5114 Z1.4211 F10.0000
G1 X0.8729 Y0.5123 Z1.4182 F10.0000
G1 X0.9041 Y0.5195 Z1.4154 F10.0000
G1 X0.9334 Y0.5326 Z1.4126 F10.0000
G1 X0.9596 Y0.5512 Z1.4098 F10.0000
G1 X0.9816 Y0.5745 Z1.4070 F10.0000
G1 X0.9987 Y0.6017 Z1.4041 F10.0000
G1 X1.0101 Y0.6317 Z1.4013 F10.0000
G1 X1.0155 Y0.6634 Z1.3985 F10.0000
G1 X1.0145 Y0.6954 Z1.3957 F10.0000
G1 X1.0074 Y0.7267 Z1.3929 F10.0000
G1 X0.9942 Y0.7560 Z1.3900 F10.0000
G1 X0.9756 Y0.7822 Z1.3872 F10.0000
G1 X0.9523 Y0.8042 Z1.3844 F10.0000
G1 X0.9251 Y0.8213 Z1.3816 F10.0000
G1 X0.8951 Y0.8327 Z1.3788 F10.0000
G1 X0.8635 Y0.8380 Z1.3759 F10.0000
G1 X0.8314 Y0.8371 Z1.3731 F10.0000
G1 X0.8001 Y0.8300 Z1.3703 F10.0000
G1 X0.7708 Y0.8168 Z1.3675 F10.0000
G1 X0.7446 Y0.7982 Z1.3647 F10.0000
G1 X0.7226 Y0.7749 Z1.3619 F10.0000
G1 X0.7056 Y0.7477 Z1.3590 F10.0000
G1 X0.6941 Y0.7177 Z1.3562 F10.0000
G1 X0.6888 Y0.6861 Z1.3534 F10.0000
G1 X0.6897 Y0.6540 Z1.3506 F10.0000
G1 X0.6969 Y0.6227 Z1.3478 F10.0000
G1 X0.7100 Y0.5934 Z1.3449 F10.0000
G1 X0.7286 Y0.5672 Z1.3421 F10.0000
G1 X0.7519 Y0.5452 Z1.3393 F10.0000
G1 X0.7791 Y0.5281 Z1.3365 F10.0000
G1 X0.8091 Y0.5167 Z1.3337 F10.0000
G1 X0.8408 Y0.5114 Z1.3308 F10.0000
G1 X0.8729 Y0.5123 Z1.3280 F10.0000
G1 X0.9041 Y0.5195 Z1.3252 F10.0000
G1 X0.9334 Y0.5326 Z1.3224 F10.0000
G1 X0.9596 Y0.5512 Z1.3196 F10.0000
G1 X0.9816 Y0.5745 Z1.3167 F10.0000
G1 X0.9987 Y0.6017 Z1.3139 F10.0000
G1 X1.0101 Y0.6317 Z1.3111 F10.0000
G1 X1.0155 Y0.6634 Z1.3083 F10.0000
G1 X1.0145 Y0.6954 Z1.3055 F10.0000
G1 X1.0074 Y0.7267 Z1.3026 F10.0000
G1 X0.9942 Y0.7560 Z1.2998 F10.0000
G1 X0.9756 Y0.7822 Z1.2970 F10.0000
G1 X0.9523 Y0.8042 Z1.2942 F10.0000
G1 X0.9251 Y0.8213 Z1.2914 F10.0000
G1 X0.8951 Y0.8327 Z1.2885 F10.0000
G1 X0.8635 Y0.8380 Z1.2857 F10.0000
G1 X0.8314 Y0.8371 Z1.2829 F10.0000
G1 X0.8001 Y0.8300 Z1.2801 F10.0000
G1 X0.7708 Y0.8168 Z1.2773 F10.0000
G1 X0.7446 Y0.7982 Z1.2744 F10.0000
G1 X0.7226 Y0.7749 Z1.2716 F10.0000
G1 X0.7056 Y0.7477 Z1.2688 F10.0000
G1 X0.6941 Y0.7177 Z1.2660 F10.0000
G1 X0.6888 Y0.6861 Z1.2632 F10.0000
G1 X0.6897 Y0.6540 Z1.2604 F10.0000
G1 X0.6969 Y0.6227 Z1.2575 F10.0000
G1 X0.7100 Y0.5934 Z1.2547 F10.0000
G1 X0.7286 Y0.5672 Z1.2519 F10.0000
G1 X0.7519 Y0.5452 Z1.2491 F10.0000
G1 X0.7791 Y0.5281 Z1.2463 F10.0000
G1 X0.8091 Y0.5167 Z1.2434 F10.0000
G1 X0.8408 Y0.5114 Z1.2406 F10.0000
G1 X0.8729 Y0.5123 Z1.2378 F10.0000
G1 X0.9041 Y0.5195 Z1.2350 F10.0000
G1 X0.9334 Y0.5326 Z1.2322 F10.0000
G1 X0.9596 Y0.5512 Z1.2293 F10.0000
G1 X0.9816 Y0.5745 Z1.2265 F10.0000
G1 X0.9987 Y0.6017 Z1.2237 F10.0000
G1 X1.0101 Y0.6317 Z1.2209 F10.0000
G1 X1.0155 Y0.6634 Z1.2181 F10.0000
G1 X1.0145 Y0.6954 Z1.2152 F10.0000
G1 X1.0074 Y0.7267 Z1.2124 F10.0000
G1 X0.9942 Y0.7560 Z1.2096 F10.0000
G1 X0.9756 Y0.7822 Z1.2068 F10.0000
G1 X0.9523 Y0.8042 Z1.2040 F10.0000
G1 X0.9251 Y0.8213 Z1.2011 F10.0000
G1 X0.8951 Y0.8327 Z1.1983 F10.0000
G1 X0.8635 Y0.8380 Z1.1955 F10.0000
G1 X0.8314 Y0.8371 Z1.1927 F10.0000
G1 X0.8001 Y0.8300 Z1.1899 F10.0000
G1 X0.7708 Y0.8168 Z1.1870 F10.0000
G1 X0.7446 Y0.7982 Z1.1842 F10.0000
G1 X0.7226 Y0.7749 Z1.1814 F10.0000
G1 X0.7056 Y0.7477 Z1.1786 F10.0000
G1 X0.6941 Y0.7177 Z1.1758 F10.0000
G1 X0.6888 Y0.6861 Z1.1730 F10.0000
G1 X0.6897 Y0.6540 Z1.1701 F10.0000
G1 X0.6969 Y0.6227 Z1.1673 F10.0000
G1 X0.7100 Y0.5934 Z1.1645 F10.0000
G1 X0.7286 Y0.5672 Z1.1617 F10.0000
G1 X0.7519 Y0.5452 Z1.1589 F10.0000
G1 X0.7791 Y0.5281 Z1.1560 F10.0000
G1 X0.8091 Y0.5167 Z1.1532 F10.0000
G1 X0.8408 Y0.5114 Z1.1504 F10.0000
G1 X0.8729 Y0.5123 Z1.1476 F10.0000
G1 X0.9041 Y0.5195 Z1.1448 F10.0000
G1 X0.9334 Y0.5326 Z1.1419 F10.0000
G1 X0.9596 Y0.5512 Z1.1391 F10.0000
G1 X0.9816 Y0.5745 Z1.1363 F10.0000
G1 X0.9987 Y0.6017 Z1.1335 F10.0000
G1 X1.0101 Y0.6317 Z1.1307 F10.0000
G1 X1.0155 Y0.6634 Z1.1278 F10.0000
G1 X1.0145 Y0.6954 Z1.1250 F10.0000
G1 X1.0074 Y0.7267 Z1.1222 F10.0000
G1 X0.9942 Y0.7560 Z1.1194 F10.0000
G1 X0.9756 Y0.7822 Z1.1166 F10.0000
G1 X0.9523 Y0.8042 Z1.1137 F10.0000
G1 X0.9251 Y0.8213 Z1.1109 F10.0000
G1 X0.8951 Y0.8327 Z1.1081 F10.0000
G1 X0.8635 Y0.8380 Z1.1053 F10.0000
G1 X0.8314 Y0.8371 Z1.1025 F10.0000
G1 X0.8001 Y0.8300 Z1.0996 F10.0000
G1 X0.7708 Y0.8168 Z1.0968 F10.0000
G1 X0.7446 Y0.7982 Z1.0940 F10.0000
G1 X0.7226 Y0.7749 Z1.0912 F10.0000
G1 X0.7056 Y0.7477 Z1.0884 F10.0000
G1 X0.6941 Y0.7177 Z1.0856 F10.0000
G1 X0.6888 Y0.6861 Z1.0827 F10.0000
G1 X0.6897 Y0.6540 Z1.0799 F10.0000
G1 X0.6969 Y0.6227 Z1.0771 F10.0000
G1 X0.7100 Y0.5934 Z1.0743 F10.0000
G1 X0.7286 Y0.5672 Z1.0715 F10.0000
G1 X0.7519 Y0.5452 Z1.0686 F10.0000
G1 X0.7791 Y0.5281 Z1.0658 F10.0000
G1 X0.8091 Y0.5167 Z1.0630 F10.0000
G1 X0.8408 Y0.5114 Z1.0620 F10.0000
G1 X0.8729 Y0.5123 Z1.0620 F10.0000
G1 X0.9041 Y0.5195 Z1.0620 F10.0000
G1 X0.9334 Y0.5326 Z1.0620 F10.0000
G1 X0.9596 Y0.5512 Z1.0620 F10.0000
G1 X0.9816 Y0.5745 Z1.0620 F10.0000
G1 X0.9987 Y0.6017 Z1.0620 F10.0000
G1 X1.0101 Y0.6317 Z1.0620 F10.0000
G1 X1.0155 Y0.6634 Z1.0620 F10.0000
G1 X1.0145 Y0.6954 Z1.0620 F10.0000
G1 X1.0074 Y0.7267 Z1.0620 F10.0000
G1 X0.9942 Y0.7560 Z1.0620 F10.0000
G1 X0.9756 Y0.7822 Z1.0620 F10.0000
G1 X0.9523 Y0.8042 Z1.0620 F10.0000
G1 X0.9251 Y0.8213 Z1.0620 F10.0000
G1 X0.8951 Y0.8327 Z1.0620 F10.0000
G1 X0.8635 Y0.8380 Z1.0620 F10.0000
G1 X0.8314 Y0.8371 Z1.0620 F10.0000
G1 X0.8001 Y0.8300 Z1.0620 F10.0000
G1 X0.7708 Y0.8168 Z1.0620 F10.0000
G1 X0.7446 Y0.7982 Z1.0620 F10.0000
G1 X0.7226 Y0.7749 Z1.0620 F10.0000
G1 X0.7056 Y0.7477 Z1.0620 F10.0000
G1 X0.6941 Y0.7177 Z1.0620 F10.0000
G1 X0.6888 Y0.6861 Z1.0620 F10.0000
G1 X0.6897 Y0.6540 Z1.0620 F10.0000
G1 X0.6969 Y0.6227 Z1.0620 F10.0000
G1 X0.7100 Y0.5934 Z1.0620 F10.0000
G1 X0.7286 Y0.5672 Z1.0620 F10.0000
G1 X0.7519 Y0.5452 Z1.0620 F10.0000
G1 X0.7791 Y0.5281 Z1.0620 F10.0000
G1 X0.8091 Y0.5167 Z1.0620 F10.0000
(Adaptive - depth: 26.974800)
G1 X0.8521 Y0.5106 F10.0000
G1 X0.8575 Y0.5049 F10.0000
G1 X0.8679 Y0.4998 F10.0000
G1 X0.8863 Y0.4948 F10.0000
G1 X0.9048 Y0.4934 F10.0000
G1 X0.9358 Y0.4988 F10.0000
G1 X0.9547 Y0.5059 F10.0000
G1 X0.9660 Y0.5116 F10.0000
G1 X0.9779 Y0.5189 F10.0000
G1 X0.9914 Y0.5293 F10.0000
G1 X1.0069 Y0.5440 F10.0000
G1 X1.0197 Y0.5588 F10.0000
G1 X1.0303 Y0.5748 F10.0000
G1 X1.0384 Y0.5898 F10.0000
G1 X1.0458 Y0.6068 F10.0000
G1 X1.0522 Y0.6267 F10.0000
G1 X1.0566 Y0.6474 F10.0000
G1 X1.0583 Y0.6673 F10.0000
G1 X1.0583 Y0.6845 F10.0000
G1 X1.0563 Y0.7037 F10.0000
G1 X1.0529 Y0.7222 F10.0000
G1 X1.0465 Y0.7436 F10.0000
G1 X1.0389 Y0.7623 F10.0000
G1 X1.0295 Y0.7805 F10.0000
G1 X1.0182 Y0.7980 F10.0000
G1 X1.0057 Y0.8140 F10.0000
G1 X0.9906 Y0.8282 F10.0000
G1 X0.9776 Y0.8388 F10.0000
G1 X0.9619 Y0.8499 F10.0000
G1 X0.9422 Y0.8607 F10.0000
G1 X0.9220 Y0.8696 F10.0000
G1 X0.9016 Y0.8755 F10.0000
G1 X0.8851 Y0.8789 F10.0000
G1 X0.8654 Y0.8812 F10.0000
G1 X0.8440 Y0.8812 F10.0000
G1 X0.8250 Y0.8794 F10.0000
G1 X0.8054 Y0.8757 F10.0000
G1 X0.7857 Y0.8706 F10.0000
G1 X0.7633 Y0.8620 F10.0000
G1 X0.7446 Y0.8519 F10.0000
G1 X0.7301 Y0.8428 F10.0000
G1 X0.7141 Y0.8300 F10.0000
G1 X0.7003 Y0.8162 F10.0000
G1 X0.6882 Y0.8017 F10.0000
G1 X0.6767 Y0.7857 F10.0000
G1 X0.6654 Y0.7653 F10.0000
G1 X0.6570 Y0.7468 F10.0000
G1 X0.6501 Y0.7269 F10.0000
G1 X0.6459 Y0.7057 F10.0000
G1 X0.6439 Y0.6892 F10.0000
G1 X0.6435 Y0.6700 F10.0000
G1 X0.6449 Y0.6491 F10.0000
G1 X0.6484 Y0.6280 F10.0000
G1 X0.6535 Y0.6080 F10.0000
G1 X0.6607 Y0.5883 F10.0000
G1 X0.6703 Y0.5696 F10.0000
G1 X0.6796 Y0.5549 F10.0000
G1 X0.6917 Y0.5394 F10.0000
G1 X0.7047 Y0.5253 F10.0000
G1 X0.7207 Y0.5113 F10.0000
G1 X0.7365 Y0.4993 F10.0000
G1 X0.7562 Y0.4860 F10.0000
G1 X0.7817 Y0.4712 F10.0000
G1 X0.8088 Y0.4596 F10.0000
G1 X0.8290 Y0.4532 F10.0000
G1 X0.8474 Y0.4488 F10.0000
G1 X0.8696 Y0.4461 F10.0000
G1 X0.8900 Y0.4456 F10.0000
G1 X0.9104 Y0.4469 F10.0000
G1 X0.9311 Y0.4500 F10.0000
G1 X0.9513 Y0.4552 F10.0000
G1 X0.9705 Y0.4628 F10.0000
G1 X0.9860 Y0.4705 F10.0000
G1 X1.0025 Y0.4806 F10.0000
G1 X1.0199 Y0.4934 F10.0000
G1 X1.0376 Y0.5091 F10.0000
G1 X1.0519 Y0.5251 F10.0000
G1 X1.0632 Y0.5399 F10.0000
G1 X1.0746 Y0.5576 F10.0000
G1 X1.0846 Y0.5780 F10.0000
G1 X1.0923 Y0.5972 F10.0000
G1 X1.0984 Y0.6179 F10.0000
G1 X1.1024 Y0.6390 F10.0000
G1 X1.1046 Y0.6602 F10.0000
G1 X1.1048 Y0.6816 F10.0000
G1 X1.1036 Y0.7030 F10.0000
G1 X1.0997 Y0.7271 F10.0000
G1 X1.0942 Y0.7490 F10.0000
G1 X1.0871 Y0.7707 F10.0000
G1 X1.0778 Y0.7921 F10.0000
G1 X1.0659 Y0.8115 F10.0000
G1 X1.0556 Y0.8263 F10.0000
G1 X1.0423 Y0.8425 F10.0000
G1 X1.0258 Y0.8597 F10.0000
G1 X1.0062 Y0.8770 F10.0000
G1 X0.9867 Y0.8905 F10.0000
G1 X0.9692 Y0.9001 F10.0000
G1 X0.9520 Y0.9077 F10.0000
G1 X0.9328 Y0.9151 F10.0000
G1 X0.9070 Y0.9222 F10.0000
G1 X0.8824 Y0.9269 F10.0000
G1 X0.8585 Y0.9286 F10.0000
G1 X0.8391 Y0.9286 F10.0000
G1 X0.8167 Y0.9267 F10.0000
G1 X0.7950 Y0.9225 F10.0000
G1 X0.7744 Y0.9173 F10.0000
G1 X0.7505 Y0.9087 F10.0000
G1 X0.7298 Y0.8991 F10.0000
G1 X0.7101 Y0.8871 F10.0000
G1 X0.6954 Y0.8762 F10.0000
G1 X0.6791 Y0.8627 F10.0000
G1 X0.6614 Y0.8452 F10.0000
G1 X0.6449 Y0.8258 F10.0000
G1 X0.6319 Y0.8059 F10.0000
G1 X0.6223 Y0.7894 F10.0000
G1 X0.6132 Y0.7689 F10.0000
G1 X0.6061 Y0.7485 F10.0000
G1 X0.6001 Y0.7259 F10.0000
G1 X0.5965 Y0.7040 F10.0000
G1 X0.5947 Y0.6818 F10.0000
G1 X0.5950 Y0.6592 F10.0000
G1 X0.5972 Y0.6368 F10.0000
G1 X0.6014 Y0.6147 F10.0000
G1 X0.6073 Y0.5930 F10.0000
G1 X0.6152 Y0.5719 F10.0000
G1 X0.6248 Y0.5517 F10.0000
G1 X0.6361 Y0.5322 F10.0000
G1 X0.6486 Y0.5138 F10.0000
G1 X0.6649 Y0.4941 F10.0000
G1 X0.6811 Y0.4774 F10.0000
G1 X0.6988 Y0.4619 F10.0000
G1 X0.7178 Y0.4471 F10.0000
G1 X0.7416 Y0.4316 F10.0000
G1 X0.7638 Y0.4195 F10.0000
G1 X0.7876 Y0.4099 F10.0000
G1 X0.8061 Y0.4040 F10.0000
G1 X0.8285 Y0.3989 F10.0000
G1 X0.8504 Y0.3952 F10.0000
G1 X0.8777 Y0.3932 F10.0000
G1 X0.9016 Y0.3935 F10.0000
G1 X0.9259 Y0.3967 F10.0000
G1 X0.9444 Y0.4003 F10.0000
G1 X0.9656 Y0.4067 F10.0000
G1 X0.9857 Y0.4144 F10.0000
G1 X1.0094 Y0.4259 F10.0000
G1 X1.0290 Y0.4377 F10.0000
G1 X1.0482 Y0.4513 F10.0000
G1 X1.0667 Y0.4668 F10.0000
G1 X1.0834 Y0.4833 F10.0000
G1 X1.0989 Y0.5012 F10.0000
G1 X1.1127 Y0.5204 F10.0000
G1 X1.1243 Y0.5411 F10.0000
G1 X1.1324 Y0.5586 F10.0000
G1 X1.1403 Y0.5790 F10.0000
G1 X1.1476 Y0.6033 F10.0000
G1 X1.1533 Y0.6304 F10.0000
G1 X1.1567 Y0.6550 F10.0000
G1 X1.1570 Y0.6809 F10.0000
G1 X1.1560 Y0.7000 F10.0000
G1 X1.1533 Y0.7229 F10.0000
G1 X1.1481 Y0.7488 F10.0000
G1 X1.1407 Y0.7744 F10.0000
G1 X1.1312 Y0.7977 F10.0000
G1 X1.1220 Y0.8162 F10.0000
G1 X1.1100 Y0.8371 F10.0000
G1 X1.0952 Y0.8588 F10.0000
G1 X1.0782 Y0.8799 F10.0000
G1 X1.0598 Y0.8981 F10.0000
G1 X1.0445 Y0.9114 F10.0000
G1 X1.0251 Y0.9254 F10.0000
G1 X1.0054 Y0.9377 F10.0000
G1 X0.9813 Y0.9503 F10.0000
G1 X0.9587 Y0.9599 F10.0000
G1 X0.9350 Y0.9678 F10.0000
G1 X0.9104 Y0.9739 F10.0000
G1 X0.8356 Y0.9786 F10.0000
G1 X0.7844 Y0.9722 F10.0000
G1 X0.7500 Y0.9628 F10.0000
G1 X0.7205 Y0.9513 F10.0000
G1 X0.6976 Y0.9397 F10.0000
G1 X0.6789 Y0.9284 F10.0000
G1 X0.6609 Y0.9154 F10.0000
G1 X0.6432 Y0.9006 F10.0000
G1 X0.6240 Y0.8814 F10.0000
G1 X0.6083 Y0.8632 F10.0000
G1 X0.5938 Y0.8435 F10.0000
G1 X0.5805 Y0.8219 F10.0000
G1 X0.5694 Y0.8000 F10.0000
G1 X0.5598 Y0.7771 F10.0000
G1 X0.5522 Y0.7534 F10.0000
G1 X0.5463 Y0.7293 F10.0000
G1 X0.5423 Y0.7050 F10.0000
G1 X0.5404 Y0.6804 F10.0000
G1 X0.5404 Y0.6558 F10.0000
G1 X0.5423 Y0.6312 F10.0000
G1 X0.5463 Y0.6068 F10.0000
G1 X0.5522 Y0.5827 F10.0000
G1 X0.5598 Y0.5593 F10.0000
G1 X0.5694 Y0.5367 F10.0000
G1 X0.5807 Y0.5148 F10.0000
G1 X0.5938 Y0.4938 F10.0000
G1 X0.6083 Y0.4739 F10.0000
G1 X0.6240 Y0.4550 F10.0000
G1 X0.6442 Y0.4336 F10.0000
G1 X0.6671 Y0.4129 F10.0000
G1 X0.6897 Y0.3964 F10.0000
G1 X0.7079 Y0.3844 F10.0000
G1 X0.7795 Y0.3484 F10.0000
G1 X0.8238 Y0.3361 F10.0000
G1 X0.8681 Y0.3314 F10.0000
G1 X0.9309 Y0.3354 F10.0000
G1 X1.0034 Y0.3558 F10.0000
G1 X1.0504 Y0.3794 F10.0000
G1 X1.0760 Y0.3974 F10.0000
G1 X1.0999 Y0.4176 F10.0000
G1 X1.1186 Y0.4360 F10.0000
G1 X1.1341 Y0.4532 F10.0000
G1 X1.1511 Y0.4759 F10.0000
G1 X1.1649 Y0.4975 F10.0000
G1 X1.1772 Y0.5199 F10.0000
G1 X1.1880 Y0.5443 F10.0000
G1 X1.1969 Y0.5687 F10.0000
G1 X1.2040 Y0.5938 F10.0000
G1 X1.2092 Y0.6193 F10.0000
G1 X1.2124 Y0.6454 F10.0000
G1 X1.2136 Y0.6715 F10.0000
G1 X1.2128 Y0.6976 F10.0000
G1 X1.2101 Y0.7237 F10.0000
G1 X1.2055 Y0.7495 F10.0000
G1 X1.1991 Y0.7749 F10.0000
G1 X1.1907 Y0.7997 F10.0000
G1 X1.1804 Y0.8238 F10.0000
G1 X1.1683 Y0.8472 F10.0000
G1 X1.1545 Y0.8696 F10.0000
G1 X1.1393 Y0.8910 F10.0000
G1 X1.1223 Y0.9112 F10.0000
G1 X1.1038 Y0.9301 F10.0000
G1 X1.0842 Y0.9476 F10.0000
G1 X1.0635 Y0.9641 F10.0000
G1 X1.0376 Y0.9813 F10.0000
G1 X0.9601 Y1.0113 F10.0000
G1 X0.9286 Y1.0187 F10.0000
G1 X0.8617 Y1.0251 F10.0000
G1 X0.7869 Y1.0234 F10.0000
G1 X0.7436 Y1.0160 F10.0000
G1 X0.6865 Y0.9938 F10.0000
G1 X0.6476 Y0.9715 F10.0000
G1 X0.6218 Y0.9532 F10.0000
G1 X0.5977 Y0.9326 F10.0000
G1 X0.5792 Y0.9139 F10.0000
G1 X0.5642 Y0.8959 F10.0000
G1 X0.5504 Y0.8777 F10.0000
G1 X0.5349 Y0.8536 F10.0000
G1 X0.5209 Y0.8275 F10.0000
G1 X0.5098 Y0.8034 F10.0000
G1 X0.5000 Y0.7771 F10.0000
G1 X0.4921 Y0.7500 F10.0000
G1 X0.4870 Y0.7227 F10.0000
G1 X0.4840 Y0.7000 F10.0000
G1 X0.4828 Y0.6742 F10.0000
G1 X0.4833 Y0.6491 F10.0000
G1 X0.4860 Y0.6203 F10.0000
G1 X0.4904 Y0.5940 F10.0000
G1 X0.4968 Y0.5679 F10.0000
G1 X0.5052 Y0.5418 F10.0000
G1 X0.5153 Y0.5170 F10.0000
G1 X0.5271 Y0.4929 F10.0000
G1 X0.5404 Y0.4692 F10.0000
G1 X0.5578 Y0.4429 F10.0000
G1 X0.5753 Y0.4203 F10.0000
G1 X0.5942 Y0.3984 F10.0000
G1 X0.6558 Y0.3408 F10.0000
G1 X0.6686 Y0.3314 F10.0000
G1 X0.6865 Y0.3238 F10.0000
G1 X0.6902 Y0.3228 F10.0000
G1 X0.6902 Y0.3228 F10.0000
G1 X0.6912 Y0.3233 F10.0000
G1 X0.6912 Y0.3236 F10.0000
G1 X0.6937 Y0.3228 F10.0000
G1 X0.6937 Y0.3228 F10.0000
G1 X0.8007 Y0.3228 F10.0000
G1 X0.8007 Y0.3228 F10.0000
G1 X0.8095 Y0.3228 F10.0000
G1 X0.8095 Y0.3228 F10.0000
G1 X0.8159 Y0.3228 F10.0000
G1 X0.8159 Y0.3228 F10.0000
G1 X0.8250 Y0.3228 F10.0000
G1 X0.8250 Y0.3228 F10.0000
G1 X1.0281 Y0.3238 F10.0000
G1 X1.0650 Y0.3307 F10.0000
G1 X1.0888 Y0.3418 F10.0000
G1 X1.1294 Y0.3691 F10.0000
G1 X1.1410 Y0.3789 F10.0000
G1 X1.1636 Y0.4006 F10.0000
G1 X1.1843 Y0.4242 F10.0000
G1 X1.2030 Y0.4493 F10.0000
G1 X1.2165 Y0.4715 F10.0000
G1 X1.2274 Y0.4919 F10.0000
G1 X1.2387 Y0.5160 F10.0000
G1 X1.2495 Y0.5455 F10.0000
G1 X1.2571 Y0.5714 F10.0000
G1 X1.2635 Y0.5992 F10.0000
G1 X1.2680 Y0.6280 F10.0000
G1 X1.2704 Y0.6560 F10.0000
G1 X1.2709 Y0.6845 F10.0000
G1 X1.2694 Y0.7131 F10.0000
G1 X1.2660 Y0.7414 F10.0000
G1 X1.2606 Y0.7694 F10.0000
G1 X1.2532 Y0.7972 F10.0000
G1 X1.2438 Y0.8243 F10.0000
G1 X1.2328 Y0.8509 F10.0000
G1 X1.2200 Y0.8765 F10.0000
G1 X1.2045 Y0.9006 F10.0000
G1 X1.1914 Y0.9186 F10.0000
G1 X1.1752 Y0.9390 F10.0000
G1 X1.1540 Y0.9624 F10.0000
G1 X1.1314 Y0.9843 F10.0000
G1 X1.0768 Y1.0180 F10.0000
G1 X1.0539 Y1.0261 F10.0000
G1 X1.0500 Y1.0268 F10.0000
G1 X0.8846 Y1.0268 F10.0000
G1 X0.8846 Y1.0268 F10.0000
G1 X0.8711 Y1.0246 F10.0000
G1 X0.8627 Y1.0214 F10.0000
G1 X0.8593 Y1.0192 F10.0000
G1 X0.8563 Y1.0162 F10.0000
G0 X0.8548 Y1.0130
G0 X0.8541 Y1.0094
G0 X0.8553 Y0.9973
G0 X1.0037 Y0.3622
G1 X1.0052 Y0.3558 F10.0000
G1 X1.0081 Y0.3450 F10.0000
G1 X1.0098 Y0.3401 F10.0000
G1 X1.0123 Y0.3361 F10.0000
G1 X1.0153 Y0.3327 F10.0000
G1 X1.0224 Y0.3275 F10.0000
G1 X1.0308 Y0.3246 F10.0000
G1 X1.0440 Y0.3228 F10.0000
G1 X1.0440 Y0.3228 F10.0000
G1 X1.1105 Y0.3241 F10.0000
G1 X1.1437 Y0.3307 F10.0000
G1 X1.1540 Y0.3351 F10.0000
G1 X1.1882 Y0.3578 F10.0000
G1 X1.2136 Y0.3799 F10.0000
G1 X1.2347 Y0.4031 F10.0000
G1 X1.2539 Y0.4279 F10.0000
G1 X1.2692 Y0.4510 F10.0000
G1 X1.2815 Y0.4722 F10.0000
G1 X1.2943 Y0.4990 F10.0000
G1 X1.3041 Y0.5244 F10.0000
G1 X1.3123 Y0.5500 F10.0000
G1 X1.3194 Y0.5770 F10.0000
G1 X1.3260 Y0.6152 F10.0000
G1 X1.3290 Y0.6779 F10.0000
G1 X1.3226 Y0.7480 F10.0000
G1 X1.3157 Y0.7864 F10.0000
G1 X1.3081 Y0.8169 F10.0000
G1 X1.2980 Y0.8467 F10.0000
G1 X1.2869 Y0.8733 F10.0000
G1 X1.2753 Y0.8976 F10.0000
G1 X1.2596 Y0.9250 F10.0000
G1 X1.2434 Y0.9493 F10.0000
G1 X1.2219 Y0.9749 F10.0000
G1 X1.1764 Y1.0138 F10.0000
G1 X1.1666 Y1.0202 F10.0000
G1 X1.1518 Y1.0263 F10.0000
G1 X1.1046 Y1.0268 F10.0000
G1 X1.1046 Y1.0268 F10.0000
G1 X1.0910 Y1.0246 F10.0000
G1 X1.0827 Y1.0214 F10.0000
G1 X1.0790 Y1.0192 F10.0000
G1 X1.0760 Y1.0162 F10.0000
G0 X1.0741 Y1.0130
G0 X1.0721 Y1.0052
G0 X1.0719 Y0.9852
G0 X1.0886 Y0.3629
G1 X1.0888 Y0.3563 F10.0000
G1 X1.0893 Y0.3452 F10.0000
G1 X1.0903 Y0.3403 F10.0000
G1 X1.0923 Y0.3361 F10.0000
G1 X1.0947 Y0.3327 F10.0000
G1 X1.0979 Y0.3297 F10.0000
G1 X1.1056 Y0.3258 F10.0000
G1 X1.1230 Y0.3228 F10.0000
G1 X1.1230 Y0.3228 F10.0000
G1 X1.1784 Y0.3236 F10.0000
G1 X1.2079 Y0.3290 F10.0000
G1 X1.2219 Y0.3346 F10.0000
G1 X1.2648 Y0.3654 F10.0000
G1 X1.2783 Y0.3780 F10.0000
G1 X1.2992 Y0.4013 F10.0000
G1 X1.3177 Y0.4267 F10.0000
G1 X1.3374 Y0.4592 F10.0000
G1 X1.3573 Y0.5039 F10.0000
G1 X1.3679 Y0.5369 F10.0000
G1 X1.3762 Y0.6033 F10.0000
G1 X1.3730 Y0.7768 F10.0000
G1 X1.3666 Y0.8174 F10.0000
G1 X1.3364 Y0.8971 F10.0000
G1 X1.3196 Y0.9281 F10.0000
G1 X1.3041 Y0.9555 F10.0000
G1 X1.2867 Y0.9815 F10.0000
G1 X1.2591 Y1.0096 F10.0000
G1 X1.2470 Y1.0192 F10.0000
G1 X1.2328 Y1.0263 F10.0000
G1 X1.2013 Y1.0268 F10.0000
G1 X1.2013 Y1.0268 F10.0000
G1 X1.1877 Y1.0246 F10.0000
G1 X1.1794 Y1.0214 F10.0000
G1 X1.1757 Y1.0192 F10.0000
G1 X1.1727 Y1.0162 F10.0000
G0 X1.1705 Y1.0130
G0 X1.1683 Y1.0052
G0 X1.1673 Y0.9852
G0 X1.1599 Y0.3629
G1 X1.1599 Y0.3563 F10.0000
G1 X1.1599 Y0.3452 F10.0000
G1 X1.1609 Y0.3403 F10.0000
G1 X1.1624 Y0.3361 F10.0000
G1 X1.1649 Y0.3327 F10.0000
G1 X1.1681 Y0.3297 F10.0000
G1 X1.1757 Y0.3258 F10.0000
G1 X1.1932 Y0.3228 F10.0000
G1 X1.1932 Y0.3228 F10.0000
G1 X1.2448 Y0.3233 F10.0000
G1 X1.2744 Y0.3285 F10.0000
G1 X1.2849 Y0.3324 F10.0000
G1 X1.3130 Y0.3514 F10.0000
G1 X1.3511 Y0.3875 F10.0000
G1 X1.3674 Y0.4082 F10.0000
G1 X1.3725 Y0.4183 F10.0000
G1 X1.3760 Y0.4291 F10.0000
G1 X1.3765 Y0.5177 F10.0000
G1 X1.3765 Y0.5177 F10.0000
G1 X1.3743 Y0.5305 F10.0000
G1 X1.3711 Y0.5386 F10.0000
G1 X1.3691 Y0.5418 F10.0000
G1 X1.3666 Y0.5440 F10.0000
G0 X1.3644 Y0.5443
G0 X1.3620 Y0.5433
G0 X1.3551 Y0.5347
G0 X1.2436 Y0.3565
G1 X1.2409 Y0.3521 F10.0000
G1 X1.2357 Y0.3433 F10.0000
G1 X1.2345 Y0.3393 F10.0000
G1 X1.2345 Y0.3356 F10.0000
G1 X1.2360 Y0.3324 F10.0000
G1 X1.2384 Y0.3297 F10.0000
G1 X1.2456 Y0.3258 F10.0000
G1 X1.2630 Y0.3228 F10.0000
G1 X1.2630 Y0.3228 F10.0000
G1 X1.3073 Y0.3233 F10.0000
G1 X1.3369 Y0.3287 F10.0000
G1 X1.3474 Y0.3327 F10.0000
G1 X1.3659 Y0.3462 F10.0000
G1 X1.3708 Y0.3519 F10.0000
G1 X1.3760 Y0.3620 F10.0000
G1 X1.3765 Y0.3693 F10.0000
G1 X1.3765 Y0.3693 F10.0000
G1 X1.3752 Y0.3780 F10.0000
G1 X1.3725 Y0.3858 F10.0000
G1 X1.3706 Y0.3883 F10.0000
G0 X1.3681 Y0.3893
G0 X1.3654 Y0.3888
G0 X1.3563 Y0.3824
G0 X1.3174 Y0.3467
G1 X1.3137 Y0.3433 F10.0000
G1 X1.3068 Y0.3364 F10.0000
G1 X1.3049 Y0.3332 F10.0000
G1 X1.3046 Y0.3305 F10.0000
G1 X1.3059 Y0.3280 F10.0000
G1 X1.3086 Y0.3260 F10.0000
G1 X1.3159 Y0.3238 F10.0000
G1 X1.3246 Y0.3228 F10.0000
G1 X1.3246 Y0.3228 F10.0000
G1 X1.3467 Y0.3231 F10.0000
G1 X1.3615 Y0.3260 F10.0000
G1 X1.3647 Y0.3280 F10.0000
G1 X1.3743 Y0.3396 F10.0000
G1 X1.3755 Y0.3430 F10.0000
G1 X1.3765 Y0.3504 F10.0000
G1 X1.3765 Y0.3504 F10.0000
G1 X1.3745 Y0.3632 F10.0000
G1 X1.3716 Y0.3716 F10.0000
G1 X1.3674 Y0.3794 F10.0000
G0 X1.3647 Y0.3829
G0 X1.3369 Y0.4126
G0 X1.3344 Y0.4161
G0 X1.3327 Y0.4200
G0 X1.3312 Y0.4284
G0 X1.3307 Y0.4783
G0 X1.3273 Y0.5150
G0 X1.3300 Y0.6941
G0 X1.3307 Y0.6986
G0 X1.3319 Y0.7025
G0 X1.3366 Y0.7099
G0 X1.3457 Y0.7202
G1 X1.3489 Y0.7237 F10.0000
G1 X1.3639 Y0.7402 F10.0000
G1 X1.3691 Y0.7475 F10.0000
G1 X1.3728 Y0.7557 F10.0000
G1 X1.3762 Y0.7734 F10.0000
G1 X1.3762 Y0.7734 F10.0000
G1 X1.3740 Y0.8915 F10.0000
G1 X1.3693 Y0.9210 F10.0000
G1 X1.3617 Y0.9429 F10.0000
G1 X1.3415 Y0.9803 F10.0000
G1 X1.3253 Y1.0025 F10.0000
G1 X1.3118 Y1.0167 F10.0000
G1 X1.3019 Y1.0234 F10.0000
G1 X1.2945 Y1.0266 F10.0000
G1 X1.2709 Y1.0268 F10.0000
G1 X1.2709 Y1.0268 F10.0000
G1 X1.2574 Y1.0246 F10.0000
G1 X1.2490 Y1.0214 F10.0000
G1 X1.2456 Y1.0192 F10.0000
G1 X1.2434 Y1.0167 F10.0000
G0 X1.2426 Y1.0138
G0 X1.2431 Y1.0108
G0 X1.2468 Y1.0042
G0 X1.3465 Y0.8910
G1 X1.3499 Y0.8871 F10.0000
G1 X1.3568 Y0.8799 F10.0000
G1 X1.3602 Y0.8777 F10.0000
G1 X1.3634 Y0.8772 F10.0000
G1 X1.3661 Y0.8782 F10.0000
G1 X1.3686 Y0.8804 F10.0000
G1 X1.3725 Y0.8873 F10.0000
G1 X1.3748 Y0.8959 F10.0000
G1 X1.3760 Y0.9048 F10.0000
G1 X1.3760 Y0.9048 F10.0000
G1 X1.3750 Y0.9638 F10.0000
G1 X1.3701 Y0.9897 F10.0000
G1 X1.3656 Y1.0005 F10.0000
G1 X1.3568 Y1.0135 F10.0000
G1 X1.3514 Y1.0192 F10.0000
G1 X1.3413 Y1.0253 F10.0000
G1 X1.3376 Y1.0268 F10.0000
G1 X1.3297 Y1.0268 F10.0000
G1 X1.3297 Y1.0268 F10.0000
G1 X1.3206 Y1.0256 F10.0000
G1 X1.3125 Y1.0229 F10.0000
G1 X1.3100 Y1.0209 F10.0000
G0 X1.3091 Y1.0185
G0 X1.3095 Y1.0157
G0 X1.3132 Y1.0098
G0 X1.3509 Y0.9680
G1 X1.3541 Y0.9648 F10.0000
G1 X1.3629 Y0.9557 F10.0000
G1 X1.3656 Y0.9542 F10.0000
G1 X1.3684 Y0.9542 F10.0000
G1 X1.3706 Y0.9560 F10.0000
G1 X1.3723 Y0.9587 F10.0000
G1 X1.3748 Y0.9663 F10.0000
G1 X1.3760 Y0.9749 F10.0000
G1 X1.3760 Y0.9749 F10.0000
G1 X1.3755 Y1.0044 F10.0000
G1 X1.3733 Y1.0118 F10.0000
G1 X1.3713 Y1.0153 F10.0000
G1 X1.3659 Y1.0209 F10.0000
G1 X1.3553 Y1.0261 F10.0000
G1 X1.3553 Y1.0261 F10.0000
G1 X1.3371 Y1.0251 F10.0000
G1 X1.3282 Y1.0231 F10.0000
G1 X1.3241 Y1.0217 F10.0000
G0 X1.3201 Y1.0199
G0 X1.2726 Y0.9875
G0 X1.2650 Y0.9838
G0 X1.1553 Y0.9796
G0 X0.8903 Y0.9793
G0 X0.8821 Y0.9806
G0 X0.8482 Y1.0005
G1 X0.8442 Y1.0032 F10.0000
G1 X0.8194 Y1.0197 F10.0000
G1 X0.8113 Y1.0234 F10.0000
G1 X0.7943 Y1.0268 F10.0000
G1 X0.7943 Y1.0268 F10.0000
G1 X0.6880 Y1.0253 F10.0000
G1 X0.6526 Y1.0187 F10.0000
G1 X0.6009 Y0.9941 F10.0000
G1 X0.5674 Y0.9707 F10.0000
G1 X0.5433 Y0.9500 F10.0000
G1 X0.5212 Y0.9274 F10.0000
G1 X0.5017 Y0.9033 F10.0000
G1 X0.4884 Y0.8836 F10.0000
G1 X0.4769 Y0.8649 F10.0000
G1 X0.4628 Y0.8381 F10.0000
G1 X0.4513 Y0.8103 F10.0000
G1 X0.4422 Y0.7849 F10.0000
G1 X0.4345 Y0.7571 F10.0000
G1 X0.4289 Y0.7291 F10.0000
G1 X0.4252 Y0.7010 F10.0000
G1 X0.4235 Y0.6725 F10.0000
G1 X0.4237 Y0.6442 F10.0000
G1 X0.4259 Y0.6159 F10.0000
G1 X0.4301 Y0.5878 F10.0000
G1 X0.4363 Y0.5600 F10.0000
G1 X0.4441 Y0.5327 F10.0000
G1 X0.4540 Y0.5062 F10.0000
G1 X0.4651 Y0.4801 F10.0000
G1 X0.4796 Y0.4520 F10.0000
G1 X0.4951 Y0.4262 F10.0000
G1 X0.5123 Y0.4008 F10.0000
G1 X0.5627 Y0.3356 F10.0000
G1 X0.5684 Y0.3302 F10.0000
G1 X0.5785 Y0.3243 F10.0000
G1 X0.5819 Y0.3228 F10.0000
G1 X0.5819 Y0.3228 F10.0000
G1 X0.5947 Y0.3243 F10.0000
G1 X0.6029 Y0.3273 F10.0000
G1 X0.6065 Y0.3295 F10.0000
G1 X0.6095 Y0.3322 F10.0000
G0 X0.6120 Y0.3354
G0 X0.6149 Y0.3430
G0 X0.6181 Y0.3629
G0 X0.7000 Y0.9855
G1 X0.7008 Y0.9916 F10.0000
G1 X0.7023 Y1.0059 F10.0000
G1 X0.7020 Y1.0098 F10.0000
G1 X0.7005 Y1.0135 F10.0000
G1 X0.6986 Y1.0167 F10.0000
G1 X0.6922 Y1.0217 F10.0000
G1 X0.6843 Y1.0249 F10.0000
G1 X0.6715 Y1.0268 F10.0000
G1 X0.6715 Y1.0268 F10.0000
G1 X0.6203 Y1.0263 F10.0000
G1 X0.5888 Y1.0221 F10.0000
G1 X0.5691 Y1.0162 F10.0000
G1 X0.5231 Y0.9899 F10.0000
G1 X0.4968 Y0.9697 F10.0000
G1 X0.4737 Y0.9481 F10.0000
G1 X0.4528 Y0.9242 F10.0000
G1 X0.4350 Y0.9001 F10.0000
G1 X0.4225 Y0.8799 F10.0000
G1 X0.4114 Y0.8600 F10.0000
G1 X0.3984 Y0.8324 F10.0000
G1 X0.3871 Y0.8029 F10.0000
G1 X0.3784 Y0.7763 F10.0000
G1 X0.3649 Y0.7156 F10.0000
G1 X0.3590 Y0.6565 F10.0000
G1 X0.3642 Y0.5738 F10.0000
G1 X0.3782 Y0.5148 F10.0000
G1 X0.3895 Y0.4852 F10.0000
G1 X0.4026 Y0.4564 F10.0000
G1 X0.4168 Y0.4284 F10.0000
G1 X0.4318 Y0.4006 F10.0000
G1 X0.4656 Y0.3472 F10.0000
G1 X0.4779 Y0.3319 F10.0000
G1 X0.4840 Y0.3270 F10.0000
G1 X0.4909 Y0.3233 F10.0000
G1 X0.4909 Y0.3233 F10.0000
G1 X0.5037 Y0.3248 F10.0000
G1 X0.5118 Y0.3278 F10.0000
G1 X0.5155 Y0.3300 F10.0000
G1 X0.5185 Y0.3327 F10.0000
G0 X0.5209 Y0.3359
G0 X0.5239 Y0.3433
G0 X0.5276 Y0.3632
G0 X0.6206 Y0.9855
G1 X0.6216 Y0.9916 F10.0000
G1 X0.6233 Y1.0059 F10.0000
G1 X0.6230 Y1.0098 F10.0000
G1 X0.6218 Y1.0135 F10.0000
G1 X0.6196 Y1.0167 F10.0000
G1 X0.6134 Y1.0217 F10.0000
G1 X0.6056 Y1.0249 F10.0000
G1 X0.5928 Y1.0268 F10.0000
G1 X0.5928 Y1.0268 F10.0000
G1 X0.5416 Y1.0256 F10.0000
G1 X0.5140 Y1.0204 F10.0000
G1 X0.5022 Y1.0165 F10.0000
G1 X0.4631 Y0.9941 F10.0000
G1 X0.4341 Y0.9710 F10.0000
G1 X0.4107 Y0.9496 F10.0000
G1 X0.3900 Y0.9254 F10.0000
G1 X0.3580 Y0.8784 F10.0000
G1 X0.3322 Y0.8268 F10.0000
G1 X0.3236 Y0.7953 F10.0000
G1 X0.3250 Y0.4961 F10.0000
G1 X0.3302 Y0.4606 F10.0000
G1 X0.3501 Y0.4043 F10.0000
G1 X0.3718 Y0.3615 F10.0000
G1 X0.3927 Y0.3324 F10.0000
G1 X0.3986 Y0.3275 F10.0000
G1 X0.4053 Y0.3238 F10.0000
G1 X0.4090 Y0.3228 F10.0000
G1 X0.4090 Y0.3228 F10.0000
G1 X0.4218 Y0.3243 F10.0000
G1 X0.4299 Y0.3273 F10.0000
G1 X0.4336 Y0.3295 F10.0000
G1 X0.4368 Y0.3322 F10.0000
G0 X0.4390 Y0.3354
G0 X0.4422 Y0.3428
G0 X0.4464 Y0.3627
G0 X0.5586 Y0.9857
G1 X0.5598 Y0.9919 F10.0000
G1 X0.5618 Y1.0059 F10.0000
G1 X0.5618 Y1.0101 F10.0000
G1 X0.5605 Y1.0135 F10.0000
G1 X0.5583 Y1.0167 F10.0000
G1 X0.5556 Y1.0194 F10.0000
G1 X0.5482 Y1.0234 F10.0000
G1 X0.5401 Y1.0256 F10.0000
G1 X0.5315 Y1.0268 F10.0000
G1 X0.5315 Y1.0268 F10.0000
G1 X0.4843 Y1.0261 F10.0000
G1 X0.4488 Y1.0199 F10.0000
G1 X0.4336 Y1.0140 F10.0000
G1 X0.3915 Y0.9879 F10.0000
G1 X0.3519 Y0.9525 F10.0000
G1 X0.3327 Y0.9313 F10.0000
G1 X0.3246 Y0.9168 F10.0000
G1 X0.3231 Y0.9131 F10.0000
G1 X0.3231 Y0.9053 F10.0000
G1 X0.3231 Y0.9053 F10.0000
G1 X0.3246 Y0.8917 F10.0000
G1 X0.3278 Y0.8834 F10.0000
G1 X0.3297 Y0.8799 F10.0000
G1 X0.3322 Y0.8777 F10.0000
G0 X0.3349 Y0.8770
G0 X0.3378 Y0.8775
G0 X0.3442 Y0.8814
G0 X0.4734 Y0.9968
G1 X0.4771 Y1.0000 F10.0000
G1 X0.4865 Y1.0089 F10.0000
G1 X0.4882 Y1.0118 F10.0000
G1 X0.4884 Y1.0145 F10.0000
G1 X0.4872 Y1.0172 F10.0000
G1 X0.4847 Y1.0197 F10.0000
G1 X0.4781 Y1.0234 F10.0000
G1 X0.4697 Y1.0256 F10.0000
G1 X0.4614 Y1.0268 F10.0000
G1 X0.4614 Y1.0268 F10.0000
G1 X0.4141 Y1.0258 F10.0000
G1 X0.3826 Y1.0199 F10.0000
G1 X0.3711 Y1.0155 F10.0000
G1 X0.3465 Y1.0002 F10.0000
G1 X0.3307 Y0.9872 F10.0000
G1 X0.3241 Y0.9769 F10.0000
G1 X0.3231 Y0.9729 F10.0000
G1 X0.3231 Y0.9729 F10.0000
G1 X0.3246 Y0.9594 F10.0000
G1 X0.3278 Y0.9510 F10.0000
G1 X0.3297 Y0.9476 F10.0000
G1 X0.3322 Y0.9454 F10.0000
G0 X0.3351 Y0.9444
G0 X0.3383 Y0.9446
G0 X0.3450 Y0.9481
G0 X0.4114 Y0.9983
G1 X0.4149 Y1.0010 F10.0000
G1 X0.4247 Y1.0094 F10.0000
G1 X0.4267 Y1.0121 F10.0000
G1 X0.4269 Y1.0148 F10.0000
G1 X0.4259 Y1.0172 F10.0000
G1 X0.4235 Y1.0197 F10.0000
G1 X0.4168 Y1.0234 F10.0000
G1 X0.4085 Y1.0256 F10.0000
G1 X0.4001 Y1.0268 F10.0000
G1 X0.4001 Y1.0268 F10.0000
G1 X0.3607 Y1.0263 F10.0000
G1 X0.3410 Y1.0224 F10.0000
G1 X0.3374 Y1.0209 F10.0000
G1 X0.3305 Y1.0162 F10.0000
G1 X0.3275 Y1.0133 F10.0000
G1 X0.3241 Y1.0062 F10.0000
G1 X0.3241 Y1.0062 F10.0000
G1 X0.3246 Y1.0039 F10.0000
G1 X0.3260 Y1.0034 F10.0000
G1 X0.3305 Y1.0066 F10.0000
G1 X0.3413 Y1.0187 F10.0000
G1 X0.3425 Y1.0209 F10.0000
G1 X0.3423 Y1.0224 F10.0000
G1 X0.3391 Y1.0239 F10.0000
G1 X0.3391 Y1.0239 F10.0000
G1 X0.3319 Y1.0194 F10.0000
G1 X0.3319 Y1.0194 F10.0000
G1 X0.3275 Y1.0116 F10.0000
G1 X0.3246 Y1.0030 F10.0000
G1 X0.3238 Y0.9943 F10.0000
G1 X0.3243 Y0.9902 F10.0000
G0 X0.3255 Y0.9860
G0 X0.3302 Y0.9788
G0 X0.3622 Y0.9456
G0 X0.3647 Y0.9419
G0 X0.3679 Y0.9338
G0 X0.3738 Y0.8135
G0 X0.3684 Y0.7303
G0 X0.3698 Y0.5802
G0 X0.3684 Y0.5719
G0 X0.3627 Y0.5600
G0 X0.3501 Y0.5408
G1 X0.3474 Y0.5367 F10.0000
G1 X0.3310 Y0.5123 F10.0000
G1 X0.3270 Y0.5042 F10.0000
G1 X0.3228 Y0.4875 F10.0000
G1 X0.3228 Y0.4875 F10.0000
G1 X0.3241 Y0.3772 F10.0000
G1 X0.3280 Y0.3536 F10.0000
G1 X0.3319 Y0.3423 F10.0000
G1 X0.3356 Y0.3354 F10.0000
G1 X0.3406 Y0.3292 F10.0000
G1 X0.3467 Y0.3243 F10.0000
G1 X0.3504 Y0.3231 F10.0000
G1 X0.3504 Y0.3231 F10.0000
G1 X0.3585 Y0.3238 F10.0000
G1 X0.3612 Y0.3250 F10.0000
G0 X0.3625 Y0.3268
G0 X0.3622 Y0.3295
G0 X0.3418 Y0.3602
G1 X0.3393 Y0.3639 F10.0000
G1 X0.3317 Y0.3738 F10.0000
G1 X0.3292 Y0.3757 F10.0000
G1 X0.3273 Y0.3757 F10.0000
G1 X0.3258 Y0.3743 F10.0000
G1 X0.3228 Y0.3647 F10.0000
G1 X0.3228 Y0.3647 F10.0000
G1 X0.3243 Y0.3450 F10.0000
G1 X0.3253 Y0.3410 F10.0000
G1 X0.3290 Y0.3339 F10.0000
G1 X0.3346 Y0.3285 F10.0000
G1 X0.3378 Y0.3263 F10.0000
G1 X0.3378 Y0.3263 F10.0000
G1 X0.3455 Y0.3219 F10.0000
G1 X0.3541 Y0.3194 F10.0000
G1 X0.3629 Y0.3189 F10.0000
G1 X0.3718 Y0.3199 F10.0000
G0 Z1.6969
G0 X0.3718 Y0.3199
G0 X0.3342 Y1.0261
G1 Z1.0620 F10.0000
G1 X0.3342 Y1.0261 F10.0000
G1 X0.3280 Y1.0197 F10.0000
G1 X0.3231 Y1.0123 F10.0000
G1 X0.3199 Y1.0042 F10.0000
G1 X0.3187 Y0.9953 F10.0000
G1 X0.3187 Y0.9953 F10.0000
G1 X0.3189 Y0.3575 F10.0000
G1 X0.3199 Y0.3469 F10.0000
G1 X0.3219 Y0.3381 F10.0000
G1 X0.3258 Y0.3310 F10.0000
G1 X0.3287 Y0.3275 F10.0000
G1 X0.3337 Y0.3238 F10.0000
G1 X0.3381 Y0.3214 F10.0000
G1 X0.3541 Y0.3187 F10.0000
G1 X1.3440 Y0.3189 F10.0000
G1 X1.3556 Y0.3201 F10.0000
G1 X1.3612 Y0.3216 F10.0000
G1 X1.3684 Y0.3255 F10.0000
G1 X1.3745 Y0.3319 F10.0000
G1 X1.3792 Y0.3410 F10.0000
G1 X1.3809 Y0.3511 F10.0000
G1 X1.3804 Y1.0007 F10.0000
G1 X1.3787 Y1.0096 F10.0000
G1 X1.3748 Y1.0172 F10.0000
G1 X1.3713 Y1.0217 F10.0000
G1 X1.3654 Y1.0261 F10.0000
G1 X1.3558 Y1.0300 F10.0000
G1 X1.3418 Y1.0313 F10.0000
G1 X0.3583 Y1.0308 F10.0000
G1 X0.3447 Y1.0295 F10.0000
G1 X0.3342 Y1.0263 F10.0000
G1 X0.3278 Y1.0212 F10.0000
G1 X0.3226 Y1.0140 F10.0000
G1 X0.3206 Y1.0096 F10.0000
G1 X0.3187 Y0.9953 F10.0000
G1 X0.3187 Y0.9953 F10.0000
G0 Z1.6969
(Helix to depth: 19.050000)
G0 Z1.6969
G0 X0.8413 Y0.8381 Z1.6969
G0 X0.8413 Y0.8381 Z1.6181
G1 X0.8413 Y0.8381 Z1.0620 F10.0000
G1 X0.8413 Y0.8381 Z1.0620 F10.0000
G1 X0.8096 Y0.8328 Z1.0592 F10.0000
G1 X0.7796 Y0.8215 Z1.0564 F10.0000
G1 X0.7523 Y0.8045 Z1.0535 F10.0000
G1 X0.7289 Y0.7826 Z1.0507 F10.0000
G1 X0.7103 Y0.7565 Z1.0479 F10.0000
G1 X0.6970 Y0.7272 Z1.0451 F10.0000
G1 X0.6898 Y0.6959 Z1.0423 F10.0000
G1 X0.6887 Y0.6639 Z1.0394 F10.0000
G1 X0.6940 Y0.6322 Z1.0366 F10.0000
G1 X0.7053 Y0.6022 Z1.0338 F10.0000
G1 X0.7223 Y0.5749 Z1.0310 F10.0000
G1 X0.7443 Y0.5515 Z1.0282 F10.0000
G1 X0.7704 Y0.5328 Z1.0253 F10.0000
G1 X0.7996 Y0.5196 Z1.0225 F10.0000
G1 X0.8309 Y0.5124 Z1.0197 F10.0000
G1 X0.8630 Y0.5113 Z1.0169 F10.0000
G1 X0.8946 Y0.5166 Z1.0141 F10.0000
G1 X0.9247 Y0.5279 Z1.0113 F10.0000
G1 X0.9519 Y0.5449 Z1.0084 F10.0000
G1 X0.9753 Y0.5668 Z1.0056 F10.0000
G1 X0.9940 Y0.5930 Z1.0028 F10.0000
G1 X1.0072 Y0.6222 Z1.0000 F10.0000
G1 X1.0145 Y0.6535 Z0.9972 F10.0000
G1 X1.0155 Y0.6855 Z0.9943 F10.0000
G1 X1.0102 Y0.7172 Z0.9915 F10.0000
G1 X0.9989 Y0.7472 Z0.9887 F10.0000
G1 X0.9819 Y0.7745 Z0.9859 F10.0000
G1 X0.9600 Y0.7979 Z0.9831 F10.0000
G1 X0.9339 Y0.8166 Z0.9802 F10.0000
G1 X0.9046 Y0.8298 Z0.9774 F10.0000
G1 X0.8734 Y0.8371 Z0.9746 F10.0000
G1 X0.8413 Y0.8381 Z0.9718 F10.0000
G1 X0.8096 Y0.8328 Z0.9690 F10.0000
G1 X0.7796 Y0.8215 Z0.9661 F10.0000
G1 X0.7523 Y0.8045 Z0.9633 F10.0000
G1 X0.7289 Y0.7826 Z0.9605 F10.0000
G1 X0.7103 Y0.7565 Z0.9577 F10.0000
G1 X0.6970 Y0.7272 Z0.9549 F10.0000
G1 X0.6898 Y0.6959 Z0.9520 F10.0000
G1 X0.6887 Y0.6639 Z0.9492 F10.0000
G1 X0.6940 Y0.6322 Z0.9464 F10.0000
G1 X0.7053 Y0.6022 Z0.9436 F10.0000
G1 X0.7223 Y0.5749 Z0.9408 F10.0000
G1 X0.7443 Y0.5515 Z0.9379 F10.0000
G1 X0.7704 Y0.5328 Z0.9351 F10.0000
G1 X0.7996 Y0.5196 Z0.9323 F10.0000
G1 X0.8309 Y0.5124 Z0.9295 F10.0000
G1 X0.8630 Y0.5113 Z0.9267 F10.0000
G1 X0.8946 Y0.5166 Z0.9239 F10.0000
G1 X0.9247 Y0.5279 Z0.9210 F10.0000
G1 X0.9519 Y0.5449 Z0.9182 F10.0000
G1 X0.9753 Y0.5668 Z0.9154 F10.0000
G1 X0.9940 Y0.5930 Z0.9126 F10.0000
G1 X1.0072 Y0.6222 Z0.9098 F10.0000
G1 X1.0145 Y0.6535 Z0.9069 F10.0000
G1 X1.0155 Y0.6855 Z0.9041 F10.0000
G1 X1.0102 Y0.7172 Z0.9013 F10.0000
G1 X0.9989 Y0.7472 Z0.8985 F10.0000
G1 X0.9819 Y0.7745 Z0.8957 F10.0000
G1 X0.9600 Y0.7979 Z0.8928 F10.0000
G1 X0.9339 Y0.8166 Z0.8900 F10.0000
G1 X0.9046 Y0.8298 Z0.8872 F10.0000
G1 X0.8734 Y0.8371 Z0.8844 F10.0000
G1 X0.8413 Y0.8381 Z0.8816 F10.0000
G1 X0.8096 Y0.8328 Z0.8787 F10.0000
G1 X0.7796 Y0.8215 Z0.8759 F10.0000
G1 X0.7523 Y0.8045 Z0.8731 F10.0000
G1 X0.7289 Y0.7826 Z0.8703 F10.0000
G1 X0.7103 Y0.7565 Z0.8675 F10.0000
G1 X0.6970 Y0.7272 Z0.8646 F10.0000
G1 X0.6898 Y0.6959 Z0.8618 F10.0000
G1 X0.6887 Y0.6639 Z0.8590 F10.0000
G1 X0.6940 Y0.6322 Z0.8562 F10.0000
G1 X0.7053 Y0.6022 Z0.8534 F10.0000
G1 X0.7223 Y0.5749 Z0.8505 F10.0000
G1 X0.7443 Y0.5515 Z0.8477 F10.0000
G1 X0.7704 Y0.5328 Z0.8449 F10.0000
G1 X0.7996 Y0.5196 Z0.8421 F10.0000
G1 X0.8309 Y0.5124 Z0.8393 F10.0000
G1 X0.8630 Y0.5113 Z0.8364 F10.0000
G1 X0.8946 Y0.5166 Z0.8336 F10.0000
G1 X0.9247 Y0.5279 Z0.8308 F10.0000
G1 X0.9519 Y0.5449 Z0.8280 F10.0000
G1 X0.9753 Y0.5668 Z0.8252 F10.0000
G1 X0.9940 Y0.5930 Z0.8224 F10.0000
G1 X1.0072 Y0.6222 Z0.8195 F10.0000
G1 X1.0145 Y0.6535 Z0.8167 F10.0000
G1 X1.0155 Y0.6855 Z0.8139 F10.0000
G1 X1.0102 Y0.7172 Z0.8111 F10.0000
G1 X0.9989 Y0.7472 Z0.8083 F10.0000
G1 X0.9819 Y0.7745 Z0.8054 F10.0000
G1 X0.9600 Y0.7979 Z0.8026 F10.0000
G1 X0.9339 Y0.8166 Z0.7998 F10.0000
G1 X0.9046 Y0.8298 Z0.7970 F10.0000
G1 X0.8734 Y0.8371 Z0.7942 F10.0000
G1 X0.8413 Y0.8381 Z0.7913 F10.0000
G1 X0.8096 Y0.8328 Z0.7885 F10.0000
G1 X0.7796 Y0.8215 Z0.7857 F10.0000
G1 X0.7523 Y0.8045 Z0.7829 F10.0000
G1 X0.7289 Y0.7826 Z0.7801 F10.0000
G1 X0.7103 Y0.7565 Z0.7772 F10.0000
G1 X0.6970 Y0.7272 Z0.7744 F10.0000
G1 X0.6898 Y0.6959 Z0.7716 F10.0000
G1 X0.6887 Y0.6639 Z0.7688 F10.0000
G1 X0.6940 Y0.6322 Z0.7660 F10.0000
G1 X0.7053 Y0.6022 Z0.7631 F10.0000
G1 X0.7223 Y0.5749 Z0.7603 F10.0000
G1 X0.7443 Y0.5515 Z0.7575 F10.0000
G1 X0.7704 Y0.5328 Z0.7547 F10.0000
G1 X0.7996 Y0.5196 Z0.7519 F10.0000
G1 X0.8309 Y0.5124 Z0.7500 F10.0000
G1 X0.8630 Y0.5113 Z0.7500 F10.0000
G1 X0.8946 Y0.5166 Z0.7500 F10.0000
G1 X0.9247 Y0.5279 Z0.7500 F10.0000
G1 X0.9519 Y0.5449 Z0.7500 F10.0000
G1 X0.9753 Y0.5668 Z0.7500 F10.0000
G1 X0.9940 Y0.5930 Z0.7500 F10.0000
G1 X1.0072 Y0.6222 Z0.7500 F10.0000
G1 X1.0145 Y0.6535 Z0.7500 F10.0000
G1 X1.0155 Y0.6855 Z0.7500 F10.0000
G1 X1.0102 Y0.7172 Z0.7500 F10.0000
G1 X0.9989 Y0.7472 Z0.7500 F10.0000
G1 X0.9819 Y0.7745 Z0.7500 F10.0000
G1 X0.9600 Y0.7979 Z0.7500 F10.0000
G1 X0.9339 Y0.8166 Z0.7500 F10.0000
G1 X0.9046 Y0.8298 Z0.7500 F10.0000
G1 X0.8734 Y0.8371 Z0.7500 F10.0000
G1 X0.8413 Y0.8381 Z0.7500 F10.0000
G1 X0.8096 Y0.8328 Z0.7500 F10.0000
G1 X0.7796 Y0.8215 Z0.7500 F10.0000
G1 X0.7523 Y0.8045 Z0.7500 F10.0000
G1 X0.7289 Y0.7826 Z0.7500 F10.0000
G1 X0.7103 Y0.7565 Z0.7500 F10.0000
G1 X0.6970 Y0.7272 Z0.7500 F10.0000
G1 X0.6898 Y0.6959 Z0.7500 F10.0000
G1 X0.6887 Y0.6639 Z0.7500 F10.0000
G1 X0.6940 Y0.6322 Z0.7500 F10.0000
G1 X0.7053 Y0.6022 Z0.7500 F10.0000
G1 X0.7223 Y0.5749 Z0.7500 F10.0000
G1 X0.7443 Y0.5515 Z0.7500 F10.0000
G1 X0.7704 Y0.5328 Z0.7500 F10.0000
G1 X0.7996 Y0.5196 Z0.7500 F10.0000
(Adaptive - depth: 19.050000)
G1 X0.8521 Y0.5106 F10.0000
G1 X0.8575 Y0.5049 F10.0000
G1 X0.8679 Y0.4998 F10.0000
G1 X0.8863 Y0.4948 F10.0000
G1 X0.9048 Y0.4934 F10.0000
G1 X0.9358 Y0.4988 F10.0000
G1 X0.9547 Y0.5059 F10.0000
G1 X0.9660 Y0.5116 F10.0000
G1 X0.9779 Y0.5189 F10.0000
G1 X0.9914 Y0.5293 F10.0000
G1 X1.0069 Y0.5440 F10.0000
G1 X1.0197 Y0.5588 F10.0000
G1 X1.0303 Y0.5748 F10.0000
G1 X1.0384 Y0.5898 F10.0000
G1 X1.0458 Y0.6068 F10.0000
G1 X1.0522 Y0.6267 F10.0000
G1 X1.0566 Y0.6474 F10.0000
G1 X1.0583 Y0.6673 F10.0000
G1 X1.0583 Y0.6845 F10.0000
G1 X1.0563 Y0.7037 F10.0000
G1 X1.0529 Y0.7222 F10.0000
G1 X1.0465 Y0.7436 F10.0000
G1 X1.0389 Y0.7623 F10.0000
G1 X1.0295 Y0.7805 F10.0000
G1 X1.0182 Y0.7980 F10.0000
G1 X1.0057 Y0.8140 F10.0000
G1 X0.9906 Y0.8282 F10.0000
G1 X0.9776 Y0.8388 F10.0000
G1 X0.9619 Y0.8499 F10.0000
G1 X0.9422 Y0.8607 F10.0000
G1 X0.9220 Y0.8696 F10.0000
G1 X0.9016 Y0.8755 F10.0000
G1 X0.8851 Y0.8789 F10.0000
G1 X0.8654 Y0.8812 F10.0000
G1 X0.8440 Y0.8812 F10.0000
G1 X0.8250 Y0.8794 F10.0000
G1 X0.8054 Y0.8757 F10.0000
G1 X0.7857 Y0.8706 F10.0000
G1 X0.7633 Y0.8620 F10.0000
G1 X0.7446 Y0.8519 F10.0000
G1 X0.7301 Y0.8428 F10.0000
G1 X0.7141 Y0.8300 F10.0000
G1 X0.7003 Y0.8162 F10.0000
G1 X0.6882 Y0.8017 F10.0000
G1 X0.6767 Y0.7857 F10.0000
G1 X0.6654 Y0.7653 F10.0000
G1 X0.6570 Y0.7468 F10.0000
G1 X0.6501 Y0.7269 F10.0000
G1 X0.6459 Y0.7057 F10.0000
G1 X0.6439 Y0.6892 F10.0000
G1 X0.6435 Y0.6700 F10.0000
G1 X0.6449 Y0.6491 F10.0000
G1 X0.6484 Y0.6280 F10.0000
G1 X0.6535 Y0.6080 F10.0000
G1 X0.6607 Y0.5883 F10.0000
G1 X0.6703 Y0.5696 F10.0000
G1 X0.6796 Y0.5549 F10.0000
G1 X0.6917 Y0.5394 F10.0000
G1 X0.7047 Y0.5253 F10.0000
G1 X0.7207 Y0.5113 F10.0000
G1 X0.7365 Y0.4993 F10.0000
G1 X0.7562 Y0.4860 F10.0000
G1 X0.7817 Y0.4712 F10.0000
G1 X0.8088 Y0.4596 F10.0000
G1 X0.8290 Y0.4532 F10.0000
G1 X0.8474 Y0.4488 F10.0000
G1 X0.8696 Y0.4461 F10.0000
G1 X0.8900 Y0.4456 F10.0000
G1 X0.9104 Y0.4469 F10.0000
G1 X0.9311 Y0.4500 F10.0000
G1 X0.9513 Y0.4552 F10.0000
G1 X0.9705 Y0.4628 F10.0000
G1 X0.9860 Y0.4705 F10.0000
G1 X1.0025 Y0.4806 F10.0000
G1 X1.0199 Y0.4934 F10.0000
G1 X1.0376 Y0.5091 F10.0000
G1 X1.0519 Y0.5251 F10.0000
G1 X1.0632 Y0.5399 F10.0000
G1 X1.0746 Y0.5576 F10.0000
G1 X1.0846 Y0.5780 F10.0000
G1 X1.0923 Y0.5972 F10.0000
G1 X1.0984 Y0.6179 F10.0000
G1 X1.1024 Y0.6390 F10.0000
G1 X1.1046 Y0.6602 F10.0000
G1 X1.1048 Y0.6816 F10.0000
G1 X1.1036 Y0.7030 F10.0000
G1 X1.0997 Y0.7271 F10.0000
G1 X1.0942 Y0.7490 F10.0000
G1 X1.0871 Y0.7707 F10.0000
G1 X1.0778 Y0.7921 F10.0000
G1 X1.0659 Y0.8115 F10.0000
G1 X1.0556 Y0.8263 F10.0000
G1 X1.0423 Y0.8425 F10.0000
G1 X1.0258 Y0.8597 F10.0000
G1 X1.0062 Y0.8770 F10.0000
G1 X0.9867 Y0.8905 F10.0000
G1 X0.9692 Y0.9001 F10.0000
G1 X0.9520 Y0.9077 F10.0000
G1 X0.9328 Y0.9151 F10.0000
G1 X0.9070 Y0.9222 F10.0000
G1 X0.8824 Y0.9269 F10.0000
G1 X0.8585 Y0.9286 F10.0000
G1 X0.8391 Y0.9286 F10.0000
G1 X0.8167 Y0.9267 F10.0000
G1 X0.7950 Y0.9225 F10.0000
G1 X0.7744 Y0.9173 F10.0000
G1 X0.7505 Y0.9087 F10.0000
G1 X0.7298 Y0.8991 F10.0000
G1 X0.7101 Y0.8871 F10.0000
G1 X0.6954 Y0.8762 F10.0000
G1 X0.6791 Y0.8627 F10.0000
G1 X0.6614 Y0.8452 F10.0000
G1 X0.6449 Y0.8258 F10.0000
G1 X0.6319 Y0.8059 F10.0000
G1 X0.6223 Y0.7894 F10.0000
G1 X0.6132 Y0.7689 F10.0000
G1 X0.6061 Y0.7485 F10.0000
G1 X0.6001 Y0.7259 F10.0000
G1 X0.5965 Y0.7040 F10.0000
G1 X0.5947 Y0.6818 F10.0000
G1 X0.5950 Y0.6592 F10.0000
G1 X0.5972 Y0.6368 F10.0000
G1 X0.6014 Y0.6147 F10.0000
G1 X0.6073 Y0.5930 F10.0000
G1 X0.6152 Y0.5719 F10.0000
G1 X0.6248 Y0.5517 F10.0000
G1 X0.6361 Y0.5322 F10.0000
G1 X0.6486 Y0.5138 F10.0000
G1 X0.6649 Y0.4941 F10.0000
G1 X0.6811 Y0.4774 F10.0000
G1 X0.6988 Y0.4619 F10.0000
G1 X0.7178 Y0.4471 F10.0000
G1 X0.7416 Y0.4316 F10.0000
G1 X0.7638 Y0.4195 F10.0000
G1 X0.7876 Y0.4099 F10.0000
G1 X0.8061 Y0.4040 F10.0000
G1 X0.8285 Y0.3989 F10.0000
G1 X0.8504 Y0.3952 F10.0000
G1 X0.8777 Y0.3932 F10.0000
G1 X0.9016 Y0.3935 F10.0000
G1 X0.9259 Y0.3967 F10.0000
G1 X0.9444 Y0.4003 F10.0000
G1 X0.9656 Y0.4067 F10.0000
G1 X0.9857 Y0.4144 F10.0000
G1 X1.0094 Y0.4259 F10.0000
G1 X1.0290 Y0.4377 F10.0000
G1 X1.0482 Y0.4513 F10.0000
G1 X1.0667 Y0.4668 F10.0000
G1 X1.0834 Y0.4833 F10.0000
G1 X1.0989 Y0.5012 F10.0000
G1 X1.1127 Y0.5204 F10.0000
G1 X1.1243 Y0.5411 F10.0000
G1 X1.1324 Y0.5586 F10.0000
G1 X1.1403 Y0.5790 F10.0000
G1 X1.1476 Y0.6033 F10.0000
G1 X1.1533 Y0.6304 F10.0000
G1 X1.1567 Y0.6550 F10.0000
G1 X1.1570 Y0.6809 F10.0000
G1 X1.1560 Y0.7000 F10.0000
G1 X1.1533 Y0.7229 F10.0000
G1 X1.1481 Y0.7488 F10.0000
G1 X1.1407 Y0.7744 F10.0000
G1 X1.1312 Y0.7977 F10.0000
G1 X1.1220 Y0.8162 F10.0000
G1 X1.1100 Y0.8371 F10.0000
G1 X1.0952 Y0.8588 F10.0000
G1 X1.0782 Y0.8799 F10.0000
G1 X1.0598 Y0.8981 F10.0000
G1 X1.0445 Y0.9114 F10.0000
G1 X1.0251 Y0.9254 F10.0000
G1 X1.0054 Y0.9377 F10.0000
G1 X0.9813 Y0.9503 F10.0000
G1 X0.9587 Y0.9599 F10.0000
G1 X0.9350 Y0.9678 F10.0000
G1 X0.9104 Y0.9739 F10.0000
G1 X0.8356 Y0.9786 F10.0000
G1 X0.7844 Y0.9722 F10.0000
G1 X0.7500 Y0.9628 F10.0000
G1 X0.7205 Y0.9513 F10.0000
G1 X0.6976 Y0.9397 F10.0000
G1 X0.6789 Y0.9284 F10.0000
G1 X0.6609 Y0.9154 F10.0000
G1 X0.6432 Y0.9006 F10.0000
G1 X0.6240 Y0.8814 F10.0000
G1 X0.6083 Y0.8632 F10.0000
G1 X0.5938 Y0.8435 F10.0000
G1 X0.5805 Y0.8219 F10.0000
G1 X0.5694 Y0.8000 F10.0000
G1 X0.5598 Y0.7771 F10.0000
G1 X0.5522 Y0.7534 F10.0000
G1 X0.5463 Y0.7293 F10.0000
G1 X0.5423 Y0.7050 F10.0000
G1 X0.5404 Y0.6804 F10.0000
G1 X0.5404 Y0.6558 F10.0000
G1 X0.5423 Y0.6312 F10.0000
G1 X0.5463 Y0.6068 F10.0000
G1 X0.5522 Y0.5827 F10.0000
G1 X0.5598 Y0.5593 F10.0000
G1 X0.5694 Y0.5367 F10.0000
G1 X0.5807 Y0.5148 F10.0000
G1 X0.5938 Y0.4938 F10.0000
G1 X0.6083 Y0.4739 F10.0000
G1 X0.6240 Y0.4550 F10.0000
G1 X0.6442 Y0.4336 F10.0000
G1 X0.6671 Y0.4129 F10.0000
G1 X0.6897 Y0.3964 F10.0000
G1 X0.7079 Y0.3844 F10.0000
G1 X0.7795 Y0.3484 F10.0000
G1 X0.8238 Y0.3361 F10.0000
G1 X0.8681 Y0.3314 F10.0000
G1 X0.9309 Y0.3354 F10.0000
G1 X1.0034 Y0.3558 F10.0000
G1 X1.0504 Y0.3794 F10.0000
G1 X1.0760 Y0.3974 F10.0000
G1 X1.0999 Y0.4176 F10.0000
G1 X1.1186 Y0.4360 F10.0000
G1 X1.1341 Y0.4532 F10.0000
G1 X1.1511 Y0.4759 F10.0000
G1 X1.1649 Y0.4975 F10.0000
G1 X1.1772 Y0.5199 F10.0000
G1 X1.1880 Y0.5443 F10.0000
G1 X1.1969 Y0.5687 F10.0000
G1 X1.2040 Y0.5938 F10.0000
G1 X1.2092 Y0.6193 F10.0000
G1 X1.2124 Y0.6454 F10.0000
G1 X1.2136 Y0.6715 F10.0000
G1 X1.2128 Y0.6976 F10.0000
G1 X1.2101 Y0.7237 F10.0000
G1 X1.2055 Y0.7495 F10.0000
G1 X1.1991 Y0.7749 F10.0000
G1 X1.1907 Y0.7997 F10.0000
G1 X1.1804 Y0.8238 F10.0000
G1 X1.1683 Y0.8472 F10.0000
G1 X1.1545 Y0.8696 F10.0000
G1 X1.1393 Y0.8910 F10.0000
G1 X1.1223 Y0.9112 F10.0000
G1 X1.1038 Y0.9301 F10.0000
G1 X1.0842 Y0.9476 F10.0000
G1 X1.0635 Y0.9641 F10.0000
G1 X1.0376 Y0.9813 F10.0000
G1 X0.9601 Y1.0113 F10.0000
G1 X0.9286 Y1.0187 F10.0000
G1 X0.8617 Y1.0251 F10.0000
G1 X0.7869 Y1.0234 F10.0000
G1 X0.7436 Y1.0160 F10.0000
G1 X0.6865 Y0.9938 F10.0000
G1 X0.6476 Y0.9715 F10.0000
G1 X0.6218 Y0.9532 F10.0000
G1 X0.5977 Y0.9326 F10.0000
G1 X0.5792 Y0.9139 F10.0000
G1 X0.5642 Y0.8959 F10.0000
G1 X0.5504 Y0.8777 F10.0000
G1 X0.5349 Y0.8536 F10.0000
G1 X0.5209 Y0.8275 F10.0000
G1 X0.5098 Y0.8034 F10.0000
G1 X0.5000 Y0.7771 F10.0000
G1 X0.4921 Y0.7500 F10.0000
G1 X0.4870 Y0.7227 F10.0000
G1 X0.4840 Y0.7000 F10.0000
G1 X0.4828 Y0.6742 F10.0000
G1 X0.4833 Y0.6491 F10.0000
G1 X0.4860 Y0.6203 F10.0000
G1 X0.4904 Y0.5940 F10.0000
G1 X0.4968 Y0.5679 F10.0000
G1 X0.5052 Y0.5418 F10.0000
G1 X0.5153 Y0.5170 F10.0000
G1 X0.5271 Y0.4929 F10.0000
G1 X0.5404 Y0.4692 F10.0000
G1 X0.5578 Y0.4429 F10.0000
G1 X0.5753 Y0.4203 F10.0000
G1 X0.5942 Y0.3984 F10.0000
G1 X0.6558 Y0.3408 F10.0000
G1 X0.6686 Y0.3314 F10.0000
G1 X0.6865 Y0.3238 F10.0000
G1 X0.6902 Y0.3228 F10.0000
G1 X0.6902 Y0.3228 F10.0000
G1 X0.6912 Y0.3233 F10.0000
G1 X0.6912 Y0.3236 F10.0000
G1 X0.6937 Y0.3228 F10.0000
G1 X0.6937 Y0.3228 F10.0000
G1 X0.8007 Y0.3228 F10.0000
G1 X0.8007 Y0.3228 F10.0000
G1 X0.8095 Y0.3228 F10.0000
G1 X0.8095 Y0.3228 F10.0000
G1 X0.8159 Y0.3228 F10.0000
G1 X0.8159 Y0.3228 F10.0000
G1 X0.8250 Y0.3228 F10.0000
G1 X0.8250 Y0.3228 F10.0000
G1 X1.0281 Y0.3238 F10.0000
G1 X1.0650 Y0.3307 F10.0000
G1 X1.0888 Y0.3418 F10.0000
G1 X1.1294 Y0.3691 F10.0000
G1 X1.1410 Y0.3789 F10.0000
G1 X1.1636 Y0.4006 F10.0000
G1 X1.1843 Y0.4242 F10.0000
G1 X1.2030 Y0.4493 F10.0000
G1 X1.2165 Y0.4715 F10.0000
G1 X1.2274 Y0.4919 F10.0000
G1 X1.2387 Y0.5160 F10.0000
G1 X1.2495 Y0.5455 F10.0000
G1 X1.2571 Y0.5714 F10.0000
G1 X1.2635 Y0.5992 F10.0000
G1 X1.2680 Y0.6280 F10.0000
G1 X1.2704 Y0.6560 F10.0000
G1 X1.2709 Y0.6845 F10.0000
G1 X1.2694 Y0.7131 F10.0000
G1 X1.2660 Y0.7414 F10.0000
G1 X1.2606 Y0.7694 F10.0000
G1 X1.2532 Y0.7972 F10.0000
G1 X1.2438 Y0.8243 F10.0000
G1 X1.2328 Y0.8509 F10.0000
G1 X1.2200 Y0.8765 F10.0000
G1 X1.2045 Y0.9006 F10.0000
G1 X1.1914 Y0.9186 F10.0000
G1 X1.1752 Y0.9390 F10.0000
G1 X1.1540 Y0.9624 F10.0000
G1 X1.1314 Y0.9843 F10.0000
G1 X1.0768 Y1.0180 F10.0000
G1 X1.0539 Y1.0261 F10.0000
G1 X1.0500 Y1.0268 F10.0000
G1 X0.8846 Y1.0268 F10.0000
G1 X0.8846 Y1.0268 F10.0000
G1 X0.8711 Y1.0246 F10.0000
G1 X0.8627 Y1.0214 F10.0000
G1 X0.8593 Y1.0192 F10.0000
G1 X0.8563 Y1.0162 F10.0000
G0 X0.8548 Y1.0130
G0 X0.8541 Y1.0094
G0 X0.8553 Y0.9973
G0 X1.0037 Y0.3622
G1 X1.0052 Y0.3558 F10.0000
G1 X1.0081 Y0.3450 F10.0000
G1 X1.0098 Y0.3401 F10.0000
G1 X1.0123 Y0.3361 F10.0000
G1 X1.0153 Y0.3327 F10.0000
G1 X1.0224 Y0.3275 F10.0000
G1 X1.0308 Y0.3246 F10.0000
G1 X1.0440 Y0.3228 F10.0000
G1 X1.0440 Y0.3228 F10.0000
G1 X1.1105 Y0.3241 F10.0000
G1 X1.1437 Y0.3307 F10.0000
G1 X1.1540 Y0.3351 F10.0000
G1 X1.1882 Y0.3578 F10.0000
G1 X1.2136 Y0.3799 F10.0000
G1 X1.2347 Y0.4031 F10.0000
G1 X1.2539 Y0.4279 F10.0000
G1 X1.2692 Y0.4510 F10.0000
G1 X1.2815 Y0.4722 F10.0000
G1 X1.2943 Y0.4990 F10.0000
G1 X1.3041 Y0.5244 F10.0000
G1 X1.3123 Y0.5500 F10.0000
G1 X1.3194 Y0.5770 F10.0000
G1 X1.3260 Y0.6152 F10.0000
G1 X1.3290 Y0.6779 F10.0000
G1 X1.3226 Y0.7480 F10.0000
G1 X1.3157 Y0.7864 F10.0000
G1 X1.3081 Y0.8169 F10.0000
G1 X1.2980 Y0.8467 F10.0000
G1 X1.2869 Y0.8733 F10.0000
G1 X1.2753 Y0.8976 F10.0000
G1 X1.2596 Y0.9250 F10.0000
G1 X1.2434 Y0.9493 F10.0000
G1 X1.2219 Y0.9749 F10.0000
G1 X1.1764 Y1.0138 F10.0000
G1 X1.1666 Y1.0202 F10.0000
G1 X1.1518 Y1.0263 F10.0000
G1 X1.1046 Y1.0268 F10.0000
G1 X1.1046 Y1.0268 F10.0000
G1 X1.0910 Y1.0246 F10.0000
G1 X1.0827 Y1.0214 F10.0000
G1 X1.0790 Y1.0192 F10.0000
G1 X1.0760 Y1.0162 F10.0000
G0 X1.0741 Y1.0130
G0 X1.0721 Y1.0052
G0 X1.0719 Y0.9852
G0 X1.0886 Y0.3629
G1 X1.0888 Y0.3563 F10.0000
G1 X1.0893 Y0.3452 F10.0000
G1 X1.0903 Y0.3403 F10.0000
G1 X1.0923 Y0.3361 F10.0000
G1 X1.0947 Y0.3327 F10.0000
G1 X1.0979 Y0.3297 F10.0000
G1 X1.1056 Y0.3258 F10.0000
G1 X1.1230 Y0.3228 F10.0000
G1 X1.1230 Y0.3228 F10.0000
G1 X1.1784 Y0.3236 F10.0000
G1 X1.2079 Y0.3290 F10.0000
G1 X1.2219 Y0.3346 F10.0000
G1 X1.2648 Y0.3654 F10.0000
G1 X1.2783 Y0.3780 F10.0000
G1 X1.2992 Y0.4013 F10.0000
G1 X1.3177 Y0.4267 F10.0000
G1 X1.3374 Y0.4592 F10.0000
G1 X1.3573 Y0.5039 F10.0000
G1 X1.3679 Y0.5369 F10.0000
G1 X1.3762 Y0.6033 F10.0000
G1 X1.3730 Y0.7768 F10.0000
G1 X1.3666 Y0.8174 F10.0000
G1 X1.3364 Y0.8971 F10.0000
G1 X1.3196 Y0.9281 F10.0000
G1 X1.3041 Y0.9555 F10.0000
G1 X1.2867 Y0.9815 F10.0000
G1 X1.2591 Y1.0096 F10.0000
G1 X1.2470 Y1.0192 F10.0000
G1 X1.2328 Y1.0263 F10.0000
G1 X1.2013 Y1.0268 F10.0000
G1 X1.2013 Y1.0268 F10.0000
G1 X1.1877 Y1.0246 F10.0000
G1 X1.1794 Y1.0214 F10.0000
G1 X1.1757 Y1.0192 F10.0000
G1 X1.1727 Y1.0162 F10.0000
G0 X1.1705 Y1.0130
G0 X1.1683 Y1.0052
G0 X1.1673 Y0.9852
G0 X1.1599 Y0.3629
G1 X1.1599 Y0.3563 F10.0000
G1 X1.1599 Y0.3452 F10.0000
G1 X1.1609 Y0.3403 F10.0000
G1 X1.1624 Y0.3361 F10.0000
G1 X1.1649 Y0.3327 F10.0000
G1 X1.1681 Y0.3297 F10.0000
G1 X1.1757 Y0.3258 F10.0000
G1 X1.1932 Y0.3228 F10.0000
G1 X1.1932 Y0.3228 F10.0000
G1 X1.2448 Y0.3233 F10.0000
G1 X1.2744 Y0.3285 F10.0000
G1 X1.2849 Y0.3324 F10.0000
G1 X1.3130 Y0.3514 F10.0000
G1 X1.3511 Y0.3875 F10.0000
G1 X1.3674 Y0.4082 F10.0000
G1 X1.3725 Y0.4183 F10.0000
G1 X1.3760 Y0.4291 F10.0000
G1 X1.3765 Y0.5177 F10.0000
G1 X1.3765 Y0.5177 F10.0000
G1 X1.3743 Y0.5305 F10.0000
G1 X1.3711 Y0.5386 F10.0000
G1 X1.3691 Y0.5418 F10.0000
G1 X1.3666 Y0.5440 F10.0000
G0 X1.3644 Y0.5443
G0 X1.3620 Y0.5433
G0 X1.3551 Y0.5347
G0 X1.2436 Y0.3565
G1 X1.2409 Y0.3521 F10.0000
G1 X1.2357 Y0.3433 F10.0000
G1 X1.2345 Y0.3393 F10.0000
G1 X1.2345 Y0.3356 F10.0000
G1 X1.2360 Y0.3324 F10.0000
G1 X1.2384 Y0.3297 F10.0000
G1 X1.2456 Y0.3258 F10.0000
G1 X1.2630 Y0.3228 F10.0000
G1 X1.2630 Y0.3228 F10.0000
G1 X1.3073 Y0.3233 F10.0000
G1 X1.3369 Y0.3287 F10.0000
G1 X1.3474 Y0.3327 F10.0000
G1 X1.3659 Y0.3462 F10.0000
G1 X1.3708 Y0.3519 F10.0000
G1 X1.3760 Y0.3620 F10.0000
G1 X1.3765 Y0.3693 F10.0000
G1 X1.3765 Y0.3693 F10.0000
G1 X1.3752 Y0.3780 F10.0000
G1 X1.3725 Y0.3858 F10.0000
G1 X1.3706 Y0.3883 F10.0000
G0 X1.3681 Y0.3893
G0 X1.3654 Y0.3888
G0 X1.3563 Y0.3824
G0 X1.3174 Y0.3467
G1 X1.3137 Y0.3433 F10.0000
G1 X1.3068 Y0.3364 F10.0000
G1 X1.3049 Y0.3332 F10.0000
G1 X1.3046 Y0.3305 F10.0000
G1 X1.3059 Y0.3280 F10.0000
G1 X1.3086 Y0.3260 F10.0000
G1 X1.3159 Y0.3238 F10.0000
G1 X1.3246 Y0.3228 F10.0000
G1 X1.3246 Y0.3228 F10.0000
G1 X1.3467 Y0.3231 F10.0000
G1 X1.3615 Y0.3260 F10.0000
G1 X1.3647 Y0.3280 F10.0000
G1 X1.3743 Y0.3396 F10.0000
G1 X1.3755 Y0.3430 F10.0000
G1 X1.3765 Y0.3504 F10.0000
G1 X1.3765 Y0.3504 F10.0000
G1 X1.3745 Y0.3632 F10.0000
G1 X1.3716 Y0.3716 F10.0000
G1 X1.3674 Y0.3794 F10.0000
G0 X1.3647 Y0.3829
G0 X1.3369 Y0.4126
G0 X1.3344 Y0.4161
G0 X1.3327 Y0.4200
G0 X1.3312 Y0.4284
G0 X1.3307 Y0.4783
G0 X1.3273 Y0.5150
G0 X1.3300 Y0.6941
G0 X1.3307 Y0.6986
G0 X1.3319 Y0.7025
G0 X1.3366 Y0.7099
G0 X1.3457 Y0.7202
G1 X1.3489 Y0.7237 F10.0000
G1 X1.3639 Y0.7402 F10.0000
G1 X1.3691 Y0.7475 F10.0000
G1 X1.3728 Y0.7557 F10.0000
G1 X1.3762 Y0.7734 F10.0000
G1 X1.3762 Y0.7734 F10.0000
G1 X1.3740 Y0.8915 F10.0000
G1 X1.3693 Y0.9210 F10.0000
G1 X1.3617 Y0.9429 F10.0000
G1 X1.3415 Y0.9803 F10.0000
G1 X1.3253 Y1.0025 F10.0000
G1 X1.3118 Y1.0167 F10.0000
G1 X1.3019 Y1.0234 F10.0000
G1 X1.2945 Y1.0266 F10.0000
G1 X1.2709 Y1.0268 F10.0000
G1 X1.2709 Y1.0268 F10.0000
G1 X1.2574 Y1.0246 F10.0000
G1 X1.2490 Y1.0214 F10.0000
G1 X1.2456 Y1.0192 F10.0000
G1 X1.2434 Y1.0167 F10.0000
G0 X1.2426 Y1.0138
G0 X1.2431 Y1.0108
G0 X1.2468 Y1.0042
G0 X1.3465 Y0.8910
G1 X1.3499 Y0.8871 F10.0000
G1 X1.3568 Y0.8799 F10.0000
G1 X1.3602 Y0.8777 F10.0000
G1 X1.3634 Y0.8772 F10.0000
G1 X1.3661 Y0.8782 F10.0000
G1 X1.3686 Y0.8804 F10.0000
G1 X1.3725 Y0.8873 F10.0000
G1 X1.3748 Y0.8959 F10.0000
G1 X1.3760 Y0.9048 F10.0000
G1 X1.3760 Y0.9048 F10.0000
G1 X1.3750 Y0.9638 F10.0000
G1 X1.3701 Y0.9897 F10.0000
G1 X1.3656 Y1.0005 F10.0000
G1 X1.3568 Y1.0135 F10.0000
G1 X1.3514 Y1.0192 F10.0000
G1 X1.3413 Y1.0253 F10.0000
G1 X1.3376 Y1.0268 F10.0000
G1 X1.3297 Y1.0268 F10.0000
G1 X1.3297 Y1.0268 F10.0000
G1 X1.3206 Y1.0256 F10.0000
G1 X1.3125 Y1.0229 F10.0000
G1 X1.3100 Y1.0209 F10.0000
G0 X1.3091 Y1.0185
G0 X1.3095 Y1.0157
G0 X1.3132 Y1.0098
G0 X1.3509 Y0.9680
G1 X1.3541 Y0.9648 F10.0000
G1 X1.3629 Y0.9557 F10.0000
G1 X1.3656 Y0.9542 F10.0000
G1 X1.3684 Y0.9542 F10.0000
G1 X1.3706 Y0.9560 F10.0000
G1 X1.3723 Y0.9587 F10.0000
G1 X1.3748 Y0.9663 F10.0000
G1 X1.3760 Y0.9749 F10.0000
G1 X1.3760 Y0.9749 F10.0000
G1 X1.3755 Y1.0044 F10.0000
G1 X1.3733 Y1.0118 F10.0000
G1 X1.3713 Y1.0153 F10.0000
G1 X1.3659 Y1.0209 F10.0000
G1 X1.3553 Y1.0261 F10.0000
G1 X1.3553 Y1.0261 F10.0000
G1 X1.3371 Y1.0251 F10.0000
G1 X1.3282 Y1.0231 F10.0000
G1 X1.3241 Y1.0217 F10.0000
G0 X1.3201 Y1.0199
G0 X1.2726 Y0.9875
G0 X1.2650 Y0.9838
G0 X1.1553 Y0.9796
G0 X0.8903 Y0.9793
G0 X0.8821 Y0.9806
G0 X0.8482 Y1.0005
G1 X0.8442 Y1.0032 F10.0000
G1 X0.8194 Y1.0197 F10.0000
G1 X0.8113 Y1.0234 F10.0000
G1 X0.7943 Y1.0268 F10.0000
G1 X0.7943 Y1.0268 F10.0000
G1 X0.6880 Y1.0253 F10.0000
G1 X0.6526 Y1.0187 F10.0000
G1 X0.6009 Y0.9941 F10.0000
G1 X0.5674 Y0.9707 F10.0000
G1 X0.5433 Y0.9500 F10.0000
G1 X0.5212 Y0.9274 F10.0000
G1 X0.5017 Y0.9033 F10.0000
G1 X0.4884 Y0.8836 F10.0000
G1 X0.4769 Y0.8649 F10.0000
G1 X0.4628 Y0.8381 F10.0000
G1 X0.4513 Y0.8103 F10.0000
G1 X0.4422 Y0.7849 F10.0000
G1 X0.4345 Y0.7571 F10.0000
G1 X0.4289 Y0.7291 F10.0000
G1 X0.4252 Y0.7010 F10.0000
G1 X0.4235 Y0.6725 F10.0000
G1 X0.4237 Y0.6442 F10.0000
G1 X0.4259 Y0.6159 F10.0000
G1 X0.4301 Y0.5878 F10.0000
G1 X0.4363 Y0.5600 F10.0000
G1 X0.4441 Y0.5327 F10.0000
G1 X0.4540 Y0.5062 F10.0000
G1 X0.4651 Y0.4801 F10.0000
G1 X0.4796 Y0.4520 F10.0000
G1 X0.4951 Y0.4262 F10.0000
G1 X0.5123 Y0.4008 F10.0000
G1 X0.5627 Y0.3356 F10.0000
G1 X0.5684 Y0.3302 F10.0000
G1 X0.5785 Y0.3243 F10.0000
G1 X0.5819 Y0.3228 F10.0000
G1 X0.5819 Y0.3228 F10.0000
G1 X0.5947 Y0.3243 F10.0000
G1 X0.6029 Y0.3273 F10.0000
G1 X0.6065 Y0.3295 F10.0000
G1 X0.6095 Y0.3322 F10.0000
G0 X0.6120 Y0.3354
G0 X0.6149 Y0.3430
G0 X0.6181 Y0.3629
G0 X0.7000 Y0.9855
G1 X0.7008 Y0.9916 F10.0000
G1 X0.7023 Y1.0059 F10.0000
G1 X0.7020 Y1.0098 F10.0000
G1 X0.7005 Y1.0135 F10.0000
G1 X0.6986 Y1.0167 F10.0000
G1 X0.6922 Y1.0217 F10.0000
G1 X0.6843 Y1.0249 F10.0000
G1 X0.6715 Y1.0268 F10.0000
G1 X0.6715 Y1.0268 F10.0000
G1 X0.6203 Y1.0263 F10.0000
G1 X0.5888 Y1.0221 F10.0000
G1 X0.5691 Y1.0162 F10.0000
G1 X0.5231 Y0.9899 F10.0000
G1 X0.4968 Y0.9697 F10.0000
G1 X0.4737 Y0.9481 F10.0000
G1 X0.4528 Y0.9242 F10.0000
G1 X0.4350 Y0.9001 F10.0000
G1 X0.4225 Y0.8799 F10.0000
G1 X0.4114 Y0.8600 F10.0000
G1 X0.3984 Y0.8324 F10.0000
G1 X0.3871 Y0.8029 F10.0000
G1 X0.3784 Y0.7763 F10.0000
G1 X0.3649 Y0.7156 F10.0000
G1 X0.3590 Y0.6565 F10.0000
G1 X0.3642 Y0.5738 F10.0000
G1 X0.3782 Y0.5148 F10.0000
G1 X0.3895 Y0.4852 F10.0000
G1 X0.4026 Y0.4564 F10.0000
G1 X0.4168 Y0.4284 F10.0000
G1 X0.4318 Y0.4006 F10.0000
G1 X0.4656 Y0.3472 F10.0000
G1 X0.4779 Y0.3319 F10.0000
G1 X0.4840 Y0.3270 F10.0000
G1 X0.4909 Y0.3233 F10.0000
G1 X0.4909 Y0.3233 F10.0000
G1 X0.5037 Y0.3248 F10.0000
G1 X0.5118 Y0.3278 F10.0000
G1 X0.5155 Y0.3300 F10.0000
G1 X0.5185 Y0.3327 F10.0000
G0 X0.5209 Y0.3359
G0 X0.5239 Y0.3433
G0 X0.5276 Y0.3632
G0 X0.6206 Y0.9855
G1 X0.6216 Y0.9916 F10.0000
G1 X0.6233 Y1.0059 F10.0000
G1 X0.6230 Y1.0098 F10.0000
G1 X0.6218 Y1.0135 F10.0000
G1 X0.6196 Y1.0167 F10.0000
G1 X0.6134 Y1.0217 F10.0000
G1 X0.6056 Y1.0249 F10.0000
G1 X0.5928 Y1.0268 F10.0000
G1 X0.5928 Y1.0268 F10.0000
G1 X0.5416 Y1.0256 F10.0000
G1 X0.5140 Y1.0204 F10.0000
G1 X0.5022 Y1.0165 F10.0000
G1 X0.4631 Y0.9941 F10.0000
G1 X0.4341 Y0.9710 F10.0000
G1 X0.4107 Y0.9496 F10.0000
G1 X0.3900 Y0.9254 F10.0000
G1 X0.3580 Y0.8784 F10.0000
G1 X0.3322 Y0.8268 F10.0000
G1 X0.3236 Y0.7953 F10.0000
G1 X0.3250 Y0.4961 F10.0000
G1 X0.3302 Y0.4606 F10.0000
G1 X0.3501 Y0.4043 F10.0000
G1 X0.3718 Y0.3615 F10.0000
G1 X0.3927 Y0.3324 F10.0000
G1 X0.3986 Y0.3275 F10.0000
G1 X0.4053 Y0.3238 F10.0000
G1 X0.4090 Y0.3228 F10.0000
G1 X0.4090 Y0.3228 F10.0000
G1 X0.4218 Y0.3243 F10.0000
G1 X0.4299 Y0.3273 F10.0000
G1 X0.4336 Y0.3295 F10.0000
G1 X0.4368 Y0.3322 F10.0000
G0 X0.4390 Y0.3354
G0 X0.4422 Y0.3428
G0 X0.4464 Y0.3627
G0 X0.5586 Y0.9857
G1 X0.5598 Y0.9919 F10.0000
G1 X0.5618 Y1.0059 F10.0000
G1 X0.5618 Y1.0101 F10.0000
G1 X0.5605 Y1.0135 F10.0000
G1 X0.5583 Y1.0167 F10.0000
G1 X0.5556 Y1.0194 F10.0000
G1 X0.5482 Y1.0234 F10.0000
G1 X0.5401 Y1.0256 F10.0000
G1 X0.5315 Y1.0268 F10.0000
G1 X0.5315 Y1.0268 F10.0000
G1 X0.4843 Y1.0261 F10.0000
G1 X0.4488 Y1.0199 F10.0000
G1 X0.4336 Y1.0140 F10.0000
G1 X0.3915 Y0.9879 F10.0000
G1 X0.3519 Y0.9525 F10.0000
G1 X0.3327 Y0.9313 F10.0000
G1 X0.3246 Y0.9168 F10.0000
G1 X0.3231 Y0.9131 F10.0000
G1 X0.3231 Y0.9053 F10.0000
G1 X0.3231 Y0.9053 F10.0000
G1 X0.3246 Y0.8917 F10.0000
G1 X0.3278 Y0.8834 F10.0000
G1 X0.3297 Y0.8799 F10.0000
G1 X0.3322 Y0.8777 F10.0000
G0 X0.3349 Y0.8770
G0 X0.3378 Y0.8775
G0 X0.3442 Y0.8814
G0 X0.4734 Y0.9968
G1 X0.4771 Y1.0000 F10.0000
G1 X0.4865 Y1.0089 F10.0000
G1 X0.4882 Y1.0118 F10.0000
G1 X0.4884 Y1.0145 F10.0000
G1 X0.4872 Y1.0172 F10.0000
G1 X0.4847 Y1.0197 F10.0000
G1 X0.4781 Y1.0234 F10.0000
G1 X0.4697 Y1.0256 F10.0000
G1 X0.4614 Y1.0268 F10.0000
G1 X0.4614 Y1.0268 F10.0000
G1 X0.4141 Y1.0258 F10.0000
G1 X0.3826 Y1.0199 F10.0000
G1 X0.3711 Y1.0155 F10.0000
G1 X0.3465 Y1.0002 F10.0000
G1 X0.3307 Y0.9872 F10.0000
G1 X0.3241 Y0.9769 F10.0000
G1 X0.3231 Y0.9729 F10.0000
G1 X0.3231 Y0.9729 F10.0000
G1 X0.3246 Y0.9594 F10.0000
G1 X0.3278 Y0.9510 F10.0000
G1 X0.3297 Y0.9476 F10.0000
G1 X0.3322 Y0.9454 F10.0000
G0 X0.3351 Y0.9444
G0 X0.3383 Y0.9446
G0 X0.3450 Y0.9481
G0 X0.4114 Y0.9983
G1 X0.4149 Y1.0010 F10.0000
G1 X0.4247 Y1.0094 F10.0000
G1 X0.4267 Y1.0121 F10.0000
G1 X0.4269 Y1.0148 F10.0000
G1 X0.4259 Y1.0172 F10.0000
G1 X0.4235 Y1.0197 F10.0000
G1 X0.4168 Y1.0234 F10.0000
G1 X0.4085 Y1.0256 F10.0000
G1 X0.4001 Y1.0268 F10.0000
G1 X0.4001 Y1.0268 F10.0000
G1 X0.3607 Y1.0263 F10.0000
G1 X0.3410 Y1.0224 F10.0000
G1 X0.3374 Y1.0209 F10.0000
G1 X0.3305 Y1.0162 F10.0000
G1 X0.3275 Y1.0133 F10.0000
G1 X0.3241 Y1.0062 F10.0000
G1 X0.3241 Y1.0062 F10.0000
G1 X0.3246 Y1.0039 F10.0000
G1 X0.3260 Y1.0034 F10.0000
G1 X0.3305 Y1.0066 F10.0000
G1 X0.3413 Y1.0187 F10.0000
G1 X0.3425 Y1.0209 F10.0000
G1 X0.3423 Y1.0224 F10.0000
G1 X0.3391 Y1.0239 F10.0000
G1 X0.3391 Y1.0239 F10.0000
G1 X0.3319 Y1.0194 F10.0000
G1 X0.3319 Y1.0194 F10.0000
G1 X0.3275 Y1.0116 F10.0000
G1 X0.3246 Y1.0030 F10.0000
G1 X0.3238 Y0.9943 F10.0000
G1 X0.3243 Y0.9902 F10.0000
G0 X0.3255 Y0.9860
G0 X0.3302 Y0.9788
G0 X0.3622 Y0.9456
G0 X0.3647 Y0.9419
G0 X0.3679 Y0.9338
G0 X0.3738 Y0.8135
G0 X0.3684 Y0.7303
G0 X0.3698 Y0.5802
G0 X0.3684 Y0.5719
G0 X0.3627 Y0.5600
G0 X0.3501 Y0.5408
G1 X0.3474 Y0.5367 F10.0000
G1 X0.3310 Y0.5123 F10.0000
G1 X0.3270 Y0.5042 F10.0000
G1 X0.3228 Y0.4875 F10.0000
G1 X0.3228 Y0.4875 F10.0000
G1 X0.3241 Y0.3772 F10.0000
G1 X0.3280 Y0.3536 F10.0000
G1 X0.3319 Y0.3423 F10.0000
G1 X0.3356 Y0.3354 F10.0000
G1 X0.3406 Y0.3292 F10.0000
G1 X0.3467 Y0.3243 F10.0000
G1 X0.3504 Y0.3231 F10.0000
G1 X0.3504 Y0.3231 F10.0000
G1 X0.3585 Y0.3238 F10.0000
G1 X0.3612 Y0.3250 F10.0000
G0 X0.3625 Y0.3268
G0 X0.3622 Y0.3295
G0 X0.3418 Y0.3602
G1 X0.3393 Y0.3639 F10.0000
G1 X0.3317 Y0.3738 F10.0000
G1 X0.3292 Y0.3757 F10.0000
G1 X0.3273 Y0.3757 F10.0000
G1 X0.3258 Y0.3743 F10.0000
G1 X0.3228 Y0.3647 F10.0000
G1 X0.3228 Y0.3647 F10.0000
G1 X0.3243 Y0.3450 F10.0000
G1 X0.3253 Y0.3410 F10.0000
G1 X0.3290 Y0.3339 F10.0000
G1 X0.3346 Y0.3285 F10.0000
G1 X0.3378 Y0.3263 F10.0000
G1 X0.3378 Y0.3263 F10.0000
G1 X0.3455 Y0.3219 F10.0000
G1 X0.3541 Y0.3194 F10.0000
G1 X0.3629 Y0.3189 F10.0000
G1 X0.3718 Y0.3199 F10.0000
G0 Z1.6969
G0 X0.3718 Y0.3199
G0 X0.3342 Y1.0261
G1 Z0.7500 F10.0000
G1 X0.3342 Y1.0261 F10.0000
G1 X0.3280 Y1.0197 F10.0000
G1 X0.3231 Y1.0123 F10.0000
G1 X0.3199 Y1.0042 F10.0000
G1 X0.3187 Y0.9953 F10.0000
G1 X0.3187 Y0.9953 F10.0000
G1 X0.3189 Y0.3575 F10.0000
G1 X0.3199 Y0.3469 F10.0000
G1 X0.3219 Y0.3381 F10.0000
G1 X0.3258 Y0.3310 F10.0000
G1 X0.3287 Y0.3275 F10.0000
G1 X0.3337 Y0.3238 F10.0000
G1 X0.3381 Y0.3214 F10.0000
G1 X0.3541 Y0.3187 F10.0000
G1 X1.3440 Y0.3189 F10.0000
G1 X1.3556 Y0.3201 F10.0000
G1 X1.3612 Y0.3216 F10.0000
G1 X1.3684 Y0.3255 F10.0000
G1 X1.3745 Y0.3319 F10.0000
G1 X1.3792 Y0.3410 F10.0000
G1 X1.3809 Y0.3511 F10.0000
G1 X1.3804 Y1.0007 F10.0000
G1 X1.3787 Y1.0096 F10.0000
G1 X1.3748 Y1.0172 F10.0000
G1 X1.3713 Y1.0217 F10.0000
G1 X1.3654 Y1.0261 F10.0000
G1 X1.3558 Y1.0300 F10.0000
G1 X1.3418 Y1.0313 F10.0000
G1 X0.3583 Y1.0308 F10.0000
G1 X0.3447 Y1.0295 F10.0000
G1 X0.3342 Y1.0263 F10.0000
G1 X0.3278 Y1.0212 F10.0000
G1 X0.3226 Y1.0140 F10.0000
G1 X0.3206 Y1.0096 F10.0000
G1 X0.3187 Y0.9953 F10.0000
G1 X0.3187 Y0.9953 F10.0000
G0 Z1.6969
G0 Z1.6969
(Finish operation: Adaptive)
(Begin postamble)
M5
G17 G90
M2
