(Exported by FreeCAD)
(Post Processor: script_module)
(Output Time:2025-01-31 16:11:18.813818)
(Begin preamble)
G17 G90
G20
(Begin operation: Fixture)
(Path: Fixture)
G54
(Finish operation: Fixture)
(Begin operation: 0.257 plain001)
(Path: 0.257 plain001)
(0.257 plain001)
(Begin toolchange)
( M6 T4 )
M3 S1000
(Finish operation: 0.257 plain001)
(Begin operation: RampEntryDressup)
(Coolant On:Flood)
M8
M7
(Path: RampEntryDressup)
G0 X0.0000 Y0.0000 Z0.7470
G0 X0.0354 Y0.1196 Z0.7470
G0 X0.0354 Y0.1196 Z0.6680
G1 X0.0438 Y0.1179 Z0.6672 F7.0000
G1 X0.0523 Y0.1175 Z0.6664 F7.0000
G1 X0.1213 Y0.1299 Z0.6597 F7.0000
G1 X0.1907 Y0.1396 Z0.6530 F7.0000
G1 X0.2605 Y0.1465 Z0.6463 F7.0000
G1 X0.3305 Y0.1506 Z0.6396 F7.0000
G1 X0.4005 Y0.1519 Z0.6329 F7.0000
G1 X0.4706 Y0.1505 Z0.6261 F7.0000
G1 X0.5406 Y0.1464 Z0.6194 F7.0000
G1 X0.6104 Y0.1394 Z0.6127 F7.0000
G1 X0.6798 Y0.1297 Z0.6060 F7.0000
G1 X0.7488 Y0.1173 Z0.5993 F7.0000
G1 X0.7611 Y0.1186 Z0.5983 F7.0000
G1 X0.7727 Y0.1228 Z0.5971 F7.0000
G1 X0.7830 Y0.1294 Z0.5959 F7.0000
G1 X0.7916 Y0.1383 Z0.5946 F7.0000
G1 X0.7979 Y0.1489 Z0.5933 F7.0000
G1 X0.8016 Y0.1606 Z0.5921 F7.0000
G1 X0.8026 Y0.1729 Z0.5911 F7.0000
G1 X0.8036 Y0.3107 Z0.5779 F7.0000
G1 X0.8019 Y0.4484 Z0.5647 F7.0000
G1 X0.7991 Y0.4595 Z0.5637 F7.0000
G1 X0.7941 Y0.4698 Z0.5626 F7.0000
G1 X0.7868 Y0.4787 Z0.5614 F7.0000
G1 X0.7778 Y0.4858 Z0.5603 F7.0000
G1 X0.7675 Y0.4908 Z0.5592 F7.0000
G1 X0.6947 Y0.5028 Z0.5522 F7.0000
G1 X0.6216 Y0.5122 Z0.5452 F7.0000
G1 X0.5481 Y0.5190 Z0.5382 F7.0000
G1 X0.4745 Y0.5230 Z0.5311 F7.0000
G1 X0.4008 Y0.5245 Z0.5240 F7.0000
G1 X0.3270 Y0.5233 Z0.5169 F7.0000
G1 X0.2534 Y0.5194 Z0.5098 F7.0000
G1 X0.1799 Y0.5129 Z0.5028 F7.0000
G1 X0.1068 Y0.5037 Z0.4957 F7.0000
G1 X0.0340 Y0.4919 Z0.4887 F7.0000
G1 X0.0236 Y0.4870 Z0.4877 F7.0000
G1 X0.0145 Y0.4801 Z0.4866 F7.0000
G1 X0.0070 Y0.4714 Z0.4854 F7.0000
G1 X0.0015 Y0.4613 Z0.4843 F7.0000
G1 X-0.0017 Y0.4503 Z0.4832 F7.0000
G1 X-0.0026 Y0.4388 Z0.4821 F7.0000
G1 X-0.0036 Y0.3010 Z0.4690 F7.0000
G1 X-0.0018 Y0.1631 Z0.4558 F7.0000
G1 X0.0012 Y0.1514 Z0.4547 F7.0000
G1 X0.0067 Y0.1407 Z0.4535 F7.0000
G1 X0.0146 Y0.1315 Z0.4523 F7.0000
G1 X0.0243 Y0.1244 Z0.4511 F7.0000
G1 X0.0354 Y0.1196 Z0.4500 F7.0000
G3 X0.0523 Y0.1175 Z0.4500 I0.0150 J0.0505 K0.0000 F7.0000
G2 X0.7488 Y0.1173 Z0.4500 I0.3477 J-1.7375 K0.0000 F7.0000
G3 X0.8026 Y0.1729 Z0.4500 I0.0003 J0.0536 K0.0000 F7.0000
G3 X0.8019 Y0.4484 Z0.4500 I-6.6854 J0.1201 K0.0000 F7.0000
G3 X0.7675 Y0.4908 Z0.4500 I-0.0514 J-0.0065 K0.0000 F7.0000
G3 X0.0340 Y0.4919 Z0.4500 I-0.3698 J-2.0125 K0.0000 F7.0000
G3 X-0.0026 Y0.4388 Z0.4500 I0.0179 J-0.0514 K0.0000 F7.0000
G3 X-0.0018 Y0.1631 Z0.4500 I6.5971 J-0.1201 K0.0000 F7.0000
G3 X0.0354 Y0.1196 Z0.4500 I0.0522 J0.0070 K0.0000 F7.0000
G1 X0.0737 Y0.1992 Z0.4500 F7.0000
G2 X0.7263 Y0.1985 Z0.4500 I0.3246 J-1.7757 K0.0000 F7.0000
G3 X0.7262 Y0.4202 Z0.4500 I-10.0121 J0.1076 K0.0000 F7.0000
G3 X0.0738 Y0.4213 Z0.4500 I-0.3294 J-1.9394 K0.0000 F7.0000
G3 X0.0737 Y0.1992 Z0.4500 I9.9887 J-0.1145 K0.0000 F7.0000
G1 X0.1497 Y0.2884 Z0.4500 F7.0000
G2 X0.6503 Y0.2878 Z0.4500 I0.2483 J-1.8390 K0.0000 F7.0000
G3 X0.6502 Y0.3543 Z0.4500 I-5.3493 J0.0254 K0.0000 F7.0000
G3 X0.1498 Y0.3553 Z0.4500 I-0.2537 J-1.8686 K0.0000 F7.0000
G3 X0.1497 Y0.2884 Z0.4500 I5.3691 J-0.0413 K0.0000 F7.0000
G0 X0.1497 Y0.2884 Z0.7470
(Finish operation: RampEntryDressup)
(Coolant Off:Flood)
M9
(Begin operation: RampEntryDressup001)
(Coolant On:Flood)
M8
M7
(Path: RampEntryDressup001)
G0 X0.0000 Y0.0000 Z0.7470
G0 X-0.0001 Y-0.0002 Z0.7470
G0 X-0.0001 Y-0.0002 Z0.6680
G1 X-0.0214 Y0.0077 Z0.6664 F7.0000
G1 X-0.0416 Y0.0182 Z0.6646 F7.0000
G1 X-0.0603 Y0.0312 Z0.6627 F7.0000
G1 X-0.0772 Y0.0464 Z0.6608 F7.0000
G1 X-0.0920 Y0.0637 Z0.6589 F7.0000
G1 X-0.1044 Y0.0828 Z0.6569 F7.0000
G1 X-0.1143 Y0.1033 Z0.6550 F7.0000
G1 X-0.1216 Y0.1249 Z0.6532 F7.0000
G1 X-0.1260 Y0.1472 Z0.6514 F7.0000
G1 X-0.1275 Y0.1699 Z0.6498 F7.0000
G1 X-0.1275 Y0.4416 Z0.6280 F7.0000
G1 X-0.1259 Y0.4649 Z0.6263 F7.0000
G1 X-0.1213 Y0.4877 Z0.6245 F7.0000
G1 X-0.1137 Y0.5098 Z0.6226 F7.0000
G1 X-0.1033 Y0.5306 Z0.6207 F7.0000
G1 X-0.0903 Y0.5499 Z0.6187 F7.0000
G1 X-0.0749 Y0.5674 Z0.6167 F7.0000
G1 X-0.0573 Y0.5826 Z0.6147 F7.0000
G1 X-0.0379 Y0.5955 Z0.6128 F7.0000
G1 X-0.0170 Y0.6057 Z0.6110 F7.0000
G1 X0.0051 Y0.6131 Z0.6093 F7.0000
G1 X0.0818 Y0.6258 Z0.6032 F7.0000
G1 X0.1588 Y0.6358 Z0.5969 F7.0000
G1 X0.2362 Y0.6431 Z0.5907 F7.0000
G1 X0.3137 Y0.6476 Z0.5845 F7.0000
G1 X0.3914 Y0.6494 Z0.5782 F7.0000
G1 X0.4691 Y0.6484 Z0.5720 F7.0000
G1 X0.5467 Y0.6446 Z0.5657 F7.0000
G1 X0.6241 Y0.6381 Z0.5595 F7.0000
G1 X0.7012 Y0.6289 Z0.5533 F7.0000
G1 X0.7780 Y0.6169 Z0.5471 F7.0000
G1 X0.8002 Y0.6118 Z0.5455 F7.0000
G1 X0.8216 Y0.6039 Z0.5438 F7.0000
G1 X0.8417 Y0.5934 Z0.5419 F7.0000
G1 X0.8604 Y0.5804 Z0.5400 F7.0000
G1 X0.8772 Y0.5651 Z0.5381 F7.0000
G1 X0.8920 Y0.5478 Z0.5361 F7.0000
G1 X0.9044 Y0.5287 Z0.5341 F7.0000
G1 X0.9143 Y0.5083 Z0.5322 F7.0000
G1 X0.9215 Y0.4867 Z0.5304 F7.0000
G1 X0.9260 Y0.4644 Z0.5286 F7.0000
G1 X0.9275 Y0.4416 Z0.5271 F7.0000
G1 X0.9275 Y0.1699 Z0.5053 F7.0000
G1 X0.9260 Y0.1473 Z0.5037 F7.0000
G1 X0.9216 Y0.1251 Z0.5020 F7.0000
G1 X0.9145 Y0.1036 Z0.5002 F7.0000
G1 X0.9046 Y0.0832 Z0.4982 F7.0000
G1 X0.8923 Y0.0642 Z0.4963 F7.0000
G1 X0.8776 Y0.0469 Z0.4943 F7.0000
G1 X0.8609 Y0.0317 Z0.4924 F7.0000
G1 X0.8424 Y0.0187 Z0.4905 F7.0000
G1 X0.8223 Y0.0081 Z0.4886 F7.0000
G1 X0.8011 Y0.0002 Z0.4869 F7.0000
G1 X0.7790 Y-0.0050 Z0.4853 F7.0000
G1 X0.7585 Y-0.0071 Z0.4837 F7.0000
G1 X0.7379 Y-0.0070 Z0.4820 F7.0000
G1 X0.7175 Y-0.0046 Z0.4804 F7.0000
G1 X0.6546 Y0.0069 Z0.4753 F7.0000
G1 X0.5913 Y0.0158 Z0.4702 F7.0000
G1 X0.5277 Y0.0221 Z0.4651 F7.0000
G1 X0.4639 Y0.0260 Z0.4599 F7.0000
G1 X0.4000 Y0.0272 Z0.4548 F7.0000
G1 X0.3361 Y0.0260 Z0.4496 F7.0000
G1 X0.2723 Y0.0221 Z0.4445 F7.0000
G1 X0.2087 Y0.0158 Z0.4394 F7.0000
G1 X0.1454 Y0.0069 Z0.4343 F7.0000
G1 X0.0825 Y-0.0046 Z0.4292 F7.0000
G1 X0.0618 Y-0.0071 Z0.4275 F7.0000
G1 X0.0410 Y-0.0072 Z0.4258 F7.0000
G1 X0.0203 Y-0.0049 Z0.4242 F7.0000
G1 X-0.0001 Y-0.0002 Z0.4225 F7.0000
G1 X-0.0214 Y0.0076 Z0.4216 F7.0000
G1 X-0.0416 Y0.0182 Z0.4207 F7.0000
G1 X-0.0603 Y0.0312 Z0.4198 F7.0000
G1 X-0.0772 Y0.0464 Z0.4188 F7.0000
G1 X-0.0920 Y0.0637 Z0.4178 F7.0000
G1 X-0.1044 Y0.0828 Z0.4168 F7.0000
G1 X-0.1144 Y0.1033 Z0.4158 F7.0000
G1 X-0.1216 Y0.1249 Z0.4148 F7.0000
G1 X-0.1260 Y0.1472 Z0.4139 F7.0000
G1 X-0.1275 Y0.1699 Z0.4130 F7.0000
G1 X-0.1275 Y0.4416 Z0.4017 F7.0000
G1 X-0.1259 Y0.4649 Z0.4009 F7.0000
G1 X-0.1213 Y0.4877 Z0.3999 F7.0000
G1 X-0.1137 Y0.5097 Z0.3989 F7.0000
G1 X-0.1033 Y0.5306 Z0.3979 F7.0000
G1 X-0.0903 Y0.5499 Z0.3969 F7.0000
G1 X-0.0749 Y0.5674 Z0.3958 F7.0000
G1 X-0.0573 Y0.5827 Z0.3948 F7.0000
G1 X-0.0379 Y0.5955 Z0.3938 F7.0000
G1 X-0.0170 Y0.6057 Z0.3929 F7.0000
G1 X0.0051 Y0.6131 Z0.3920 F7.0000
G1 X0.0818 Y0.6258 Z0.3888 F7.0000
G1 X0.1588 Y0.6358 Z0.3856 F7.0000
G1 X0.2362 Y0.6431 Z0.3824 F7.0000
G1 X0.3137 Y0.6476 Z0.3791 F7.0000
G1 X0.3914 Y0.6494 Z0.3759 F7.0000
G1 X0.4691 Y0.6484 Z0.3726 F7.0000
G1 X0.5467 Y0.6446 Z0.3694 F7.0000
G1 X0.6241 Y0.6381 Z0.3661 F7.0000
G1 X0.7012 Y0.6289 Z0.3629 F7.0000
G1 X0.7780 Y0.6169 Z0.3597 F7.0000
G1 X0.8002 Y0.6118 Z0.3589 F7.0000
G1 X0.8215 Y0.6039 Z0.3580 F7.0000
G1 X0.8417 Y0.5934 Z0.3570 F7.0000
G1 X0.8604 Y0.5804 Z0.3560 F7.0000
G1 X0.8772 Y0.5651 Z0.3550 F7.0000
G1 X0.8920 Y0.5478 Z0.3540 F7.0000
G1 X0.9044 Y0.5287 Z0.3530 F7.0000
G1 X0.9143 Y0.5082 Z0.3520 F7.0000
G1 X0.9215 Y0.4867 Z0.3510 F7.0000
G1 X0.9260 Y0.4643 Z0.3501 F7.0000
G1 X0.9275 Y0.4416 Z0.3493 F7.0000
G1 X0.9275 Y0.1699 Z0.3380 F7.0000
G1 X0.9260 Y0.1473 Z0.3372 F7.0000
G1 X0.9216 Y0.1251 Z0.3363 F7.0000
G1 X0.9145 Y0.1036 Z0.3353 F7.0000
G1 X0.9046 Y0.0832 Z0.3343 F7.0000
G1 X0.8923 Y0.0642 Z0.3333 F7.0000
G1 X0.8776 Y0.0469 Z0.3323 F7.0000
G1 X0.8609 Y0.0317 Z0.3313 F7.0000
G1 X0.8423 Y0.0187 Z0.3303 F7.0000
G1 X0.8223 Y0.0081 Z0.3293 F7.0000
G1 X0.8011 Y0.0002 Z0.3284 F7.0000
G1 X0.7790 Y-0.0050 Z0.3276 F7.0000
G1 X0.7585 Y-0.0071 Z0.3268 F7.0000
G1 X0.7379 Y-0.0070 Z0.3259 F7.0000
G1 X0.7175 Y-0.0046 Z0.3251 F7.0000
G1 X0.6546 Y0.0069 Z0.3224 F7.0000
G1 X0.5913 Y0.0158 Z0.3198 F7.0000
G1 X0.5277 Y0.0221 Z0.3171 F7.0000
G1 X0.4639 Y0.0260 Z0.3144 F7.0000
G1 X0.4000 Y0.0272 Z0.3118 F7.0000
G1 X0.3361 Y0.0260 Z0.3091 F7.0000
G1 X0.2723 Y0.0221 Z0.3064 F7.0000
G1 X0.2087 Y0.0158 Z0.3038 F7.0000
G1 X0.1454 Y0.0069 Z0.3011 F7.0000
G1 X0.0825 Y-0.0046 Z0.2985 F7.0000
G1 X0.0618 Y-0.0071 Z0.2976 F7.0000
G1 X0.0410 Y-0.0072 Z0.2967 F7.0000
G1 X0.0203 Y-0.0049 Z0.2959 F7.0000
G1 X-0.0001 Y-0.0002 Z0.2950 F7.0000
G1 X-0.0214 Y0.0076 Z0.2947 F7.0000
G1 X-0.0416 Y0.0182 Z0.2944 F7.0000
G1 X-0.0603 Y0.0311 Z0.2940 F7.0000
G1 X-0.0772 Y0.0464 Z0.2937 F7.0000
G1 X-0.0920 Y0.0637 Z0.2933 F7.0000
G1 X-0.1044 Y0.0828 Z0.2930 F7.0000
G1 X-0.1144 Y0.1033 Z0.2926 F7.0000
G1 X-0.1216 Y0.1249 Z0.2923 F7.0000
G1 X-0.1260 Y0.1472 Z0.2920 F7.0000
G1 X-0.1275 Y0.1699 Z0.2917 F7.0000
G1 X-0.1275 Y0.4416 Z0.2877 F7.0000
G1 X-0.1259 Y0.4649 Z0.2874 F7.0000
G1 X-0.1213 Y0.4877 Z0.2870 F7.0000
G1 X-0.1137 Y0.5097 Z0.2867 F7.0000
G1 X-0.1033 Y0.5306 Z0.2863 F7.0000
G1 X-0.0903 Y0.5499 Z0.2860 F7.0000
G1 X-0.0749 Y0.5674 Z0.2856 F7.0000
G1 X-0.0573 Y0.5827 Z0.2852 F7.0000
G1 X-0.0379 Y0.5955 Z0.2849 F7.0000
G1 X-0.0170 Y0.6057 Z0.2846 F7.0000
G1 X0.0051 Y0.6131 Z0.2842 F7.0000
G1 X0.0818 Y0.6258 Z0.2831 F7.0000
G1 X0.1588 Y0.6358 Z0.2820 F7.0000
G1 X0.2362 Y0.6431 Z0.2808 F7.0000
G1 X0.3137 Y0.6476 Z0.2797 F7.0000
G1 X0.3914 Y0.6494 Z0.2785 F7.0000
G1 X0.4691 Y0.6484 Z0.2774 F7.0000
G1 X0.5467 Y0.6446 Z0.2763 F7.0000
G1 X0.6241 Y0.6381 Z0.2751 F7.0000
G1 X0.7012 Y0.6289 Z0.2740 F7.0000
G1 X0.7780 Y0.6169 Z0.2728 F7.0000
G1 X0.8002 Y0.6118 Z0.2725 F7.0000
G1 X0.8215 Y0.6039 Z0.2722 F7.0000
G1 X0.8417 Y0.5934 Z0.2719 F7.0000
G1 X0.8604 Y0.5804 Z0.2715 F7.0000
G1 X0.8772 Y0.5651 Z0.2712 F7.0000
G1 X0.8920 Y0.5478 Z0.2708 F7.0000
G1 X0.9044 Y0.5287 Z0.2705 F7.0000
G1 X0.9143 Y0.5082 Z0.2701 F7.0000
G1 X0.9215 Y0.4867 Z0.2698 F7.0000
G1 X0.9260 Y0.4643 Z0.2695 F7.0000
G1 X0.9275 Y0.4416 Z0.2692 F7.0000
G1 X0.9275 Y0.1699 Z0.2652 F7.0000
G1 X0.9260 Y0.1473 Z0.2649 F7.0000
G1 X0.9216 Y0.1251 Z0.2646 F7.0000
G1 X0.9145 Y0.1036 Z0.2642 F7.0000
G1 X0.9046 Y0.0832 Z0.2639 F7.0000
G1 X0.8923 Y0.0642 Z0.2635 F7.0000
G1 X0.8776 Y0.0469 Z0.2632 F7.0000
G1 X0.8609 Y0.0317 Z0.2628 F7.0000
G1 X0.8423 Y0.0186 Z0.2625 F7.0000
G1 X0.8223 Y0.0081 Z0.2621 F7.0000
G1 X0.8011 Y0.0002 Z0.2618 F7.0000
G1 X0.7790 Y-0.0050 Z0.2615 F7.0000
G1 X0.7585 Y-0.0071 Z0.2612 F7.0000
G1 X0.7379 Y-0.0070 Z0.2609 F7.0000
G1 X0.7175 Y-0.0046 Z0.2606 F7.0000
G1 X0.6546 Y0.0069 Z0.2597 F7.0000
G1 X0.5913 Y0.0158 Z0.2587 F7.0000
G1 X0.5277 Y0.0221 Z0.2578 F7.0000
G1 X0.4639 Y0.0260 Z0.2569 F7.0000
G1 X0.4000 Y0.0272 Z0.2559 F7.0000
G1 X0.3361 Y0.0260 Z0.2550 F7.0000
G1 X0.2723 Y0.0221 Z0.2540 F7.0000
G1 X0.2087 Y0.0158 Z0.2531 F7.0000
G1 X0.1454 Y0.0069 Z0.2522 F7.0000
G1 X0.0825 Y-0.0046 Z0.2512 F7.0000
G1 X0.0618 Y-0.0071 Z0.2509 F7.0000
G1 X0.0410 Y-0.0072 Z0.2506 F7.0000
G1 X0.0202 Y-0.0049 Z0.2503 F7.0000
G1 X-0.0001 Y-0.0002 Z0.2500 F7.0000
G2 X-0.1275 Y0.1699 Z0.2500 I0.0504 J0.1706 K0.0000 F7.0000
G1 X-0.1275 Y0.4416 Z0.2500 F7.0000
G2 X0.0051 Y0.6131 Z0.2500 I0.1779 J-0.0005 K0.0000 F7.0000
G2 X0.7780 Y0.6169 Z0.2500 I0.3970 J-2.1551 K0.0000 F7.0000
G2 X0.9275 Y0.4416 Z0.2500 I-0.0288 J-0.1759 K0.0000 F7.0000
G1 X0.9275 Y0.1699 Z0.2500 F7.0000
G2 X0.7790 Y-0.0050 Z0.2500 I-0.1778 J0.0005 K0.0000 F7.0000
G2 X0.7175 Y-0.0046 Z0.2500 I-0.0296 J0.1850 K0.0000 F7.0000
G3 X0.0825 Y-0.0046 Z0.2500 I-0.3175 J-1.5683 K0.0000 F7.0000
G2 X-0.0001 Y-0.0002 Z0.2500 I-0.0321 J0.1750 K0.0000 F7.0000
G0 X-0.0001 Y-0.0002 Z0.7470
(Finish operation: RampEntryDressup001)
(Coolant Off:Flood)
M9
(Begin operation: RampEntryDressup002)
(Coolant On:Flood)
M8
M7
(Path: RampEntryDressup002)
G0 X0.0000 Y0.0000 Z0.7470
G0 X-0.0753 Y-0.0754 Z0.7470
G0 X-0.0753 Y-0.0754 Z0.6680
G1 X-0.0906 Y-0.0580 Z0.6664 F7.0000
G1 X-0.1035 Y-0.0387 Z0.6648 F7.0000
G1 X-0.1138 Y-0.0179 Z0.6632 F7.0000
G1 X-0.1213 Y0.0041 Z0.6615 F7.0000
G1 X-0.1259 Y0.0268 Z0.6599 F7.0000
G1 X-0.1275 Y0.0500 Z0.6583 F7.0000
G1 X-0.1275 Y0.5616 Z0.6229 F7.0000
G1 X-0.1259 Y0.5850 Z0.6215 F7.0000
G1 X-0.1212 Y0.6080 Z0.6199 F7.0000
G1 X-0.1135 Y0.6301 Z0.6183 F7.0000
G1 X-0.1030 Y0.6511 Z0.6165 F7.0000
G1 X-0.0898 Y0.6705 Z0.6148 F7.0000
G1 X-0.0742 Y0.6880 Z0.6131 F7.0000
G1 X-0.0565 Y0.7032 Z0.6113 F7.0000
G1 X-0.0368 Y0.7161 Z0.6097 F7.0000
G1 X-0.0157 Y0.7262 Z0.6081 F7.0000
G1 X0.0067 Y0.7334 Z0.6067 F7.0000
G1 X0.0831 Y0.7454 Z0.6014 F7.0000
G1 X0.1598 Y0.7548 Z0.5960 F7.0000
G1 X0.2369 Y0.7617 Z0.5907 F7.0000
G1 X0.3141 Y0.7659 Z0.5853 F7.0000
G1 X0.3914 Y0.7676 Z0.5799 F7.0000
G1 X0.4687 Y0.7667 Z0.5745 F7.0000
G1 X0.5460 Y0.7632 Z0.5691 F7.0000
G1 X0.6231 Y0.7570 Z0.5638 F7.0000
G1 X0.7000 Y0.7483 Z0.5584 F7.0000
G1 X0.7765 Y0.7371 Z0.5531 F7.0000
G1 X0.7988 Y0.7321 Z0.5517 F7.0000
G1 X0.8204 Y0.7243 Z0.5502 F7.0000
G1 X0.8407 Y0.7139 Z0.5486 F7.0000
G1 X0.8596 Y0.7009 Z0.5470 F7.0000
G1 X0.8766 Y0.6856 Z0.5453 F7.0000
G1 X0.8915 Y0.6683 Z0.5435 F7.0000
G1 X0.9041 Y0.6491 Z0.5418 F7.0000
G1 X0.9142 Y0.6286 Z0.5402 F7.0000
G1 X0.9215 Y0.6069 Z0.5386 F7.0000
G1 X0.9259 Y0.5844 Z0.5371 F7.0000
G1 X0.9275 Y0.5616 Z0.5357 F7.0000
G1 X0.9275 Y0.0500 Z0.5003 F7.0000
G1 X0.9260 Y0.0272 Z0.4989 F7.0000
G1 X0.9215 Y0.0048 Z0.4974 F7.0000
G1 X0.9142 Y-0.0168 Z0.4958 F7.0000
G1 X0.9043 Y-0.0374 Z0.4941 F7.0000
G1 X0.8917 Y-0.0565 Z0.4924 F7.0000
G1 X0.8769 Y-0.0738 Z0.4907 F7.0000
G1 X0.8599 Y-0.0890 Z0.4890 F7.0000
G1 X0.8411 Y-0.1020 Z0.4873 F7.0000
G1 X0.8208 Y-0.1125 Z0.4857 F7.0000
G1 X0.7993 Y-0.1202 Z0.4842 F7.0000
G1 X0.7770 Y-0.1252 Z0.4828 F7.0000
G1 X0.7564 Y-0.1271 Z0.4814 F7.0000
G1 X0.7357 Y-0.1267 Z0.4800 F7.0000
G1 X0.7152 Y-0.1240 Z0.4785 F7.0000
G1 X0.6528 Y-0.1119 Z0.4742 F7.0000
G1 X0.5900 Y-0.1024 Z0.4698 F7.0000
G1 X0.5269 Y-0.0956 Z0.4654 F7.0000
G1 X0.4635 Y-0.0915 Z0.4610 F7.0000
G1 X0.4000 Y-0.0902 Z0.4566 F7.0000
G1 X0.3365 Y-0.0915 Z0.4521 F7.0000
G1 X0.2731 Y-0.0956 Z0.4477 F7.0000
G1 X0.2100 Y-0.1024 Z0.4433 F7.0000
G1 X0.1472 Y-0.1119 Z0.4389 F7.0000
G1 X0.0848 Y-0.1240 Z0.4346 F7.0000
G1 X0.0632 Y-0.1269 Z0.4331 F7.0000
G1 X0.0415 Y-0.1272 Z0.4316 F7.0000
G1 X0.0199 Y-0.1248 Z0.4301 F7.0000
G1 X-0.0013 Y-0.1197 Z0.4285 F7.0000
G1 X-0.0217 Y-0.1122 Z0.4270 F7.0000
G1 X-0.0410 Y-0.1021 Z0.4254 F7.0000
G1 X-0.0590 Y-0.0898 Z0.4239 F7.0000
G1 X-0.0753 Y-0.0754 Z0.4225 F7.0000
G1 X-0.0906 Y-0.0580 Z0.4217 F7.0000
G1 X-0.1035 Y-0.0387 Z0.4208 F7.0000
G1 X-0.1138 Y-0.0179 Z0.4200 F7.0000
G1 X-0.1213 Y0.0041 Z0.4191 F7.0000
G1 X-0.1259 Y0.0268 Z0.4183 F7.0000
G1 X-0.1275 Y0.0500 Z0.4175 F7.0000
G1 X-0.1275 Y0.5616 Z0.3991 F7.0000
G1 X-0.1259 Y0.5850 Z0.3983 F7.0000
G1 X-0.1212 Y0.6079 Z0.3975 F7.0000
G1 X-0.1135 Y0.6301 Z0.3967 F7.0000
G1 X-0.1030 Y0.6511 Z0.3958 F7.0000
G1 X-0.0898 Y0.6705 Z0.3949 F7.0000
G1 X-0.0742 Y0.6880 Z0.3940 F7.0000
G1 X-0.0564 Y0.7032 Z0.3931 F7.0000
G1 X-0.0368 Y0.7161 Z0.3922 F7.0000
G1 X-0.0156 Y0.7262 Z0.3914 F7.0000
G1 X0.0067 Y0.7334 Z0.3907 F7.0000
G1 X0.0831 Y0.7454 Z0.3879 F7.0000
G1 X0.1598 Y0.7548 Z0.3851 F7.0000
G1 X0.2369 Y0.7617 Z0.3823 F7.0000
G1 X0.3141 Y0.7659 Z0.3795 F7.0000
G1 X0.3914 Y0.7676 Z0.3767 F7.0000
G1 X0.4688 Y0.7667 Z0.3740 F7.0000
G1 X0.5460 Y0.7632 Z0.3712 F7.0000
G1 X0.6231 Y0.7570 Z0.3684 F7.0000
G1 X0.7000 Y0.7483 Z0.3656 F7.0000
G1 X0.7765 Y0.7371 Z0.3628 F7.0000
G1 X0.7988 Y0.7321 Z0.3621 F7.0000
G1 X0.8204 Y0.7244 Z0.3613 F7.0000
G1 X0.8407 Y0.7139 Z0.3605 F7.0000
G1 X0.8596 Y0.7009 Z0.3596 F7.0000
G1 X0.8766 Y0.6856 Z0.3588 F7.0000
G1 X0.8915 Y0.6683 Z0.3579 F7.0000
G1 X0.9041 Y0.6491 Z0.3570 F7.0000
G1 X0.9142 Y0.6286 Z0.3561 F7.0000
G1 X0.9215 Y0.6069 Z0.3553 F7.0000
G1 X0.9259 Y0.5844 Z0.3545 F7.0000
G1 X0.9275 Y0.5616 Z0.3538 F7.0000
G1 X0.9275 Y0.0500 Z0.3354 F7.0000
G1 X0.9260 Y0.0272 Z0.3347 F7.0000
G1 X0.9215 Y0.0048 Z0.3339 F7.0000
G1 X0.9143 Y-0.0168 Z0.3331 F7.0000
G1 X0.9043 Y-0.0374 Z0.3322 F7.0000
G1 X0.8917 Y-0.0565 Z0.3313 F7.0000
G1 X0.8769 Y-0.0738 Z0.3304 F7.0000
G1 X0.8599 Y-0.0891 Z0.3295 F7.0000
G1 X0.8411 Y-0.1020 Z0.3287 F7.0000
G1 X0.8208 Y-0.1125 Z0.3278 F7.0000
G1 X0.7993 Y-0.1202 Z0.3271 F7.0000
G1 X0.7770 Y-0.1252 Z0.3263 F7.0000
G1 X0.7564 Y-0.1271 Z0.3256 F7.0000
G1 X0.7357 Y-0.1267 Z0.3248 F7.0000
G1 X0.7152 Y-0.1240 Z0.3241 F7.0000
G1 X0.6528 Y-0.1119 Z0.3218 F7.0000
G1 X0.5900 Y-0.1024 Z0.3196 F7.0000
G1 X0.5269 Y-0.0956 Z0.3173 F7.0000
G1 X0.4635 Y-0.0915 Z0.3150 F7.0000
G1 X0.4000 Y-0.0902 Z0.3127 F7.0000
G1 X0.3365 Y-0.0915 Z0.3104 F7.0000
G1 X0.2731 Y-0.0956 Z0.3081 F7.0000
G1 X0.2100 Y-0.1024 Z0.3058 F7.0000
G1 X0.1472 Y-0.1119 Z0.3035 F7.0000
G1 X0.0848 Y-0.1240 Z0.3013 F7.0000
G1 X0.0633 Y-0.1269 Z0.3005 F7.0000
G1 X0.0415 Y-0.1272 Z0.2997 F7.0000
G1 X0.0199 Y-0.1248 Z0.2989 F7.0000
G1 X-0.0013 Y-0.1197 Z0.2981 F7.0000
G1 X-0.0217 Y-0.1121 Z0.2973 F7.0000
G1 X-0.0410 Y-0.1021 Z0.2965 F7.0000
G1 X-0.0590 Y-0.0898 Z0.2957 F7.0000
G1 X-0.0753 Y-0.0754 Z0.2950 F7.0000
G1 X-0.0906 Y-0.0580 Z0.2942 F7.0000
G1 X-0.1035 Y-0.0387 Z0.2933 F7.0000
G1 X-0.1138 Y-0.0179 Z0.2925 F7.0000
G1 X-0.1213 Y0.0041 Z0.2916 F7.0000
G1 X-0.1259 Y0.0268 Z0.2908 F7.0000
G1 X-0.1275 Y0.0500 Z0.2900 F7.0000
G1 X-0.1275 Y0.5616 Z0.2716 F7.0000
G1 X-0.1259 Y0.5850 Z0.2708 F7.0000
G1 X-0.1212 Y0.6079 Z0.2700 F7.0000
G1 X-0.1135 Y0.6301 Z0.2692 F7.0000
G1 X-0.1030 Y0.6511 Z0.2683 F7.0000
G1 X-0.0898 Y0.6705 Z0.2674 F7.0000
G1 X-0.0742 Y0.6880 Z0.2665 F7.0000
G1 X-0.0564 Y0.7032 Z0.2656 F7.0000
G1 X-0.0368 Y0.7161 Z0.2647 F7.0000
G1 X-0.0156 Y0.7262 Z0.2639 F7.0000
G1 X0.0067 Y0.7334 Z0.2632 F7.0000
G1 X0.0831 Y0.7454 Z0.2604 F7.0000
G1 X0.1598 Y0.7548 Z0.2576 F7.0000
G1 X0.2369 Y0.7617 Z0.2548 F7.0000
G1 X0.3141 Y0.7659 Z0.2520 F7.0000
G1 X0.3914 Y0.7676 Z0.2492 F7.0000
G1 X0.4688 Y0.7667 Z0.2465 F7.0000
G1 X0.5460 Y0.7632 Z0.2437 F7.0000
G1 X0.6231 Y0.7570 Z0.2409 F7.0000
G1 X0.7000 Y0.7483 Z0.2381 F7.0000
G1 X0.7765 Y0.7371 Z0.2353 F7.0000
G1 X0.7988 Y0.7321 Z0.2346 F7.0000
G1 X0.8204 Y0.7244 Z0.2338 F7.0000
G1 X0.8407 Y0.7139 Z0.2330 F7.0000
G1 X0.8596 Y0.7009 Z0.2321 F7.0000
G1 X0.8766 Y0.6856 Z0.2313 F7.0000
G1 X0.8915 Y0.6683 Z0.2304 F7.0000
G1 X0.9041 Y0.6491 Z0.2295 F7.0000
G1 X0.9142 Y0.6286 Z0.2286 F7.0000
G1 X0.9215 Y0.6069 Z0.2278 F7.0000
G1 X0.9259 Y0.5844 Z0.2270 F7.0000
G1 X0.9275 Y0.5616 Z0.2263 F7.0000
G1 X0.9275 Y0.0500 Z0.2079 F7.0000
G1 X0.9260 Y0.0272 Z0.2072 F7.0000
G1 X0.9215 Y0.0048 Z0.2064 F7.0000
G1 X0.9143 Y-0.0168 Z0.2056 F7.0000
G1 X0.9043 Y-0.0374 Z0.2047 F7.0000
G1 X0.8917 Y-0.0565 Z0.2038 F7.0000
G1 X0.8769 Y-0.0738 Z0.2029 F7.0000
G1 X0.8599 Y-0.0891 Z0.2020 F7.0000
G1 X0.8411 Y-0.1020 Z0.2012 F7.0000
G1 X0.8208 Y-0.1125 Z0.2003 F7.0000
G1 X0.7993 Y-0.1202 Z0.1996 F7.0000
G1 X0.7770 Y-0.1252 Z0.1988 F7.0000
G1 X0.7564 Y-0.1271 Z0.1981 F7.0000
G1 X0.7357 Y-0.1267 Z0.1973 F7.0000
G1 X0.7152 Y-0.1240 Z0.1966 F7.0000
G1 X0.6528 Y-0.1119 Z0.1943 F7.0000
G1 X0.5900 Y-0.1024 Z0.1921 F7.0000
G1 X0.5269 Y-0.0956 Z0.1898 F7.0000
G1 X0.4635 Y-0.0915 Z0.1875 F7.0000
G1 X0.4000 Y-0.0902 Z0.1852 F7.0000
G1 X0.3365 Y-0.0915 Z0.1829 F7.0000
G1 X0.2731 Y-0.0956 Z0.1806 F7.0000
G1 X0.2100 Y-0.1024 Z0.1783 F7.0000
G1 X0.1472 Y-0.1119 Z0.1760 F7.0000
G1 X0.0848 Y-0.1240 Z0.1738 F7.0000
G1 X0.0633 Y-0.1269 Z0.1730 F7.0000
G1 X0.0415 Y-0.1272 Z0.1722 F7.0000
G1 X0.0199 Y-0.1248 Z0.1714 F7.0000
G1 X-0.0013 Y-0.1197 Z0.1706 F7.0000
G1 X-0.0217 Y-0.1121 Z0.1698 F7.0000
G1 X-0.0410 Y-0.1021 Z0.1690 F7.0000
G1 X-0.0590 Y-0.0898 Z0.1682 F7.0000
G1 X-0.0753 Y-0.0754 Z0.1675 F7.0000
G1 X-0.0906 Y-0.0580 Z0.1667 F7.0000
G1 X-0.1035 Y-0.0387 Z0.1658 F7.0000
G1 X-0.1138 Y-0.0179 Z0.1650 F7.0000
G1 X-0.1213 Y0.0041 Z0.1641 F7.0000
G1 X-0.1259 Y0.0268 Z0.1633 F7.0000
G1 X-0.1275 Y0.0500 Z0.1625 F7.0000
G1 X-0.1275 Y0.5616 Z0.1441 F7.0000
G1 X-0.1259 Y0.5850 Z0.1433 F7.0000
G1 X-0.1212 Y0.6079 Z0.1425 F7.0000
G1 X-0.1135 Y0.6301 Z0.1417 F7.0000
G1 X-0.1030 Y0.6511 Z0.1408 F7.0000
G1 X-0.0898 Y0.6705 Z0.1399 F7.0000
G1 X-0.0742 Y0.6880 Z0.1390 F7.0000
G1 X-0.0564 Y0.7032 Z0.1381 F7.0000
G1 X-0.0368 Y0.7161 Z0.1372 F7.0000
G1 X-0.0156 Y0.7262 Z0.1364 F7.0000
G1 X0.0067 Y0.7334 Z0.1357 F7.0000
G1 X0.0831 Y0.7454 Z0.1329 F7.0000
G1 X0.1598 Y0.7548 Z0.1301 F7.0000
G1 X0.2369 Y0.7617 Z0.1273 F7.0000
G1 X0.3141 Y0.7659 Z0.1245 F7.0000
G1 X0.3914 Y0.7676 Z0.1217 F7.0000
G1 X0.4688 Y0.7667 Z0.1190 F7.0000
G1 X0.5460 Y0.7632 Z0.1162 F7.0000
G1 X0.6231 Y0.7570 Z0.1134 F7.0000
G1 X0.7000 Y0.7483 Z0.1106 F7.0000
G1 X0.7765 Y0.7371 Z0.1078 F7.0000
G1 X0.7988 Y0.7321 Z0.1071 F7.0000
G1 X0.8204 Y0.7244 Z0.1063 F7.0000
G1 X0.8407 Y0.7139 Z0.1055 F7.0000
G1 X0.8596 Y0.7009 Z0.1046 F7.0000
G1 X0.8766 Y0.6856 Z0.1038 F7.0000
G1 X0.8915 Y0.6683 Z0.1029 F7.0000
G1 X0.9041 Y0.6491 Z0.1020 F7.0000
G1 X0.9142 Y0.6286 Z0.1011 F7.0000
G1 X0.9215 Y0.6069 Z0.1003 F7.0000
G1 X0.9259 Y0.5844 Z0.0995 F7.0000
G1 X0.9275 Y0.5616 Z0.0988 F7.0000
G1 X0.9275 Y0.0500 Z0.0804 F7.0000
G1 X0.9260 Y0.0272 Z0.0797 F7.0000
G1 X0.9215 Y0.0048 Z0.0789 F7.0000
G1 X0.9143 Y-0.0168 Z0.0781 F7.0000
G1 X0.9043 Y-0.0374 Z0.0772 F7.0000
G1 X0.8917 Y-0.0565 Z0.0763 F7.0000
G1 X0.8769 Y-0.0738 Z0.0754 F7.0000
G1 X0.8599 Y-0.0891 Z0.0745 F7.0000
G1 X0.8411 Y-0.1020 Z0.0737 F7.0000
G1 X0.8208 Y-0.1125 Z0.0728 F7.0000
G1 X0.7993 Y-0.1202 Z0.0721 F7.0000
G1 X0.7770 Y-0.1252 Z0.0713 F7.0000
G1 X0.7564 Y-0.1271 Z0.0706 F7.0000
G1 X0.7357 Y-0.1267 Z0.0698 F7.0000
G1 X0.7152 Y-0.1240 Z0.0691 F7.0000
G1 X0.6528 Y-0.1119 Z0.0668 F7.0000
G1 X0.5900 Y-0.1024 Z0.0646 F7.0000
G1 X0.5269 Y-0.0956 Z0.0623 F7.0000
G1 X0.4635 Y-0.0915 Z0.0600 F7.0000
G1 X0.4000 Y-0.0902 Z0.0577 F7.0000
G1 X0.3365 Y-0.0915 Z0.0554 F7.0000
G1 X0.2731 Y-0.0956 Z0.0531 F7.0000
G1 X0.2100 Y-0.1024 Z0.0508 F7.0000
G1 X0.1472 Y-0.1119 Z0.0485 F7.0000
G1 X0.0848 Y-0.1240 Z0.0463 F7.0000
G1 X0.0633 Y-0.1269 Z0.0455 F7.0000
G1 X0.0415 Y-0.1272 Z0.0447 F7.0000
G1 X0.0199 Y-0.1248 Z0.0439 F7.0000
G1 X-0.0013 Y-0.1197 Z0.0431 F7.0000
G1 X-0.0217 Y-0.1121 Z0.0423 F7.0000
G1 X-0.0410 Y-0.1021 Z0.0415 F7.0000
G1 X-0.0590 Y-0.0898 Z0.0407 F7.0000
G1 X-0.0753 Y-0.0754 Z0.0400 F7.0000
G1 X-0.0906 Y-0.0580 Z0.0397 F7.0000
G1 X-0.1035 Y-0.0387 Z0.0395 F7.0000
G1 X-0.1138 Y-0.0179 Z0.0392 F7.0000
G1 X-0.1213 Y0.0041 Z0.0389 F7.0000
G1 X-0.1259 Y0.0268 Z0.0387 F7.0000
G1 X-0.1275 Y0.0500 Z0.0384 F7.0000
G1 X-0.1275 Y0.5616 Z0.0327 F7.0000
G1 X-0.1259 Y0.5850 Z0.0324 F7.0000
G1 X-0.1212 Y0.6079 Z0.0322 F7.0000
G1 X-0.1135 Y0.6301 Z0.0319 F7.0000
G1 X-0.1030 Y0.6511 Z0.0316 F7.0000
G1 X-0.0898 Y0.6705 Z0.0313 F7.0000
G1 X-0.0742 Y0.6880 Z0.0310 F7.0000
G1 X-0.0564 Y0.7032 Z0.0308 F7.0000
G1 X-0.0368 Y0.7161 Z0.0305 F7.0000
G1 X-0.0156 Y0.7262 Z0.0302 F7.0000
G1 X0.0067 Y0.7334 Z0.0300 F7.0000
G1 X0.0831 Y0.7454 Z0.0291 F7.0000
G1 X0.1598 Y0.7548 Z0.0283 F7.0000
G1 X0.2369 Y0.7617 Z0.0274 F7.0000
G1 X0.3141 Y0.7659 Z0.0265 F7.0000
G1 X0.3914 Y0.7676 Z0.0256 F7.0000
G1 X0.4688 Y0.7667 Z0.0248 F7.0000
G1 X0.5460 Y0.7632 Z0.0239 F7.0000
G1 X0.6231 Y0.7570 Z0.0230 F7.0000
G1 X0.7000 Y0.7483 Z0.0221 F7.0000
G1 X0.7765 Y0.7371 Z0.0213 F7.0000
G1 X0.7988 Y0.7321 Z0.0211 F7.0000
G1 X0.8204 Y0.7244 Z0.0208 F7.0000
G1 X0.8407 Y0.7139 Z0.0206 F7.0000
G1 X0.8596 Y0.7009 Z0.0203 F7.0000
G1 X0.8766 Y0.6856 Z0.0200 F7.0000
G1 X0.8915 Y0.6683 Z0.0197 F7.0000
G1 X0.9041 Y0.6491 Z0.0194 F7.0000
G1 X0.9142 Y0.6286 Z0.0192 F7.0000
G1 X0.9215 Y0.6069 Z0.0189 F7.0000
G1 X0.9259 Y0.5844 Z0.0187 F7.0000
G1 X0.9275 Y0.5616 Z0.0184 F7.0000
G1 X0.9275 Y0.0500 Z0.0127 F7.0000
G1 X0.9260 Y0.0272 Z0.0124 F7.0000
G1 X0.9215 Y0.0048 Z0.0122 F7.0000
G1 X0.9143 Y-0.0168 Z0.0119 F7.0000
G1 X0.9043 Y-0.0374 Z0.0117 F7.0000
G1 X0.8917 Y-0.0565 Z0.0114 F7.0000
G1 X0.8769 Y-0.0738 Z0.0111 F7.0000
G1 X0.8599 Y-0.0891 Z0.0108 F7.0000
G1 X0.8411 Y-0.1020 Z0.0106 F7.0000
G1 X0.8208 Y-0.1125 Z0.0103 F7.0000
G1 X0.7993 Y-0.1203 Z0.0101 F7.0000
G1 X0.7770 Y-0.1252 Z0.0098 F7.0000
G1 X0.7564 Y-0.1271 Z0.0096 F7.0000
G1 X0.7357 Y-0.1267 Z0.0094 F7.0000
G1 X0.7152 Y-0.1240 Z0.0091 F7.0000
G1 X0.6528 Y-0.1119 Z0.0084 F7.0000
G1 X0.5900 Y-0.1024 Z0.0077 F7.0000
G1 X0.5269 Y-0.0956 Z0.0070 F7.0000
G1 X0.4635 Y-0.0915 Z0.0063 F7.0000
G1 X0.4000 Y-0.0902 Z0.0055 F7.0000
G1 X0.3365 Y-0.0915 Z0.0048 F7.0000
G1 X0.2731 Y-0.0956 Z0.0041 F7.0000
G1 X0.2100 Y-0.1024 Z0.0034 F7.0000
G1 X0.1472 Y-0.1119 Z0.0027 F7.0000
G1 X0.0848 Y-0.1240 Z0.0020 F7.0000
G1 X0.0633 Y-0.1269 Z0.0017 F7.0000
G1 X0.0415 Y-0.1272 Z0.0015 F7.0000
G1 X0.0199 Y-0.1248 Z0.0012 F7.0000
G1 X-0.0013 Y-0.1197 Z0.0010 F7.0000
G1 X-0.0217 Y-0.1121 Z0.0007 F7.0000
G1 X-0.0410 Y-0.1021 Z0.0005 F7.0000
G1 X-0.0590 Y-0.0898 Z0.0002 F7.0000
G1 X-0.0753 Y-0.0754 Z0.0000 F7.0000
G2 X-0.1275 Y0.0500 Z0.0000 I0.1257 J0.1259 K0.0000 F7.0000
G1 X-0.1275 Y0.5616 Z0.0000 F7.0000
G2 X0.0067 Y0.7334 Z0.0000 I0.1779 J-0.0005 K0.0000 F7.0000
G2 X0.7765 Y0.7371 Z0.0000 I0.3956 J-2.2714 K0.0000 F7.0000
G2 X0.9275 Y0.5616 Z0.0000 I-0.0273 J-0.1762 K0.0000 F7.0000
G1 X0.9275 Y0.0500 Z0.0000 F7.0000
G2 X0.7770 Y-0.1252 Z0.0000 I-0.1778 J0.0005 K0.0000 F7.0000
G2 X0.7152 Y-0.1240 Z0.0000 I-0.0275 J0.1854 K0.0000 F7.0000
G3 X0.0848 Y-0.1240 Z0.0000 I-0.3152 J-1.4488 K0.0000 F7.0000
G2 X-0.0753 Y-0.0754 Z0.0000 I-0.0344 J0.1745 K0.0000 F7.0000
G0 X-0.0753 Y-0.0754 Z0.7470
(Finish operation: RampEntryDressup002)
(Coolant Off:Flood)
M9
(Begin postamble)
M5
G17 G90
M2
