(Exported by FreeCAD)
(Post Processor: script_module)
(Output Time:2025-01-28 19:10:15.389356)
(Begin preamble)
G17 G90
G20
(Begin operation: Fixture)
(Path: Fixture)
G54
(Finish operation: Fixture)
(Begin operation: 365_endmill001)
(Path: 365_endmill001)
(365_endmill001)
(Begin toolchange)
( M6 T2 )
M3 S1000
(Finish operation: 365_endmill001)
(Begin operation: Profile)
(Coolant On:Flood)
M7
M8
(Path: Profile)
(Profile)
(Compensated Tool Path. Diameter: 9.270999999999999)
G0 Z0.6969
G0 X0.0000 Y0.0000
G0 X0.0843 Y0.1084
G0 X0.0843 Y0.1084 Z0.6181
G1 X0.0843 Y0.1084 Z0.4000 F5.0000
G1 X-0.0015 Y0.1751 Z0.4000 F10.0000
G2 X-0.0359 Y0.4281 Z0.4000 I0.1120 J0.1441 K0.0000 F10.0000
G3 X-0.0359 Y2.3219 Z0.4000 I-1.2118 J0.9469 K0.0000 F10.0000
G2 X-0.0015 Y2.5749 Z0.4000 I0.1464 J0.1089 K0.0000 F10.0000
G1 X0.2985 Y2.8081 Z0.4000 F10.0000
G2 X0.5567 Y2.7733 Z0.4000 I0.1120 J-0.1441 K0.0000 F10.0000
G2 X0.5567 Y-0.0233 Z0.4000 I-1.8040 J-1.3983 K0.0000 F10.0000
G2 X0.4566 Y-0.0906 Z0.4000 I-0.1462 J0.1093 K0.0000 F10.0000
G2 X0.2985 Y-0.0581 Z0.4000 I-0.0461 J0.1766 K0.0000 F10.0000
G1 X0.0843 Y0.1084 Z0.4000 F10.0000
G1 X0.0843 Y0.1084 Z0.3000 F5.0000
G1 X-0.0015 Y0.1751 Z0.3000 F10.0000
G2 X-0.0359 Y0.4281 Z0.3000 I0.1120 J0.1441 K0.0000 F10.0000
G3 X-0.0359 Y2.3219 Z0.3000 I-1.2118 J0.9469 K0.0000 F10.0000
G2 X-0.0015 Y2.5749 Z0.3000 I0.1464 J0.1089 K0.0000 F10.0000
G1 X0.2985 Y2.8081 Z0.3000 F10.0000
G2 X0.5567 Y2.7733 Z0.3000 I0.1120 J-0.1441 K0.0000 F10.0000
G2 X0.5567 Y-0.0233 Z0.3000 I-1.8040 J-1.3983 K0.0000 F10.0000
G2 X0.4566 Y-0.0906 Z0.3000 I-0.1462 J0.1093 K0.0000 F10.0000
G2 X0.2985 Y-0.0581 Z0.3000 I-0.0461 J0.1766 K0.0000 F10.0000
G1 X0.0843 Y0.1084 Z0.3000 F10.0000
G1 X0.0843 Y0.1084 Z0.2000 F5.0000
G1 X-0.0015 Y0.1751 Z0.2000 F10.0000
G2 X-0.0359 Y0.4281 Z0.2000 I0.1120 J0.1441 K0.0000 F10.0000
G3 X-0.0359 Y2.3219 Z0.2000 I-1.2118 J0.9469 K0.0000 F10.0000
G2 X-0.0015 Y2.5749 Z0.2000 I0.1464 J0.1089 K0.0000 F10.0000
G1 X0.2985 Y2.8081 Z0.2000 F10.0000
G2 X0.5567 Y2.7733 Z0.2000 I0.1120 J-0.1441 K0.0000 F10.0000
G2 X0.5567 Y-0.0233 Z0.2000 I-1.8040 J-1.3983 K0.0000 F10.0000
G2 X0.4566 Y-0.0906 Z0.2000 I-0.1462 J0.1093 K0.0000 F10.0000
G2 X0.2985 Y-0.0581 Z0.2000 I-0.0461 J0.1766 K0.0000 F10.0000
G1 X0.0843 Y0.1084 Z0.2000 F10.0000
G1 X0.0843 Y0.1084 Z0.1250 F5.0000
G1 X-0.0015 Y0.1751 Z0.1250 F10.0000
G2 X-0.0359 Y0.4281 Z0.1250 I0.1120 J0.1441 K0.0000 F10.0000
G3 X-0.0359 Y2.3219 Z0.1250 I-1.2118 J0.9469 K0.0000 F10.0000
G2 X-0.0015 Y2.5749 Z0.1250 I0.1464 J0.1089 K0.0000 F10.0000
G1 X0.2985 Y2.8081 Z0.1250 F10.0000
G2 X0.5567 Y2.7733 Z0.1250 I0.1120 J-0.1441 K0.0000 F10.0000
G2 X0.5567 Y-0.0233 Z0.1250 I-1.8040 J-1.3983 K0.0000 F10.0000
G2 X0.4566 Y-0.0906 Z0.1250 I-0.1462 J0.1093 K0.0000 F10.0000
G2 X0.2985 Y-0.0581 Z0.1250 I-0.0461 J0.1766 K0.0000 F10.0000
G1 X0.0843 Y0.1084 Z0.1250 F10.0000
G0 Z0.6969
G0 Z0.6969
(Finish operation: Profile)
(Coolant Off:Flood)
M9
(Begin operation: Profile001)
(Coolant On:Flood)
M7
M8
(Path: Profile001)
(Profile001)
(Compensated Tool Path. Diameter: 9.270999999999999)
G0 Z0.6969
G0 X0.0000 Y0.0000
G0 X0.0843 Y0.1084
G0 X0.0843 Y0.1084 Z0.6181
G1 X0.0843 Y0.1084 Z0.4000 F5.0000
G1 X-0.1120 Y0.2611 Z0.4000 F10.0000
G2 X-0.1465 Y0.5140 Z0.4000 I0.1120 J0.1441 K0.0000 F10.0000
G3 X-0.1465 Y2.2360 Z0.4000 I-1.1012 J0.8610 K0.0000 F10.0000
G2 X-0.1120 Y2.4889 Z0.4000 I0.1465 J0.1088 K0.0000 F10.0000
G1 X0.4090 Y2.8941 Z0.4000 F10.0000
G2 X0.6671 Y2.8594 Z0.4000 I0.1120 J-0.1441 K0.0000 F10.0000
G2 X0.6671 Y-0.1094 Z0.4000 I-1.9144 J-1.4844 K0.0000 F10.0000
G2 X0.5671 Y-0.1766 Z0.4000 I-0.1461 J0.1094 K0.0000 F10.0000
G2 X0.4090 Y-0.1441 Z0.4000 I-0.0461 J0.1766 K0.0000 F10.0000
G1 X0.0843 Y0.1084 Z0.4000 F10.0000
G1 X0.0843 Y0.1084 Z0.3000 F5.0000
G1 X-0.1120 Y0.2611 Z0.3000 F10.0000
G2 X-0.1465 Y0.5140 Z0.3000 I0.1120 J0.1441 K0.0000 F10.0000
G3 X-0.1465 Y2.2360 Z0.3000 I-1.1012 J0.8610 K0.0000 F10.0000
G2 X-0.1120 Y2.4889 Z0.3000 I0.1465 J0.1088 K0.0000 F10.0000
G1 X0.4090 Y2.8941 Z0.3000 F10.0000
G2 X0.6671 Y2.8594 Z0.3000 I0.1120 J-0.1441 K0.0000 F10.0000
G2 X0.6671 Y-0.1094 Z0.3000 I-1.9144 J-1.4844 K0.0000 F10.0000
G2 X0.5671 Y-0.1766 Z0.3000 I-0.1461 J0.1094 K0.0000 F10.0000
G2 X0.4090 Y-0.1441 Z0.3000 I-0.0461 J0.1766 K0.0000 F10.0000
G1 X0.0843 Y0.1084 Z0.3000 F10.0000
G1 X0.0843 Y0.1084 Z0.2000 F5.0000
G1 X-0.1120 Y0.2611 Z0.2000 F10.0000
G2 X-0.1465 Y0.5140 Z0.2000 I0.1120 J0.1441 K0.0000 F10.0000
G3 X-0.1465 Y2.2360 Z0.2000 I-1.1012 J0.8610 K0.0000 F10.0000
G2 X-0.1120 Y2.4889 Z0.2000 I0.1465 J0.1088 K0.0000 F10.0000
G1 X0.4090 Y2.8941 Z0.2000 F10.0000
G2 X0.6671 Y2.8594 Z0.2000 I0.1120 J-0.1441 K0.0000 F10.0000
G2 X0.6671 Y-0.1094 Z0.2000 I-1.9144 J-1.4844 K0.0000 F10.0000
G2 X0.5671 Y-0.1766 Z0.2000 I-0.1461 J0.1094 K0.0000 F10.0000
G2 X0.4090 Y-0.1441 Z0.2000 I-0.0461 J0.1766 K0.0000 F10.0000
G1 X0.0843 Y0.1084 Z0.2000 F10.0000
G1 X0.0843 Y0.1084 Z0.1000 F5.0000
G1 X-0.1120 Y0.2611 Z0.1000 F10.0000
G2 X-0.1465 Y0.5140 Z0.1000 I0.1120 J0.1441 K0.0000 F10.0000
G3 X-0.1465 Y2.2360 Z0.1000 I-1.1012 J0.8610 K0.0000 F10.0000
G2 X-0.1120 Y2.4889 Z0.1000 I0.1465 J0.1088 K0.0000 F10.0000
G1 X0.4090 Y2.8941 Z0.1000 F10.0000
G2 X0.6671 Y2.8594 Z0.1000 I0.1120 J-0.1441 K0.0000 F10.0000
G2 X0.6671 Y-0.1094 Z0.1000 I-1.9144 J-1.4844 K0.0000 F10.0000
G2 X0.5671 Y-0.1766 Z0.1000 I-0.1461 J0.1094 K0.0000 F10.0000
G2 X0.4090 Y-0.1441 Z0.1000 I-0.0461 J0.1766 K0.0000 F10.0000
G1 X0.0843 Y0.1084 Z0.1000 F10.0000
G1 X0.0843 Y0.1084 Z0.0000 F5.0000
G1 X-0.1120 Y0.2611 Z0.0000 F10.0000
G2 X-0.1465 Y0.5140 Z0.0000 I0.1120 J0.1441 K0.0000 F10.0000
G3 X-0.1465 Y2.2360 Z0.0000 I-1.1012 J0.8610 K0.0000 F10.0000
G2 X-0.1120 Y2.4889 Z0.0000 I0.1465 J0.1088 K0.0000 F10.0000
G1 X0.4090 Y2.8941 Z0.0000 F10.0000
G2 X0.6671 Y2.8594 Z0.0000 I0.1120 J-0.1441 K0.0000 F10.0000
G2 X0.6671 Y-0.1094 Z0.0000 I-1.9144 J-1.4844 K0.0000 F10.0000
G2 X0.5671 Y-0.1766 Z0.0000 I-0.1461 J0.1094 K0.0000 F10.0000
G2 X0.4090 Y-0.1441 Z0.0000 I-0.0461 J0.1766 K0.0000 F10.0000
G1 X0.0843 Y0.1084 Z0.0000 F10.0000
G0 Z0.6969
G0 Z0.6969
(Finish operation: Profile001)
(Coolant Off:Flood)
M9
(Begin postamble)
M5
G17 G90
M2
