(Exported by FreeCAD)
(Post Processor: script_module)
(Output Time:2025-01-29 18:43:46.824175)
(Begin preamble)
G17 G90
G20
(Begin operation: Fixture)
(Path: Fixture)
G54
(Finish operation: Fixture)
(Begin operation: 0.257 plain001)
(Path: 0.257 plain001)
(0.257 plain001)
(Begin toolchange)
( M6 T4 )
M3 S1000
(Finish operation: 0.257 plain001)
(Begin operation: RampEntryDressup)
(Coolant On:Flood)
M7
M8
(Path: RampEntryDressup)
G0 X0.0000 Y0.0000 Z0.6970
G0 X-0.0005 Y0.1008 Z0.6970
G0 X-0.0005 Y0.1008 Z0.6180
G1 X0.0713 Y0.1162 Z0.6114 F8.0000
G1 X0.1437 Y0.1285 Z0.6048 F8.0000
G1 X0.2165 Y0.1377 Z0.5982 F8.0000
G1 X0.2896 Y0.1439 Z0.5915 F8.0000
G1 X0.3630 Y0.1470 Z0.5848 F8.0000
G1 X0.4364 Y0.1469 Z0.5780 F8.0000
G1 X0.5098 Y0.1438 Z0.5713 F8.0000
G1 X0.5829 Y0.1376 Z0.5646 F8.0000
G1 X0.6557 Y0.1282 Z0.5580 F8.0000
G1 X0.7281 Y0.1159 Z0.5514 F8.0000
G1 X0.7999 Y0.1004 Z0.5448 F8.0000
G1 X0.8020 Y0.1021 Z0.5446 F8.0000
G1 X0.8030 Y0.1046 Z0.5443 F8.0000
G1 X0.8026 Y0.1072 Z0.5441 F8.0000
G1 X0.8034 Y0.2947 Z0.5271 F8.0000
G1 X0.8022 Y0.4821 Z0.5101 F8.0000
G1 X0.8007 Y0.4807 Z0.5115 F8.0000
G1 X0.7985 Y0.4802 Z0.5106 F8.0000
G1 X0.7981 Y0.4812 Z0.5084 F8.0000
G1 X0.7999 Y0.4825 Z0.5075 F8.0000
G1 X0.8019 Y0.4826 Z0.5089 F8.0000
G1 X0.7296 Y0.4958 Z0.5023 F8.0000
G1 X0.6569 Y0.5063 Z0.4956 F8.0000
G1 X0.5839 Y0.5142 Z0.4890 F8.0000
G1 X0.5106 Y0.5196 Z0.4823 F8.0000
G1 X0.4372 Y0.5223 Z0.4756 F8.0000
G1 X0.3637 Y0.5224 Z0.4689 F8.0000
G1 X0.2903 Y0.5198 Z0.4622 F8.0000
G1 X0.2170 Y0.5147 Z0.4555 F8.0000
G1 X0.1439 Y0.5069 Z0.4489 F8.0000
G1 X0.0712 Y0.4965 Z0.4422 F8.0000
G1 X-0.0011 Y0.4835 Z0.4356 F8.0000
G1 X-0.0026 Y0.4804 Z0.4353 F8.0000
G1 X-0.0026 Y0.4769 Z0.4350 F8.0000
G1 X-0.0033 Y0.2896 Z0.4180 F8.0000
G1 X-0.0021 Y0.1024 Z0.4010 F8.0000
G1 X-0.0015 Y0.1044 Z0.4015 F8.0000
G1 X0.0006 Y0.1050 Z0.4010 F8.0000
G1 X0.0020 Y0.1037 Z0.4001 F8.0000
G1 X0.0015 Y0.1016 Z0.3996 F8.0000
G1 X-0.0005 Y0.1008 Z0.4000 F8.0000
G2 X0.7999 Y0.1004 Z0.4000 I0.3993 J-1.6909 K0.0000 F8.0000
G3 X0.8026 Y0.1072 Z0.4000 I-0.0020 J0.0047 K0.0000 F8.0000
G3 X0.8022 Y0.4821 Z0.4000 I-16.8577 J0.1686 K0.0000 F8.0000
G2 X0.8019 Y0.4826 Z0.4000 I-0.0021 J-0.0006 K0.0000 F8.0000
G3 X-0.0011 Y0.4835 Z0.4000 I-0.4038 J-2.0179 K0.0000 F8.0000
G3 X-0.0026 Y0.4769 Z0.4000 I0.0066 J-0.0049 K0.0000 F8.0000
G3 X-0.0021 Y0.1024 Z0.4000 I18.3145 J-0.1661 K0.0000 F8.0000
G2 X-0.0005 Y0.1008 Z0.4000 I0.0021 J0.0006 K0.0000 F8.0000
G1 X0.0735 Y0.1942 Z0.4000 F8.0000
G2 X0.7265 Y0.1939 Z0.4000 I0.3255 J-1.7722 K0.0000 F8.0000
G3 X0.7264 Y0.4188 Z0.4000 I-24.6119 J0.0959 K0.0000 F8.0000
G3 X0.0737 Y0.4193 Z0.4000 I-0.3278 J-1.9561 K0.0000 F8.0000
G3 X0.0735 Y0.1942 Z0.4000 I28.9452 J-0.1291 K0.0000 F8.0000
G1 X0.1499 Y0.2836 Z0.4000 F8.0000
G2 X0.6502 Y0.2832 Z0.4000 I0.2489 J-1.8356 K0.0000 F8.0000
G3 X0.6501 Y0.3529 Z0.4000 I-9.8485 J0.0218 K0.0000 F8.0000
G3 X0.1500 Y0.3532 Z0.4000 I-0.2511 J-1.8847 K0.0000 F8.0000
G3 X0.1499 Y0.2836 Z0.4000 I11.6120 J-0.0478 K0.0000 F8.0000
G0 X0.1499 Y0.2836 Z0.6970
(Finish operation: RampEntryDressup)

(Path: RampEntryDressup001)
G0 X0.0000 Y0.0000 Z0.6970
G0 X0.0000 Y-0.0245 Z0.6970
G0 X0.0000 Y-0.0245 Z0.6180
G1 X-0.0200 Y-0.0229 Z0.6166 F8.0000
G1 X-0.0394 Y-0.0183 Z0.6151 F8.0000
G1 X-0.0579 Y-0.0106 Z0.6134 F8.0000
G1 X-0.0750 Y-0.0002 Z0.6117 F8.0000
G1 X-0.0902 Y0.0128 Z0.6099 F8.0000
G1 X-0.1031 Y0.0280 Z0.6080 F8.0000
G1 X-0.1136 Y0.0451 Z0.6063 F8.0000
G1 X-0.1212 Y0.0636 Z0.6046 F8.0000
G1 X-0.1259 Y0.0830 Z0.6031 F8.0000
G1 X-0.1275 Y0.1030 Z0.6017 F8.0000
G1 X-0.1275 Y0.4815 Z0.5709 F8.0000
G1 X-0.1260 Y0.5012 Z0.5695 F8.0000
G1 X-0.1214 Y0.5204 Z0.5679 F8.0000
G1 X-0.1139 Y0.5388 Z0.5663 F8.0000
G1 X-0.1037 Y0.5557 Z0.5645 F8.0000
G1 X-0.0909 Y0.5708 Z0.5628 F8.0000
G1 X-0.0760 Y0.5838 Z0.5610 F8.0000
G1 X-0.0593 Y0.5943 Z0.5594 F8.0000
G1 X-0.0411 Y0.6021 Z0.5578 F8.0000
G1 X-0.0219 Y0.6071 Z0.5564 F8.0000
G1 X0.0541 Y0.6204 Z0.5502 F8.0000
G1 X0.1305 Y0.6311 Z0.5439 F8.0000
G1 X0.2073 Y0.6391 Z0.5376 F8.0000
G1 X0.2843 Y0.6445 Z0.5313 F8.0000
G1 X0.3614 Y0.6471 Z0.5250 F8.0000
G1 X0.4386 Y0.6471 Z0.5187 F8.0000
G1 X0.5157 Y0.6445 Z0.5124 F8.0000
G1 X0.5927 Y0.6391 Z0.5061 F8.0000
G1 X0.6695 Y0.6311 Z0.4998 F8.0000
G1 X0.7459 Y0.6204 Z0.4935 F8.0000
G1 X0.8219 Y0.6071 Z0.4873 F8.0000
G1 X0.8411 Y0.6021 Z0.4859 F8.0000
G1 X0.8593 Y0.5943 Z0.4843 F8.0000
G1 X0.8760 Y0.5838 Z0.4827 F8.0000
G1 X0.8909 Y0.5708 Z0.4809 F8.0000
G1 X0.9037 Y0.5557 Z0.4792 F8.0000
G1 X0.9139 Y0.5388 Z0.4775 F8.0000
G1 X0.9214 Y0.5204 Z0.4758 F8.0000
G1 X0.9260 Y0.5012 Z0.4742 F8.0000
G1 X0.9275 Y0.4815 Z0.4728 F8.0000
G1 X0.9275 Y0.1030 Z0.4420 F8.0000
G1 X0.9261 Y0.0841 Z0.4408 F8.0000
G1 X0.9219 Y0.0656 Z0.4394 F8.0000
G1 X0.9150 Y0.0480 Z0.4379 F8.0000
G1 X0.9056 Y0.0315 Z0.4362 F8.0000
G1 X0.8939 Y0.0167 Z0.4345 F8.0000
G1 X0.8801 Y0.0038 Z0.4327 F8.0000
G1 X0.8645 Y-0.0070 Z0.4310 F8.0000
G1 X0.8475 Y-0.0153 Z0.4293 F8.0000
G1 X0.8295 Y-0.0210 Z0.4276 F8.0000
G1 X0.8108 Y-0.0240 Z0.4261 F8.0000
G1 X0.7919 Y-0.0242 Z0.4247 F8.0000
G1 X0.7731 Y-0.0216 Z0.4235 F8.0000
G1 X0.7062 Y-0.0071 Z0.4180 F8.0000
G1 X0.6387 Y0.0046 Z0.4125 F8.0000
G1 X0.5708 Y0.0133 Z0.4069 F8.0000
G1 X0.5026 Y0.0192 Z0.4013 F8.0000
G1 X0.4342 Y0.0221 Z0.3957 F8.0000
G1 X0.3658 Y0.0221 Z0.3900 F8.0000
G1 X0.2974 Y0.0192 Z0.3844 F8.0000
G1 X0.2292 Y0.0133 Z0.3788 F8.0000
G1 X0.1613 Y0.0046 Z0.3732 F8.0000
G1 X0.0938 Y-0.0071 Z0.3677 F8.0000
G1 X0.0269 Y-0.0216 Z0.3622 F8.0000
G1 X0.0135 Y-0.0238 Z0.3611 F8.0000
G1 X0.0000 Y-0.0245 Z0.3600 F8.0000
G1 X-0.0200 Y-0.0229 Z0.3593 F8.0000
G1 X-0.0394 Y-0.0183 Z0.3584 F8.0000
G1 X-0.0579 Y-0.0106 Z0.3575 F8.0000
G1 X-0.0749 Y-0.0002 Z0.3566 F8.0000
G1 X-0.0902 Y0.0128 Z0.3556 F8.0000
G1 X-0.1031 Y0.0280 Z0.3546 F8.0000
G1 X-0.1136 Y0.0451 Z0.3536 F8.0000
G1 X-0.1213 Y0.0636 Z0.3527 F8.0000
G1 X-0.1259 Y0.0830 Z0.3519 F8.0000
G1 X-0.1275 Y0.1030 Z0.3512 F8.0000
G1 X-0.1275 Y0.4815 Z0.3344 F8.0000
G1 X-0.1260 Y0.5012 Z0.3337 F8.0000
G1 X-0.1214 Y0.5204 Z0.3328 F8.0000
G1 X-0.1139 Y0.5387 Z0.3319 F8.0000
G1 X-0.1037 Y0.5557 Z0.3310 F8.0000
G1 X-0.0909 Y0.5708 Z0.3300 F8.0000
G1 X-0.0760 Y0.5838 Z0.3291 F8.0000
G1 X-0.0593 Y0.5943 Z0.3282 F8.0000
G1 X-0.0411 Y0.6021 Z0.3273 F8.0000
G1 X-0.0219 Y0.6071 Z0.3266 F8.0000
G1 X0.0541 Y0.6204 Z0.3232 F8.0000
G1 X0.1305 Y0.6311 Z0.3198 F8.0000
G1 X0.2073 Y0.6391 Z0.3164 F8.0000
G1 X0.2843 Y0.6445 Z0.3130 F8.0000
G1 X0.3614 Y0.6471 Z0.3095 F8.0000
G1 X0.4386 Y0.6471 Z0.3061 F8.0000
G1 X0.5157 Y0.6445 Z0.3027 F8.0000
G1 X0.5927 Y0.6391 Z0.2993 F8.0000
G1 X0.6695 Y0.6311 Z0.2959 F8.0000
G1 X0.7459 Y0.6204 Z0.2925 F8.0000
G1 X0.8219 Y0.6071 Z0.2891 F8.0000
G1 X0.8411 Y0.6021 Z0.2883 F8.0000
G1 X0.8593 Y0.5943 Z0.2875 F8.0000
G1 X0.8760 Y0.5838 Z0.2866 F8.0000
G1 X0.8909 Y0.5708 Z0.2856 F8.0000
G1 X0.9037 Y0.5557 Z0.2847 F8.0000
G1 X0.9139 Y0.5387 Z0.2837 F8.0000
G1 X0.9214 Y0.5204 Z0.2828 F8.0000
G1 X0.9260 Y0.5012 Z0.2820 F8.0000
G1 X0.9275 Y0.4815 Z0.2812 F8.0000
G1 X0.9275 Y0.1030 Z0.2645 F8.0000
G1 X0.9261 Y0.0841 Z0.2638 F8.0000
G1 X0.9219 Y0.0656 Z0.2631 F8.0000
G1 X0.9150 Y0.0480 Z0.2623 F8.0000
G1 X0.9056 Y0.0316 Z0.2614 F8.0000
G1 X0.8939 Y0.0167 Z0.2604 F8.0000
G1 X0.8801 Y0.0038 Z0.2595 F8.0000
G1 X0.8645 Y-0.0070 Z0.2585 F8.0000
G1 X0.8475 Y-0.0153 Z0.2576 F8.0000
G1 X0.8295 Y-0.0211 Z0.2567 F8.0000
G1 X0.8108 Y-0.0241 Z0.2559 F8.0000
G1 X0.7918 Y-0.0243 Z0.2551 F8.0000
G1 X0.7731 Y-0.0216 Z0.2545 F8.0000
G1 X0.7062 Y-0.0071 Z0.2515 F8.0000
G1 X0.6387 Y0.0046 Z0.2485 F8.0000
G1 X0.5708 Y0.0133 Z0.2454 F8.0000
G1 X0.5026 Y0.0192 Z0.2424 F8.0000
G1 X0.4342 Y0.0221 Z0.2394 F8.0000
G1 X0.3658 Y0.0221 Z0.2363 F8.0000
G1 X0.2974 Y0.0192 Z0.2333 F8.0000
G1 X0.2292 Y0.0133 Z0.2302 F8.0000
G1 X0.1613 Y0.0046 Z0.2272 F8.0000
G1 X0.0938 Y-0.0071 Z0.2242 F8.0000
G1 X0.0269 Y-0.0216 Z0.2212 F8.0000
G1 X0.0135 Y-0.0238 Z0.2206 F8.0000
G1 X0.0000 Y-0.0245 Z0.2200 F8.0000
G1 X-0.0199 Y-0.0229 Z0.2198 F8.0000
G1 X-0.0394 Y-0.0183 Z0.2195 F8.0000
G1 X-0.0579 Y-0.0106 Z0.2193 F8.0000
G1 X-0.0749 Y-0.0002 Z0.2190 F8.0000
G1 X-0.0902 Y0.0128 Z0.2187 F8.0000
G1 X-0.1031 Y0.0280 Z0.2185 F8.0000
G1 X-0.1136 Y0.0451 Z0.2182 F8.0000
G1 X-0.1213 Y0.0636 Z0.2179 F8.0000
G1 X-0.1259 Y0.0830 Z0.2177 F8.0000
G1 X-0.1275 Y0.1030 Z0.2175 F8.0000
G1 X-0.1275 Y0.4815 Z0.2127 F8.0000
G1 X-0.1260 Y0.5012 Z0.2125 F8.0000
G1 X-0.1214 Y0.5204 Z0.2122 F8.0000
G1 X-0.1139 Y0.5387 Z0.2120 F8.0000
G1 X-0.1037 Y0.5557 Z0.2117 F8.0000
G1 X-0.0909 Y0.5708 Z0.2114 F8.0000
G1 X-0.0760 Y0.5838 Z0.2112 F8.0000
G1 X-0.0593 Y0.5943 Z0.2109 F8.0000
G1 X-0.0411 Y0.6022 Z0.2107 F8.0000
G1 X-0.0219 Y0.6071 Z0.2104 F8.0000
G1 X0.0541 Y0.6204 Z0.2095 F8.0000
G1 X0.1305 Y0.6311 Z0.2085 F8.0000
G1 X0.2073 Y0.6391 Z0.2075 F8.0000
G1 X0.2843 Y0.6445 Z0.2066 F8.0000
G1 X0.3614 Y0.6471 Z0.2056 F8.0000
G1 X0.4386 Y0.6471 Z0.2046 F8.0000
G1 X0.5157 Y0.6445 Z0.2036 F8.0000
G1 X0.5927 Y0.6391 Z0.2026 F8.0000
G1 X0.6695 Y0.6311 Z0.2017 F8.0000
G1 X0.7459 Y0.6204 Z0.2007 F8.0000
G1 X0.8219 Y0.6071 Z0.1997 F8.0000
G1 X0.8411 Y0.6022 Z0.1995 F8.0000
G1 X0.8593 Y0.5943 Z0.1993 F8.0000
G1 X0.8760 Y0.5838 Z0.1990 F8.0000
G1 X0.8909 Y0.5708 Z0.1987 F8.0000
G1 X0.9037 Y0.5557 Z0.1985 F8.0000
G1 X0.9139 Y0.5387 Z0.1982 F8.0000
G1 X0.9214 Y0.5204 Z0.1980 F8.0000
G1 X0.9260 Y0.5012 Z0.1977 F8.0000
G1 X0.9275 Y0.4815 Z0.1975 F8.0000
G1 X0.9275 Y0.1030 Z0.1927 F8.0000
G1 X0.9261 Y0.0841 Z0.1925 F8.0000
G1 X0.9219 Y0.0656 Z0.1923 F8.0000
G1 X0.9150 Y0.0480 Z0.1921 F8.0000
G1 X0.9056 Y0.0316 Z0.1918 F8.0000
G1 X0.8939 Y0.0167 Z0.1916 F8.0000
G1 X0.8801 Y0.0038 Z0.1913 F8.0000
G1 X0.8645 Y-0.0070 Z0.1910 F8.0000
G1 X0.8475 Y-0.0153 Z0.1907 F8.0000
G1 X0.8295 Y-0.0211 Z0.1905 F8.0000
G1 X0.8108 Y-0.0241 Z0.1902 F8.0000
G1 X0.7918 Y-0.0243 Z0.1900 F8.0000
G1 X0.7731 Y-0.0216 Z0.1898 F8.0000
G1 X0.7062 Y-0.0071 Z0.1890 F8.0000
G1 X0.6387 Y0.0046 Z0.1881 F8.0000
G1 X0.5708 Y0.0133 Z0.1873 F8.0000
G1 X0.5026 Y0.0192 Z0.1864 F8.0000
G1 X0.4342 Y0.0221 Z0.1855 F8.0000
G1 X0.3658 Y0.0221 Z0.1847 F8.0000
G1 X0.2974 Y0.0192 Z0.1838 F8.0000
G1 X0.2292 Y0.0133 Z0.1829 F8.0000
G1 X0.1613 Y0.0046 Z0.1821 F8.0000
G1 X0.0938 Y-0.0071 Z0.1812 F8.0000
G1 X0.0269 Y-0.0216 Z0.1803 F8.0000
G1 X0.0135 Y-0.0238 Z0.1802 F8.0000
G1 X0.0000 Y-0.0245 Z0.1800 F8.0000
G2 X-0.1275 Y0.1030 Z0.1800 I-0.0000 J0.1275 K0.0000 F8.0000
G1 X-0.1275 Y0.4815 Z0.1800 F8.0000
G2 X-0.0219 Y0.6071 Z0.1800 I0.1275 J-0.0000 K0.0000 F8.0000
G2 X0.8219 Y0.6071 Z0.1800 I0.4219 J-2.1821 K0.0000 F8.0000
G2 X0.9275 Y0.4815 Z0.1800 I-0.0219 J-0.1256 K0.0000 F8.0000
G1 X0.9275 Y0.1030 Z0.1800 F8.0000
G2 X0.7731 Y-0.0216 Z0.1800 I-0.1275 J-0.0000 K0.0000 F8.0000
G3 X0.0269 Y-0.0216 Z0.1800 I-0.3731 J-1.5555 K0.0000 F8.0000
G2 X0.0000 Y-0.0245 Z0.1800 I-0.0269 J0.1246 K0.0000 F8.0000
G0 X0.0000 Y-0.0245 Z0.6970
(Finish operation: RampEntryDressup001)

(Path: RampEntryDressup002)
G0 X0.0000 Y0.0000 Z0.6970
G0 X0.0313 Y-0.1236 Z0.6970
G0 X0.0313 Y-0.1236 Z0.6180
G1 X0.0288 Y-0.1242 Z0.6178 F8.0000
G1 X0.0099 Y-0.1271 Z0.6168 F8.0000
G1 X-0.0092 Y-0.1272 Z0.6156 F8.0000
G1 X-0.0281 Y-0.1244 Z0.6143 F8.0000
G1 X-0.0463 Y-0.1188 Z0.6129 F8.0000
G1 X-0.0635 Y-0.1105 Z0.6115 F8.0000
G1 X-0.0793 Y-0.0998 Z0.6100 F8.0000
G1 X-0.0933 Y-0.0869 Z0.6085 F8.0000
G1 X-0.1052 Y-0.0720 Z0.6070 F8.0000
G1 X-0.1148 Y-0.0554 Z0.6056 F8.0000
G1 X-0.1218 Y-0.0377 Z0.6043 F8.0000
G1 X-0.1261 Y-0.0191 Z0.6031 F8.0000
G1 X-0.1275 Y0.0000 Z0.6021 F8.0000
G1 X-0.1275 Y0.5832 Z0.5621 F8.0000
G1 X-0.1259 Y0.6031 Z0.5609 F8.0000
G1 X-0.1213 Y0.6224 Z0.5596 F8.0000
G1 X-0.1137 Y0.6408 Z0.5582 F8.0000
G1 X-0.1034 Y0.6578 Z0.5567 F8.0000
G1 X-0.0906 Y0.6730 Z0.5552 F8.0000
G1 X-0.0755 Y0.6860 Z0.5538 F8.0000
G1 X-0.0586 Y0.6965 Z0.5523 F8.0000
G1 X-0.0403 Y0.7042 Z0.5510 F8.0000
G1 X-0.0209 Y0.7090 Z0.5498 F8.0000
G1 X0.0626 Y0.7228 Z0.5441 F8.0000
G1 X0.1465 Y0.7336 Z0.5383 F8.0000
G1 X0.2308 Y0.7413 Z0.5325 F8.0000
G1 X0.3154 Y0.7459 Z0.5266 F8.0000
G1 X0.4000 Y0.7475 Z0.5208 F8.0000
G1 X0.4846 Y0.7459 Z0.5150 F8.0000
G1 X0.5692 Y0.7413 Z0.5091 F8.0000
G1 X0.6535 Y0.7336 Z0.5033 F8.0000
G1 X0.7374 Y0.7228 Z0.4975 F8.0000
G1 X0.8209 Y0.7090 Z0.4918 F8.0000
G1 X0.8403 Y0.7042 Z0.4906 F8.0000
G1 X0.8586 Y0.6965 Z0.4892 F8.0000
G1 X0.8755 Y0.6860 Z0.4878 F8.0000
G1 X0.8906 Y0.6730 Z0.4864 F8.0000
G1 X0.9034 Y0.6578 Z0.4849 F8.0000
G1 X0.9137 Y0.6408 Z0.4834 F8.0000
G1 X0.9213 Y0.6224 Z0.4820 F8.0000
G1 X0.9259 Y0.6031 Z0.4807 F8.0000
G1 X0.9275 Y0.5832 Z0.4795 F8.0000
G1 X0.9275 Y0.0000 Z0.4395 F8.0000
G1 X0.9261 Y-0.0191 Z0.4385 F8.0000
G1 X0.9218 Y-0.0377 Z0.4373 F8.0000
G1 X0.9148 Y-0.0554 Z0.4360 F8.0000
G1 X0.9052 Y-0.0720 Z0.4346 F8.0000
G1 X0.8933 Y-0.0869 Z0.4331 F8.0000
G1 X0.8793 Y-0.0998 Z0.4316 F8.0000
G1 X0.8635 Y-0.1105 Z0.4301 F8.0000
G1 X0.8463 Y-0.1188 Z0.4287 F8.0000
G1 X0.8281 Y-0.1244 Z0.4273 F8.0000
G1 X0.8092 Y-0.1272 Z0.4260 F8.0000
G1 X0.7901 Y-0.1271 Z0.4248 F8.0000
G1 X0.7712 Y-0.1242 Z0.4238 F8.0000
G1 X0.7050 Y-0.1089 Z0.4192 F8.0000
G1 X0.6381 Y-0.0966 Z0.4145 F8.0000
G1 X0.5708 Y-0.0873 Z0.4099 F8.0000
G1 X0.5032 Y-0.0811 Z0.4052 F8.0000
G1 X0.4353 Y-0.0779 Z0.4005 F8.0000
G1 X0.3673 Y-0.0779 Z0.3958 F8.0000
G1 X0.2994 Y-0.0809 Z0.3911 F8.0000
G1 X0.2318 Y-0.0870 Z0.3864 F8.0000
G1 X0.1644 Y-0.0962 Z0.3817 F8.0000
G1 X0.0976 Y-0.1083 Z0.3771 F8.0000
G1 X0.0313 Y-0.1236 Z0.3725 F8.0000
G1 X0.0288 Y-0.1242 Z0.3724 F8.0000
G1 X0.0099 Y-0.1271 Z0.3719 F8.0000
G1 X-0.0092 Y-0.1272 Z0.3713 F8.0000
G1 X-0.0280 Y-0.1244 Z0.3706 F8.0000
G1 X-0.0463 Y-0.1188 Z0.3699 F8.0000
G1 X-0.0635 Y-0.1105 Z0.3691 F8.0000
G1 X-0.0793 Y-0.0998 Z0.3683 F8.0000
G1 X-0.0933 Y-0.0869 Z0.3675 F8.0000
G1 X-0.1053 Y-0.0720 Z0.3668 F8.0000
G1 X-0.1148 Y-0.0554 Z0.3661 F8.0000
G1 X-0.1218 Y-0.0377 Z0.3654 F8.0000
G1 X-0.1261 Y-0.0190 Z0.3648 F8.0000
G1 X-0.1275 Y0.0000 Z0.3642 F8.0000
G1 X-0.1275 Y0.5832 Z0.3435 F8.0000
G1 X-0.1259 Y0.6031 Z0.3428 F8.0000
G1 X-0.1213 Y0.6224 Z0.3422 F8.0000
G1 X-0.1138 Y0.6408 Z0.3414 F8.0000
G1 X-0.1034 Y0.6578 Z0.3407 F8.0000
G1 X-0.0905 Y0.6730 Z0.3399 F8.0000
G1 X-0.0755 Y0.6860 Z0.3391 F8.0000
G1 X-0.0586 Y0.6965 Z0.3384 F8.0000
G1 X-0.0402 Y0.7042 Z0.3377 F8.0000
G1 X-0.0209 Y0.7090 Z0.3371 F8.0000
G1 X0.0626 Y0.7228 Z0.3341 F8.0000
G1 X0.1465 Y0.7336 Z0.3311 F8.0000
G1 X0.2308 Y0.7413 Z0.3281 F8.0000
G1 X0.3154 Y0.7459 Z0.3250 F8.0000
G1 X0.4000 Y0.7475 Z0.3220 F8.0000
G1 X0.4846 Y0.7459 Z0.3190 F8.0000
G1 X0.5692 Y0.7413 Z0.3160 F8.0000
G1 X0.6535 Y0.7336 Z0.3129 F8.0000
G1 X0.7374 Y0.7228 Z0.3099 F8.0000
G1 X0.8209 Y0.7090 Z0.3069 F8.0000
G1 X0.8402 Y0.7042 Z0.3063 F8.0000
G1 X0.8586 Y0.6965 Z0.3056 F8.0000
G1 X0.8755 Y0.6860 Z0.3049 F8.0000
G1 X0.8905 Y0.6730 Z0.3041 F8.0000
G1 X0.9034 Y0.6578 Z0.3034 F8.0000
G1 X0.9138 Y0.6408 Z0.3026 F8.0000
G1 X0.9213 Y0.6224 Z0.3019 F8.0000
G1 X0.9259 Y0.6031 Z0.3012 F8.0000
G1 X0.9275 Y0.5832 Z0.3006 F8.0000
G1 X0.9275 Y0.0000 Z0.2798 F8.0000
G1 X0.9261 Y-0.0190 Z0.2793 F8.0000
G1 X0.9218 Y-0.0377 Z0.2786 F8.0000
G1 X0.9148 Y-0.0554 Z0.2780 F8.0000
G1 X0.9053 Y-0.0720 Z0.2772 F8.0000
G1 X0.8933 Y-0.0869 Z0.2765 F8.0000
G1 X0.8793 Y-0.0998 Z0.2757 F8.0000
G1 X0.8635 Y-0.1105 Z0.2749 F8.0000
G1 X0.8463 Y-0.1188 Z0.2742 F8.0000
G1 X0.8280 Y-0.1244 Z0.2734 F8.0000
G1 X0.8092 Y-0.1272 Z0.2728 F8.0000
G1 X0.7901 Y-0.1271 Z0.2722 F8.0000
G1 X0.7712 Y-0.1242 Z0.2716 F8.0000
G1 X0.7050 Y-0.1089 Z0.2692 F8.0000
G1 X0.6381 Y-0.0966 Z0.2668 F8.0000
G1 X0.5708 Y-0.0873 Z0.2644 F8.0000
G1 X0.5032 Y-0.0811 Z0.2620 F8.0000
G1 X0.4353 Y-0.0779 Z0.2595 F8.0000
G1 X0.3673 Y-0.0779 Z0.2571 F8.0000
G1 X0.2994 Y-0.0809 Z0.2546 F8.0000
G1 X0.2318 Y-0.0870 Z0.2522 F8.0000
G1 X0.1644 Y-0.0962 Z0.2498 F8.0000
G1 X0.0976 Y-0.1083 Z0.2474 F8.0000
G1 X0.0313 Y-0.1236 Z0.2450 F8.0000
G1 X0.0288 Y-0.1242 Z0.2449 F8.0000
G1 X0.0099 Y-0.1271 Z0.2444 F8.0000
G1 X-0.0092 Y-0.1272 Z0.2438 F8.0000
G1 X-0.0280 Y-0.1244 Z0.2431 F8.0000
G1 X-0.0463 Y-0.1188 Z0.2424 F8.0000
G1 X-0.0635 Y-0.1105 Z0.2416 F8.0000
G1 X-0.0793 Y-0.0998 Z0.2408 F8.0000
G1 X-0.0933 Y-0.0869 Z0.2400 F8.0000
G1 X-0.1053 Y-0.0720 Z0.2393 F8.0000
G1 X-0.1148 Y-0.0554 Z0.2386 F8.0000
G1 X-0.1218 Y-0.0377 Z0.2379 F8.0000
G1 X-0.1261 Y-0.0190 Z0.2373 F8.0000
G1 X-0.1275 Y0.0000 Z0.2367 F8.0000
G1 X-0.1275 Y0.5832 Z0.2160 F8.0000
G1 X-0.1259 Y0.6031 Z0.2153 F8.0000
G1 X-0.1213 Y0.6224 Z0.2147 F8.0000
G1 X-0.1138 Y0.6408 Z0.2139 F8.0000
G1 X-0.1034 Y0.6578 Z0.2132 F8.0000
G1 X-0.0905 Y0.6730 Z0.2124 F8.0000
G1 X-0.0755 Y0.6860 Z0.2116 F8.0000
G1 X-0.0586 Y0.6965 Z0.2109 F8.0000
G1 X-0.0402 Y0.7042 Z0.2102 F8.0000
G1 X-0.0209 Y0.7090 Z0.2096 F8.0000
G1 X0.0626 Y0.7228 Z0.2066 F8.0000
G1 X0.1465 Y0.7336 Z0.2036 F8.0000
G1 X0.2308 Y0.7413 Z0.2006 F8.0000
G1 X0.3154 Y0.7459 Z0.1975 F8.0000
G1 X0.4000 Y0.7475 Z0.1945 F8.0000
G1 X0.4846 Y0.7459 Z0.1915 F8.0000
G1 X0.5692 Y0.7413 Z0.1885 F8.0000
G1 X0.6535 Y0.7336 Z0.1854 F8.0000
G1 X0.7374 Y0.7228 Z0.1824 F8.0000
G1 X0.8209 Y0.7090 Z0.1794 F8.0000
G1 X0.8402 Y0.7042 Z0.1788 F8.0000
G1 X0.8586 Y0.6965 Z0.1781 F8.0000
G1 X0.8755 Y0.6860 Z0.1774 F8.0000
G1 X0.8905 Y0.6730 Z0.1766 F8.0000
G1 X0.9034 Y0.6578 Z0.1759 F8.0000
G1 X0.9138 Y0.6408 Z0.1751 F8.0000
G1 X0.9213 Y0.6224 Z0.1744 F8.0000
G1 X0.9259 Y0.6031 Z0.1737 F8.0000
G1 X0.9275 Y0.5832 Z0.1731 F8.0000
G1 X0.9275 Y0.0000 Z0.1523 F8.0000
G1 X0.9261 Y-0.0190 Z0.1518 F8.0000
G1 X0.9218 Y-0.0377 Z0.1511 F8.0000
G1 X0.9148 Y-0.0554 Z0.1505 F8.0000
G1 X0.9053 Y-0.0720 Z0.1497 F8.0000
G1 X0.8933 Y-0.0869 Z0.1490 F8.0000
G1 X0.8793 Y-0.0998 Z0.1482 F8.0000
G1 X0.8635 Y-0.1105 Z0.1474 F8.0000
G1 X0.8463 Y-0.1188 Z0.1467 F8.0000
G1 X0.8280 Y-0.1244 Z0.1459 F8.0000
G1 X0.8092 Y-0.1272 Z0.1453 F8.0000
G1 X0.7901 Y-0.1271 Z0.1447 F8.0000
G1 X0.7712 Y-0.1242 Z0.1441 F8.0000
G1 X0.7050 Y-0.1089 Z0.1417 F8.0000
G1 X0.6381 Y-0.0966 Z0.1393 F8.0000
G1 X0.5708 Y-0.0873 Z0.1369 F8.0000
G1 X0.5032 Y-0.0811 Z0.1345 F8.0000
G1 X0.4353 Y-0.0779 Z0.1320 F8.0000
G1 X0.3673 Y-0.0779 Z0.1296 F8.0000
G1 X0.2994 Y-0.0809 Z0.1271 F8.0000
G1 X0.2318 Y-0.0870 Z0.1247 F8.0000
G1 X0.1644 Y-0.0962 Z0.1223 F8.0000
G1 X0.0976 Y-0.1083 Z0.1199 F8.0000
G1 X0.0313 Y-0.1236 Z0.1175 F8.0000
G1 X0.0288 Y-0.1242 Z0.1174 F8.0000
G1 X0.0099 Y-0.1271 Z0.1169 F8.0000
G1 X-0.0092 Y-0.1272 Z0.1164 F8.0000
G1 X-0.0280 Y-0.1244 Z0.1157 F8.0000
G1 X-0.0463 Y-0.1188 Z0.1151 F8.0000
G1 X-0.0635 Y-0.1105 Z0.1144 F8.0000
G1 X-0.0793 Y-0.0998 Z0.1137 F8.0000
G1 X-0.0933 Y-0.0869 Z0.1129 F8.0000
G1 X-0.1053 Y-0.0720 Z0.1122 F8.0000
G1 X-0.1148 Y-0.0554 Z0.1116 F8.0000
G1 X-0.1218 Y-0.0377 Z0.1109 F8.0000
G1 X-0.1261 Y-0.0190 Z0.1104 F8.0000
G1 X-0.1275 Y0.0000 Z0.1099 F8.0000
G1 X-0.1275 Y0.5832 Z0.0907 F8.0000
G1 X-0.1259 Y0.6031 Z0.0902 F8.0000
G1 X-0.1213 Y0.6224 Z0.0895 F8.0000
G1 X-0.1138 Y0.6408 Z0.0889 F8.0000
G1 X-0.1034 Y0.6578 Z0.0882 F8.0000
G1 X-0.0905 Y0.6730 Z0.0875 F8.0000
G1 X-0.0755 Y0.6860 Z0.0867 F8.0000
G1 X-0.0586 Y0.6965 Z0.0861 F8.0000
G1 X-0.0402 Y0.7042 Z0.0854 F8.0000
G1 X-0.0209 Y0.7090 Z0.0849 F8.0000
G1 X0.0626 Y0.7228 Z0.0821 F8.0000
G1 X0.1465 Y0.7336 Z0.0793 F8.0000
G1 X0.2308 Y0.7413 Z0.0766 F8.0000
G1 X0.3154 Y0.7459 Z0.0738 F8.0000
G1 X0.4000 Y0.7475 Z0.0710 F8.0000
G1 X0.4846 Y0.7459 Z0.0682 F8.0000
G1 X0.5692 Y0.7413 Z0.0654 F8.0000
G1 X0.6535 Y0.7336 Z0.0626 F8.0000
G1 X0.7374 Y0.7228 Z0.0598 F8.0000
G1 X0.8209 Y0.7090 Z0.0571 F8.0000
G1 X0.8402 Y0.7042 Z0.0565 F8.0000
G1 X0.8586 Y0.6965 Z0.0559 F8.0000
G1 X0.8755 Y0.6860 Z0.0552 F8.0000
G1 X0.8905 Y0.6730 Z0.0545 F8.0000
G1 X0.9034 Y0.6578 Z0.0538 F8.0000
G1 X0.9138 Y0.6408 Z0.0531 F8.0000
G1 X0.9213 Y0.6224 Z0.0524 F8.0000
G1 X0.9259 Y0.6031 Z0.0518 F8.0000
G1 X0.9275 Y0.5832 Z0.0512 F8.0000
G1 X0.9275 Y0.0000 Z0.0321 F8.0000
G1 X0.9261 Y-0.0190 Z0.0316 F8.0000
G1 X0.9218 Y-0.0377 Z0.0310 F8.0000
G1 X0.9148 Y-0.0554 Z0.0304 F8.0000
G1 X0.9053 Y-0.0720 Z0.0297 F8.0000
G1 X0.8933 Y-0.0869 Z0.0290 F8.0000
G1 X0.8793 Y-0.0998 Z0.0283 F8.0000
G1 X0.8635 Y-0.1105 Z0.0276 F8.0000
G1 X0.8463 Y-0.1188 Z0.0269 F8.0000
G1 X0.8280 Y-0.1244 Z0.0262 F8.0000
G1 X0.8092 Y-0.1272 Z0.0256 F8.0000
G1 X0.7901 Y-0.1271 Z0.0250 F8.0000
G1 X0.7712 Y-0.1242 Z0.0245 F8.0000
G1 X0.7050 Y-0.1089 Z0.0223 F8.0000
G1 X0.6381 Y-0.0966 Z0.0201 F8.0000
G1 X0.5708 Y-0.0873 Z0.0179 F8.0000
G1 X0.5032 Y-0.0811 Z0.0156 F8.0000
G1 X0.4353 Y-0.0779 Z0.0134 F8.0000
G1 X0.3673 Y-0.0779 Z0.0111 F8.0000
G1 X0.2994 Y-0.0809 Z0.0089 F8.0000
G1 X0.2318 Y-0.0870 Z0.0066 F8.0000
G1 X0.1644 Y-0.0962 Z0.0044 F8.0000
G1 X0.0976 Y-0.1083 Z0.0022 F8.0000
G1 X0.0313 Y-0.1236 Z0.0000 F8.0000
G3 X0.0288 Y-0.1242 Z0.0000 I0.3687 J-1.4533 K0.0000 F8.0000
G2 X-0.1275 Y0.0000 Z0.0000 I-0.0288 J0.1242 K0.0000 F8.0000
G1 X-0.1275 Y0.5832 Z0.0000 F8.0000
G2 X-0.0209 Y0.7090 Z0.0000 I0.1275 J-0.0000 K0.0000 F8.0000
G2 X0.8209 Y0.7090 Z0.0000 I0.4209 J-2.2840 K0.0000 F8.0000
G2 X0.9275 Y0.5832 Z0.0000 I-0.0209 J-0.1258 K0.0000 F8.0000
G1 X0.9275 Y0.0000 Z0.0000 F8.0000
G2 X0.7712 Y-0.1242 Z0.0000 I-0.1275 J0.0000 K0.0000 F8.0000
G3 X0.0313 Y-0.1236 Z0.0000 I-0.3712 J-1.4526 K0.0000 F8.0000
G0 X0.0313 Y-0.1236 Z0.6970
(Finish operation: RampEntryDressup002)
(Coolant Off:Flood)
M9
(Begin postamble)
M5
G17 G90
M2
