(Exported by FreeCAD)
(Post Processor: script_module)
(Output Time:2025-01-29 18:15:42.651303)
(Begin preamble)
G17 G90
G20
(Begin operation: Fixture)
(Path: Fixture)
G54
(Finish operation: Fixture)
(Begin operation: 0.257 plain001)
(Path: 0.257 plain001)
(0.257 plain001)
(Begin toolchange)
( M6 T4 )
M3 S1000
(Finish operation: 0.257 plain001)
(Begin operation: RampEntryDressup)
(Coolant On:Flood)
M8
(Path: RampEntryDressup)
G0 X0.0000 Y0.0000 Z0.6970
G0 X-0.0005 Y0.1008 Z0.6970
G0 X-0.0005 Y0.1008 Z0.6180
G1 X0.0713 Y0.1162 Z0.6113 F8.0000
G1 X0.1437 Y0.1285 Z0.6046 F8.0000
G1 X0.2165 Y0.1377 Z0.5978 F8.0000
G1 X0.2896 Y0.1439 Z0.5910 F8.0000
G1 X0.3630 Y0.1470 Z0.5841 F8.0000
G1 X0.4364 Y0.1469 Z0.5773 F8.0000
G1 X0.5098 Y0.1438 Z0.5704 F8.0000
G1 X0.5829 Y0.1376 Z0.5636 F8.0000
G1 X0.6557 Y0.1282 Z0.5568 F8.0000
G1 X0.7281 Y0.1159 Z0.5501 F8.0000
G1 X0.7999 Y0.1004 Z0.5434 F8.0000
G1 X0.8020 Y0.1021 Z0.5432 F8.0000
G1 X0.8030 Y0.1046 Z0.5429 F8.0000
G1 X0.8026 Y0.1072 Z0.5427 F8.0000
G1 X0.8034 Y0.2845 Z0.5263 F8.0000
G1 X0.8022 Y0.4617 Z0.5099 F8.0000
G1 X0.8008 Y0.4604 Z0.5107 F8.0000
G1 X0.7992 Y0.4607 Z0.5095 F8.0000
G1 X0.8000 Y0.4621 Z0.5083 F8.0000
G1 X0.8019 Y0.4623 Z0.5091 F8.0000
G1 X0.7296 Y0.4755 Z0.5023 F8.0000
G1 X0.6569 Y0.4862 Z0.4956 F8.0000
G1 X0.5839 Y0.4942 Z0.4888 F8.0000
G1 X0.5106 Y0.4995 Z0.4820 F8.0000
G1 X0.4372 Y0.5023 Z0.4752 F8.0000
G1 X0.3637 Y0.5023 Z0.4683 F8.0000
G1 X0.2903 Y0.4998 Z0.4615 F8.0000
G1 X0.2170 Y0.4946 Z0.4547 F8.0000
G1 X0.1439 Y0.4867 Z0.4479 F8.0000
G1 X0.0712 Y0.4762 Z0.4411 F8.0000
G1 X-0.0011 Y0.4632 Z0.4344 F8.0000
G1 X-0.0026 Y0.4600 Z0.4341 F8.0000
G1 X-0.0026 Y0.4565 Z0.4338 F8.0000
G1 X-0.0032 Y0.2794 Z0.4174 F8.0000
G1 X-0.0021 Y0.1024 Z0.4011 F8.0000
G1 X-0.0015 Y0.1044 Z0.4015 F8.0000
G1 X0.0006 Y0.1050 Z0.4010 F8.0000
G1 X0.0020 Y0.1037 Z0.4001 F8.0000
G1 X0.0015 Y0.1016 Z0.3996 F8.0000
G1 X-0.0005 Y0.1008 Z0.4000 F8.0000
G2 X0.7999 Y0.1004 Z0.4000 I0.3993 J-1.6909 K0.0000 F8.0000
G3 X0.8026 Y0.1072 Z0.4000 I-0.0020 J0.0047 K0.0000 F8.0000
G3 X0.8022 Y0.4617 Z0.4000 I-15.6236 J0.1588 K0.0000 F8.0000
G2 X0.8019 Y0.4623 Z0.4000 I-0.0015 J-0.0003 K0.0000 F8.0000
G3 X-0.0011 Y0.4632 Z0.4000 I-0.4037 J-1.9991 K0.0000 F8.0000
G3 X-0.0026 Y0.4565 Z0.4000 I0.0066 J-0.0049 K0.0000 F8.0000
G3 X-0.0021 Y0.1024 Z0.4000 I18.5259 J-0.1545 K0.0000 F8.0000
G2 X-0.0005 Y0.1008 Z0.4000 I0.0021 J0.0006 K0.0000 F8.0000
G1 X0.0482 Y0.1637 Z0.4000 F8.0000
G2 X0.7519 Y0.1627 Z0.4000 I0.3493 J-1.7429 K0.0000 F8.0000
G3 X0.7518 Y0.4198 Z0.4000 I-22.6934 J0.1199 K0.0000 F8.0000
G3 X0.0483 Y0.4205 Z0.4000 I-0.3537 J-1.9548 K0.0000 F8.0000
G3 X0.0482 Y0.1637 Z0.4000 I31.6890 J-0.1378 K0.0000 F8.0000
G1 X0.0991 Y0.2246 Z0.4000 F8.0000
G2 X0.7011 Y0.2239 Z0.4000 I0.2990 J-1.7893 K0.0000 F8.0000
G3 X0.7010 Y0.3766 Z0.4000 I-15.5173 J0.0678 K0.0000 F8.0000
G3 X0.0991 Y0.3775 Z0.4000 I-0.3037 J-1.9144 K0.0000 F8.0000
G3 X0.0991 Y0.2246 Z0.4000 I28.5278 J-0.0883 K0.0000 F8.0000
G1 X0.1500 Y0.2836 Z0.4000 F8.0000
G2 X0.6502 Y0.2832 Z0.4000 I0.2488 J-1.8356 K0.0000 F8.0000
G1 X0.6501 Y0.3328 Z0.4000 F8.0000
G3 X0.1501 Y0.3330 Z0.4000 I-0.2510 J-1.8656 K0.0000 F8.0000
G1 X0.1500 Y0.2836 Z0.4000 F8.0000
G0 X0.1500 Y0.2836 Z0.6970
(Finish operation: RampEntryDressup)

(Path: RampEntryDressup001)
G0 X0.0000 Y0.0000 Z0.6970
G0 X0.0000 Y-0.0245 Z0.6970
G0 X0.0000 Y-0.0245 Z0.6180
G1 X-0.0200 Y-0.0229 Z0.6166 F8.0000
G1 X-0.0394 Y-0.0183 Z0.6150 F8.0000
G1 X-0.0579 Y-0.0106 Z0.6134 F8.0000
G1 X-0.0750 Y-0.0002 Z0.6116 F8.0000
G1 X-0.0902 Y0.0128 Z0.6097 F8.0000
G1 X-0.1031 Y0.0280 Z0.6079 F8.0000
G1 X-0.1136 Y0.0451 Z0.6061 F8.0000
G1 X-0.1212 Y0.0636 Z0.6044 F8.0000
G1 X-0.1259 Y0.0830 Z0.6029 F8.0000
G1 X-0.1275 Y0.1030 Z0.6015 F8.0000
G1 X-0.1275 Y0.4611 Z0.5720 F8.0000
G1 X-0.1260 Y0.4808 Z0.5705 F8.0000
G1 X-0.1214 Y0.5000 Z0.5689 F8.0000
G1 X-0.1139 Y0.5183 Z0.5673 F8.0000
G1 X-0.1037 Y0.5352 Z0.5655 F8.0000
G1 X-0.0910 Y0.5504 Z0.5637 F8.0000
G1 X-0.0762 Y0.5633 Z0.5620 F8.0000
G1 X-0.0594 Y0.5739 Z0.5603 F8.0000
G1 X-0.0413 Y0.5817 Z0.5587 F8.0000
G1 X-0.0221 Y0.5866 Z0.5573 F8.0000
G1 X0.0539 Y0.6001 Z0.5510 F8.0000
G1 X0.1304 Y0.6109 Z0.5446 F8.0000
G1 X0.2072 Y0.6190 Z0.5383 F8.0000
G1 X0.2842 Y0.6244 Z0.5319 F8.0000
G1 X0.3614 Y0.6271 Z0.5255 F8.0000
G1 X0.4386 Y0.6271 Z0.5191 F8.0000
G1 X0.5158 Y0.6244 Z0.5127 F8.0000
G1 X0.5928 Y0.6190 Z0.5063 F8.0000
G1 X0.6696 Y0.6109 Z0.4999 F8.0000
G1 X0.7461 Y0.6001 Z0.4936 F8.0000
G1 X0.8221 Y0.5866 Z0.4873 F8.0000
G1 X0.8413 Y0.5817 Z0.4858 F8.0000
G1 X0.8594 Y0.5739 Z0.4842 F8.0000
G1 X0.8762 Y0.5633 Z0.4826 F8.0000
G1 X0.8910 Y0.5504 Z0.4808 F8.0000
G1 X0.9037 Y0.5352 Z0.4790 F8.0000
G1 X0.9139 Y0.5183 Z0.4773 F8.0000
G1 X0.9214 Y0.5000 Z0.4756 F8.0000
G1 X0.9260 Y0.4808 Z0.4740 F8.0000
G1 X0.9275 Y0.4611 Z0.4726 F8.0000
G1 X0.9275 Y0.1030 Z0.4431 F8.0000
G1 X0.9261 Y0.0841 Z0.4418 F8.0000
G1 X0.9219 Y0.0656 Z0.4404 F8.0000
G1 X0.9150 Y0.0480 Z0.4389 F8.0000
G1 X0.9056 Y0.0315 Z0.4372 F8.0000
G1 X0.8939 Y0.0167 Z0.4355 F8.0000
G1 X0.8801 Y0.0038 Z0.4337 F8.0000
G1 X0.8645 Y-0.0070 Z0.4319 F8.0000
G1 X0.8475 Y-0.0153 Z0.4302 F8.0000
G1 X0.8295 Y-0.0210 Z0.4285 F8.0000
G1 X0.8108 Y-0.0240 Z0.4269 F8.0000
G1 X0.7919 Y-0.0242 Z0.4255 F8.0000
G1 X0.7731 Y-0.0216 Z0.4243 F8.0000
G1 X0.7062 Y-0.0071 Z0.4188 F8.0000
G1 X0.6387 Y0.0046 Z0.4131 F8.0000
G1 X0.5708 Y0.0133 Z0.4075 F8.0000
G1 X0.5026 Y0.0192 Z0.4018 F8.0000
G1 X0.4342 Y0.0221 Z0.3961 F8.0000
G1 X0.3658 Y0.0221 Z0.3904 F8.0000
G1 X0.2974 Y0.0192 Z0.3847 F8.0000
G1 X0.2292 Y0.0133 Z0.3791 F8.0000
G1 X0.1613 Y0.0046 Z0.3734 F8.0000
G1 X0.0938 Y-0.0071 Z0.3678 F8.0000
G1 X0.0269 Y-0.0216 Z0.3622 F8.0000
G1 X0.0135 Y-0.0238 Z0.3611 F8.0000
G1 X-0.0000 Y-0.0245 Z0.3600 F8.0000
G1 X-0.0200 Y-0.0229 Z0.3592 F8.0000
G1 X-0.0394 Y-0.0183 Z0.3584 F8.0000
G1 X-0.0579 Y-0.0106 Z0.3575 F8.0000
G1 X-0.0749 Y-0.0002 Z0.3565 F8.0000
G1 X-0.0902 Y0.0128 Z0.3555 F8.0000
G1 X-0.1031 Y0.0280 Z0.3545 F8.0000
G1 X-0.1136 Y0.0451 Z0.3536 F8.0000
G1 X-0.1213 Y0.0636 Z0.3526 F8.0000
G1 X-0.1259 Y0.0830 Z0.3518 F8.0000
G1 X-0.1275 Y0.1030 Z0.3510 F8.0000
G1 X-0.1275 Y0.4611 Z0.3350 F8.0000
G1 X-0.1260 Y0.4808 Z0.3342 F8.0000
G1 X-0.1214 Y0.5000 Z0.3334 F8.0000
G1 X-0.1139 Y0.5183 Z0.3325 F8.0000
G1 X-0.1037 Y0.5352 Z0.3315 F8.0000
G1 X-0.0910 Y0.5504 Z0.3306 F8.0000
G1 X-0.0761 Y0.5633 Z0.3296 F8.0000
G1 X-0.0594 Y0.5739 Z0.3287 F8.0000
G1 X-0.0413 Y0.5817 Z0.3278 F8.0000
G1 X-0.0221 Y0.5866 Z0.3271 F8.0000
G1 X0.0539 Y0.6001 Z0.3236 F8.0000
G1 X0.1304 Y0.6109 Z0.3202 F8.0000
G1 X0.2072 Y0.6190 Z0.3167 F8.0000
G1 X0.2842 Y0.6244 Z0.3133 F8.0000
G1 X0.3614 Y0.6271 Z0.3098 F8.0000
G1 X0.4386 Y0.6271 Z0.3063 F8.0000
G1 X0.5158 Y0.6244 Z0.3028 F8.0000
G1 X0.5928 Y0.6190 Z0.2994 F8.0000
G1 X0.6696 Y0.6109 Z0.2959 F8.0000
G1 X0.7461 Y0.6001 Z0.2925 F8.0000
G1 X0.8221 Y0.5866 Z0.2891 F8.0000
G1 X0.8413 Y0.5817 Z0.2883 F8.0000
G1 X0.8594 Y0.5739 Z0.2874 F8.0000
G1 X0.8761 Y0.5633 Z0.2865 F8.0000
G1 X0.8910 Y0.5504 Z0.2856 F8.0000
G1 X0.9037 Y0.5352 Z0.2846 F8.0000
G1 X0.9139 Y0.5183 Z0.2836 F8.0000
G1 X0.9214 Y0.5000 Z0.2827 F8.0000
G1 X0.9260 Y0.4808 Z0.2819 F8.0000
G1 X0.9275 Y0.4611 Z0.2811 F8.0000
G1 X0.9275 Y0.1030 Z0.2651 F8.0000
G1 X0.9261 Y0.0841 Z0.2644 F8.0000
G1 X0.9219 Y0.0656 Z0.2636 F8.0000
G1 X0.9150 Y0.0480 Z0.2628 F8.0000
G1 X0.9056 Y0.0316 Z0.2619 F8.0000
G1 X0.8939 Y0.0167 Z0.2610 F8.0000
G1 X0.8801 Y0.0038 Z0.2600 F8.0000
G1 X0.8645 Y-0.0070 Z0.2590 F8.0000
G1 X0.8475 Y-0.0153 Z0.2581 F8.0000
G1 X0.8295 Y-0.0211 Z0.2572 F8.0000
G1 X0.8108 Y-0.0241 Z0.2563 F8.0000
G1 X0.7918 Y-0.0243 Z0.2556 F8.0000
G1 X0.7731 Y-0.0216 Z0.2549 F8.0000
G1 X0.7062 Y-0.0071 Z0.2519 F8.0000
G1 X0.6387 Y0.0046 Z0.2488 F8.0000
G1 X0.5708 Y0.0133 Z0.2458 F8.0000
G1 X0.5026 Y0.0192 Z0.2427 F8.0000
G1 X0.4342 Y0.0221 Z0.2396 F8.0000
G1 X0.3658 Y0.0221 Z0.2365 F8.0000
G1 X0.2974 Y0.0192 Z0.2334 F8.0000
G1 X0.2292 Y0.0133 Z0.2303 F8.0000
G1 X0.1613 Y0.0046 Z0.2273 F8.0000
G1 X0.0938 Y-0.0071 Z0.2242 F8.0000
G1 X0.0269 Y-0.0216 Z0.2212 F8.0000
G1 X0.0135 Y-0.0238 Z0.2206 F8.0000
G1 X-0.0000 Y-0.0245 Z0.2200 F8.0000
G1 X-0.0199 Y-0.0229 Z0.2198 F8.0000
G1 X-0.0394 Y-0.0183 Z0.2195 F8.0000
G1 X-0.0579 Y-0.0106 Z0.2193 F8.0000
G1 X-0.0749 Y-0.0002 Z0.2190 F8.0000
G1 X-0.0902 Y0.0128 Z0.2187 F8.0000
G1 X-0.1031 Y0.0280 Z0.2184 F8.0000
G1 X-0.1136 Y0.0451 Z0.2182 F8.0000
G1 X-0.1213 Y0.0636 Z0.2179 F8.0000
G1 X-0.1259 Y0.0830 Z0.2177 F8.0000
G1 X-0.1275 Y0.1030 Z0.2174 F8.0000
G1 X-0.1275 Y0.4611 Z0.2129 F8.0000
G1 X-0.1260 Y0.4808 Z0.2126 F8.0000
G1 X-0.1214 Y0.5000 Z0.2124 F8.0000
G1 X-0.1139 Y0.5183 Z0.2121 F8.0000
G1 X-0.1037 Y0.5352 Z0.2119 F8.0000
G1 X-0.0910 Y0.5504 Z0.2116 F8.0000
G1 X-0.0761 Y0.5633 Z0.2113 F8.0000
G1 X-0.0594 Y0.5739 Z0.2111 F8.0000
G1 X-0.0413 Y0.5817 Z0.2108 F8.0000
G1 X-0.0221 Y0.5866 Z0.2106 F8.0000
G1 X0.0539 Y0.6001 Z0.2096 F8.0000
G1 X0.1304 Y0.6109 Z0.2086 F8.0000
G1 X0.2072 Y0.6190 Z0.2076 F8.0000
G1 X0.2842 Y0.6244 Z0.2066 F8.0000
G1 X0.3614 Y0.6271 Z0.2057 F8.0000
G1 X0.4386 Y0.6271 Z0.2047 F8.0000
G1 X0.5158 Y0.6244 Z0.2037 F8.0000
G1 X0.5928 Y0.6190 Z0.2027 F8.0000
G1 X0.6696 Y0.6109 Z0.2017 F8.0000
G1 X0.7461 Y0.6001 Z0.2007 F8.0000
G1 X0.8221 Y0.5866 Z0.1997 F8.0000
G1 X0.8413 Y0.5817 Z0.1995 F8.0000
G1 X0.8594 Y0.5739 Z0.1993 F8.0000
G1 X0.8761 Y0.5633 Z0.1990 F8.0000
G1 X0.8910 Y0.5504 Z0.1987 F8.0000
G1 X0.9037 Y0.5352 Z0.1985 F8.0000
G1 X0.9139 Y0.5183 Z0.1982 F8.0000
G1 X0.9214 Y0.5000 Z0.1979 F8.0000
G1 X0.9260 Y0.4808 Z0.1977 F8.0000
G1 X0.9275 Y0.4611 Z0.1975 F8.0000
G1 X0.9275 Y0.1030 Z0.1929 F8.0000
G1 X0.9261 Y0.0841 Z0.1927 F8.0000
G1 X0.9219 Y0.0656 Z0.1925 F8.0000
G1 X0.9150 Y0.0480 Z0.1922 F8.0000
G1 X0.9056 Y0.0316 Z0.1920 F8.0000
G1 X0.8939 Y0.0167 Z0.1917 F8.0000
G1 X0.8801 Y0.0038 Z0.1914 F8.0000
G1 X0.8645 Y-0.0070 Z0.1911 F8.0000
G1 X0.8475 Y-0.0153 Z0.1909 F8.0000
G1 X0.8295 Y-0.0211 Z0.1906 F8.0000
G1 X0.8108 Y-0.0241 Z0.1904 F8.0000
G1 X0.7918 Y-0.0243 Z0.1902 F8.0000
G1 X0.7731 Y-0.0216 Z0.1900 F8.0000
G1 X0.7062 Y-0.0071 Z0.1891 F8.0000
G1 X0.6387 Y0.0046 Z0.1882 F8.0000
G1 X0.5708 Y0.0133 Z0.1874 F8.0000
G1 X0.5026 Y0.0192 Z0.1865 F8.0000
G1 X0.4342 Y0.0221 Z0.1856 F8.0000
G1 X0.3658 Y0.0221 Z0.1847 F8.0000
G1 X0.2974 Y0.0192 Z0.1838 F8.0000
G1 X0.2292 Y0.0133 Z0.1830 F8.0000
G1 X0.1613 Y0.0046 Z0.1821 F8.0000
G1 X0.0938 Y-0.0071 Z0.1812 F8.0000
G1 X0.0269 Y-0.0216 Z0.1803 F8.0000
G1 X0.0135 Y-0.0238 Z0.1802 F8.0000
G1 X-0.0000 Y-0.0245 Z0.1800 F8.0000
G2 X-0.1275 Y0.1030 Z0.1800 I0.0000 J0.1275 K0.0000 F8.0000
G1 X-0.1275 Y0.4611 Z0.1800 F8.0000
G2 X-0.0221 Y0.5866 Z0.1800 I0.1275 J-0.0000 K0.0000 F8.0000
G2 X0.8221 Y0.5866 Z0.1800 I0.4221 J-2.1616 K0.0000 F8.0000
G2 X0.9275 Y0.4611 Z0.1800 I-0.0221 J-0.1256 K0.0000 F8.0000
G1 X0.9275 Y0.1030 Z0.1800 F8.0000
G2 X0.7731 Y-0.0216 Z0.1800 I-0.1275 J0.0000 K0.0000 F8.0000
G3 X0.0269 Y-0.0216 Z0.1800 I-0.3731 J-1.5555 K0.0000 F8.0000
G2 X-0.0000 Y-0.0245 Z0.1800 I-0.0269 J0.1246 K0.0000 F8.0000
G0 X-0.0000 Y-0.0245 Z0.6970
(Finish operation: RampEntryDressup001)

(Path: RampEntryDressup002)
G0 X0.0000 Y0.0000 Z0.6970
G0 X0.0313 Y-0.1236 Z0.6970
G0 X0.0313 Y-0.1236 Z0.6180
G1 X0.0288 Y-0.1242 Z0.6178 F8.0000
G1 X0.0099 Y-0.1271 Z0.6168 F8.0000
G1 X-0.0092 Y-0.1272 Z0.6156 F8.0000
G1 X-0.0281 Y-0.1244 Z0.6143 F8.0000
G1 X-0.0463 Y-0.1188 Z0.6129 F8.0000
G1 X-0.0635 Y-0.1105 Z0.6114 F8.0000
G1 X-0.0793 Y-0.0998 Z0.6099 F8.0000
G1 X-0.0933 Y-0.0869 Z0.6084 F8.0000
G1 X-0.1052 Y-0.0720 Z0.6069 F8.0000
G1 X-0.1148 Y-0.0554 Z0.6055 F8.0000
G1 X-0.1218 Y-0.0377 Z0.6041 F8.0000
G1 X-0.1261 Y-0.0191 Z0.6029 F8.0000
G1 X-0.1275 Y0.0000 Z0.6019 F8.0000
G1 X-0.1275 Y0.5629 Z0.5629 F8.0000
G1 X-0.1259 Y0.5827 Z0.5617 F8.0000
G1 X-0.1213 Y0.6021 Z0.5603 F8.0000
G1 X-0.1138 Y0.6204 Z0.5589 F8.0000
G1 X-0.1035 Y0.6374 Z0.5574 F8.0000
G1 X-0.0906 Y0.6526 Z0.5559 F8.0000
G1 X-0.0756 Y0.6656 Z0.5544 F8.0000
G1 X-0.0587 Y0.6761 Z0.5530 F8.0000
G1 X-0.0404 Y0.6838 Z0.5517 F8.0000
G1 X-0.0211 Y0.6886 Z0.5505 F8.0000
G1 X0.0624 Y0.7026 Z0.5446 F8.0000
G1 X0.1464 Y0.7135 Z0.5388 F8.0000
G1 X0.2308 Y0.7213 Z0.5329 F8.0000
G1 X0.3153 Y0.7259 Z0.5270 F8.0000
G1 X0.4000 Y0.7275 Z0.5211 F8.0000
G1 X0.4847 Y0.7259 Z0.5152 F8.0000
G1 X0.5692 Y0.7213 Z0.5093 F8.0000
G1 X0.6536 Y0.7135 Z0.5034 F8.0000
G1 X0.7376 Y0.7026 Z0.4975 F8.0000
G1 X0.8211 Y0.6886 Z0.4917 F8.0000
G1 X0.8404 Y0.6838 Z0.4905 F8.0000
G1 X0.8587 Y0.6761 Z0.4892 F8.0000
G1 X0.8756 Y0.6656 Z0.4877 F8.0000
G1 X0.8906 Y0.6526 Z0.4863 F8.0000
G1 X0.9035 Y0.6374 Z0.4848 F8.0000
G1 X0.9138 Y0.6204 Z0.4833 F8.0000
G1 X0.9213 Y0.6021 Z0.4818 F8.0000
G1 X0.9259 Y0.5827 Z0.4805 F8.0000
G1 X0.9275 Y0.5629 Z0.4793 F8.0000
G1 X0.9275 Y0.0000 Z0.4403 F8.0000
G1 X0.9261 Y-0.0191 Z0.4392 F8.0000
G1 X0.9218 Y-0.0377 Z0.4380 F8.0000
G1 X0.9148 Y-0.0554 Z0.4367 F8.0000
G1 X0.9052 Y-0.0720 Z0.4353 F8.0000
G1 X0.8933 Y-0.0869 Z0.4338 F8.0000
G1 X0.8793 Y-0.0998 Z0.4323 F8.0000
G1 X0.8635 Y-0.1105 Z0.4308 F8.0000
G1 X0.8463 Y-0.1188 Z0.4293 F8.0000
G1 X0.8281 Y-0.1244 Z0.4279 F8.0000
G1 X0.8092 Y-0.1272 Z0.4266 F8.0000
G1 X0.7901 Y-0.1271 Z0.4254 F8.0000
G1 X0.7712 Y-0.1242 Z0.4243 F8.0000
G1 X0.7050 Y-0.1089 Z0.4197 F8.0000
G1 X0.6381 Y-0.0966 Z0.4150 F8.0000
G1 X0.5708 Y-0.0873 Z0.4103 F8.0000
G1 X0.5032 Y-0.0811 Z0.4056 F8.0000
G1 X0.4353 Y-0.0779 Z0.4008 F8.0000
G1 X0.3673 Y-0.0779 Z0.3960 F8.0000
G1 X0.2994 Y-0.0809 Z0.3913 F8.0000
G1 X0.2318 Y-0.0870 Z0.3865 F8.0000
G1 X0.1644 Y-0.0962 Z0.3818 F8.0000
G1 X0.0976 Y-0.1083 Z0.3771 F8.0000
G1 X0.0313 Y-0.1236 Z0.3725 F8.0000
G1 X0.0288 Y-0.1242 Z0.3724 F8.0000
G1 X0.0099 Y-0.1271 Z0.3719 F8.0000
G1 X-0.0092 Y-0.1272 Z0.3713 F8.0000
G1 X-0.0280 Y-0.1244 Z0.3706 F8.0000
G1 X-0.0463 Y-0.1188 Z0.3698 F8.0000
G1 X-0.0635 Y-0.1105 Z0.3691 F8.0000
G1 X-0.0793 Y-0.0998 Z0.3683 F8.0000
G1 X-0.0933 Y-0.0869 Z0.3675 F8.0000
G1 X-0.1053 Y-0.0720 Z0.3667 F8.0000
G1 X-0.1148 Y-0.0554 Z0.3660 F8.0000
G1 X-0.1218 Y-0.0377 Z0.3653 F8.0000
G1 X-0.1261 Y-0.0190 Z0.3647 F8.0000
G1 X-0.1275 Y0.0000 Z0.3641 F8.0000
G1 X-0.1275 Y0.5629 Z0.3439 F8.0000
G1 X-0.1259 Y0.5827 Z0.3432 F8.0000
G1 X-0.1213 Y0.6021 Z0.3425 F8.0000
G1 X-0.1138 Y0.6204 Z0.3418 F8.0000
G1 X-0.1035 Y0.6374 Z0.3410 F8.0000
G1 X-0.0906 Y0.6526 Z0.3403 F8.0000
G1 X-0.0756 Y0.6656 Z0.3395 F8.0000
G1 X-0.0587 Y0.6761 Z0.3387 F8.0000
G1 X-0.0404 Y0.6838 Z0.3381 F8.0000
G1 X-0.0211 Y0.6886 Z0.3374 F8.0000
G1 X0.0624 Y0.7026 Z0.3344 F8.0000
G1 X0.1464 Y0.7135 Z0.3314 F8.0000
G1 X0.2307 Y0.7213 Z0.3283 F8.0000
G1 X0.3153 Y0.7259 Z0.3252 F8.0000
G1 X0.4000 Y0.7275 Z0.3222 F8.0000
G1 X0.4847 Y0.7259 Z0.3191 F8.0000
G1 X0.5693 Y0.7213 Z0.3160 F8.0000
G1 X0.6536 Y0.7135 Z0.3130 F8.0000
G1 X0.7376 Y0.7026 Z0.3099 F8.0000
G1 X0.8211 Y0.6886 Z0.3069 F8.0000
G1 X0.8404 Y0.6838 Z0.3063 F8.0000
G1 X0.8587 Y0.6761 Z0.3056 F8.0000
G1 X0.8756 Y0.6656 Z0.3048 F8.0000
G1 X0.8906 Y0.6526 Z0.3041 F8.0000
G1 X0.9035 Y0.6374 Z0.3033 F8.0000
G1 X0.9138 Y0.6204 Z0.3025 F8.0000
G1 X0.9213 Y0.6021 Z0.3018 F8.0000
G1 X0.9259 Y0.5827 Z0.3011 F8.0000
G1 X0.9275 Y0.5629 Z0.3005 F8.0000
G1 X0.9275 Y0.0000 Z0.2802 F8.0000
G1 X0.9261 Y-0.0190 Z0.2797 F8.0000
G1 X0.9218 Y-0.0377 Z0.2790 F8.0000
G1 X0.9148 Y-0.0554 Z0.2783 F8.0000
G1 X0.9053 Y-0.0720 Z0.2776 F8.0000
G1 X0.8933 Y-0.0869 Z0.2768 F8.0000
G1 X0.8793 Y-0.0998 Z0.2761 F8.0000
G1 X0.8635 Y-0.1105 Z0.2753 F8.0000
G1 X0.8463 Y-0.1188 Z0.2745 F8.0000
G1 X0.8280 Y-0.1244 Z0.2738 F8.0000
G1 X0.8092 Y-0.1272 Z0.2731 F8.0000
G1 X0.7901 Y-0.1271 Z0.2725 F8.0000
G1 X0.7712 Y-0.1242 Z0.2719 F8.0000
G1 X0.7050 Y-0.1089 Z0.2695 F8.0000
G1 X0.6381 Y-0.0966 Z0.2671 F8.0000
G1 X0.5708 Y-0.0873 Z0.2646 F8.0000
G1 X0.5032 Y-0.0811 Z0.2622 F8.0000
G1 X0.4353 Y-0.0779 Z0.2597 F8.0000
G1 X0.3673 Y-0.0779 Z0.2572 F8.0000
G1 X0.2994 Y-0.0809 Z0.2548 F8.0000
G1 X0.2318 Y-0.0870 Z0.2523 F8.0000
G1 X0.1644 Y-0.0962 Z0.2498 F8.0000
G1 X0.0976 Y-0.1083 Z0.2474 F8.0000
G1 X0.0313 Y-0.1236 Z0.2450 F8.0000
G1 X0.0288 Y-0.1242 Z0.2449 F8.0000
G1 X0.0099 Y-0.1271 Z0.2444 F8.0000
G1 X-0.0092 Y-0.1272 Z0.2438 F8.0000
G1 X-0.0280 Y-0.1244 Z0.2431 F8.0000
G1 X-0.0463 Y-0.1188 Z0.2423 F8.0000
G1 X-0.0635 Y-0.1105 Z0.2416 F8.0000
G1 X-0.0793 Y-0.0998 Z0.2408 F8.0000
G1 X-0.0933 Y-0.0869 Z0.2400 F8.0000
G1 X-0.1053 Y-0.0720 Z0.2392 F8.0000
G1 X-0.1148 Y-0.0554 Z0.2385 F8.0000
G1 X-0.1218 Y-0.0377 Z0.2378 F8.0000
G1 X-0.1261 Y-0.0190 Z0.2372 F8.0000
G1 X-0.1275 Y0.0000 Z0.2366 F8.0000
G1 X-0.1275 Y0.5629 Z0.2164 F8.0000
G1 X-0.1259 Y0.5827 Z0.2157 F8.0000
G1 X-0.1213 Y0.6021 Z0.2150 F8.0000
G1 X-0.1138 Y0.6204 Z0.2143 F8.0000
G1 X-0.1035 Y0.6374 Z0.2135 F8.0000
G1 X-0.0906 Y0.6526 Z0.2128 F8.0000
G1 X-0.0756 Y0.6656 Z0.2120 F8.0000
G1 X-0.0587 Y0.6761 Z0.2112 F8.0000
G1 X-0.0404 Y0.6838 Z0.2106 F8.0000
G1 X-0.0211 Y0.6886 Z0.2099 F8.0000
G1 X0.0624 Y0.7026 Z0.2069 F8.0000
G1 X0.1464 Y0.7135 Z0.2039 F8.0000
G1 X0.2307 Y0.7213 Z0.2008 F8.0000
G1 X0.3153 Y0.7259 Z0.1977 F8.0000
G1 X0.4000 Y0.7275 Z0.1947 F8.0000
G1 X0.4847 Y0.7259 Z0.1916 F8.0000
G1 X0.5693 Y0.7213 Z0.1885 F8.0000
G1 X0.6536 Y0.7135 Z0.1855 F8.0000
G1 X0.7376 Y0.7026 Z0.1824 F8.0000
G1 X0.8211 Y0.6886 Z0.1794 F8.0000
G1 X0.8404 Y0.6838 Z0.1788 F8.0000
G1 X0.8587 Y0.6761 Z0.1781 F8.0000
G1 X0.8756 Y0.6656 Z0.1773 F8.0000
G1 X0.8906 Y0.6526 Z0.1766 F8.0000
G1 X0.9035 Y0.6374 Z0.1758 F8.0000
G1 X0.9138 Y0.6204 Z0.1750 F8.0000
G1 X0.9213 Y0.6021 Z0.1743 F8.0000
G1 X0.9259 Y0.5827 Z0.1736 F8.0000
G1 X0.9275 Y0.5629 Z0.1730 F8.0000
G1 X0.9275 Y0.0000 Z0.1527 F8.0000
G1 X0.9261 Y-0.0190 Z0.1522 F8.0000
G1 X0.9218 Y-0.0377 Z0.1515 F8.0000
G1 X0.9148 Y-0.0554 Z0.1508 F8.0000
G1 X0.9053 Y-0.0720 Z0.1501 F8.0000
G1 X0.8933 Y-0.0869 Z0.1493 F8.0000
G1 X0.8793 Y-0.0998 Z0.1486 F8.0000
G1 X0.8635 Y-0.1105 Z0.1478 F8.0000
G1 X0.8463 Y-0.1188 Z0.1470 F8.0000
G1 X0.8280 Y-0.1244 Z0.1463 F8.0000
G1 X0.8092 Y-0.1272 Z0.1456 F8.0000
G1 X0.7901 Y-0.1271 Z0.1450 F8.0000
G1 X0.7712 Y-0.1242 Z0.1444 F8.0000
G1 X0.7050 Y-0.1089 Z0.1420 F8.0000
G1 X0.6381 Y-0.0966 Z0.1396 F8.0000
G1 X0.5708 Y-0.0873 Z0.1371 F8.0000
G1 X0.5032 Y-0.0811 Z0.1347 F8.0000
G1 X0.4353 Y-0.0779 Z0.1322 F8.0000
G1 X0.3673 Y-0.0779 Z0.1297 F8.0000
G1 X0.2994 Y-0.0809 Z0.1273 F8.0000
G1 X0.2318 Y-0.0870 Z0.1248 F8.0000
G1 X0.1644 Y-0.0962 Z0.1223 F8.0000
G1 X0.0976 Y-0.1083 Z0.1199 F8.0000
G1 X0.0313 Y-0.1236 Z0.1175 F8.0000
G1 X0.0288 Y-0.1242 Z0.1174 F8.0000
G1 X0.0099 Y-0.1271 Z0.1169 F8.0000
G1 X-0.0092 Y-0.1272 Z0.1164 F8.0000
G1 X-0.0280 Y-0.1244 Z0.1157 F8.0000
G1 X-0.0463 Y-0.1188 Z0.1150 F8.0000
G1 X-0.0635 Y-0.1105 Z0.1143 F8.0000
G1 X-0.0793 Y-0.0998 Z0.1136 F8.0000
G1 X-0.0933 Y-0.0869 Z0.1129 F8.0000
G1 X-0.1053 Y-0.0720 Z0.1122 F8.0000
G1 X-0.1148 Y-0.0554 Z0.1115 F8.0000
G1 X-0.1218 Y-0.0377 Z0.1109 F8.0000
G1 X-0.1261 Y-0.0190 Z0.1103 F8.0000
G1 X-0.1275 Y0.0000 Z0.1098 F8.0000
G1 X-0.1275 Y0.5629 Z0.0911 F8.0000
G1 X-0.1259 Y0.5827 Z0.0905 F8.0000
G1 X-0.1213 Y0.6021 Z0.0899 F8.0000
G1 X-0.1138 Y0.6204 Z0.0892 F8.0000
G1 X-0.1035 Y0.6374 Z0.0885 F8.0000
G1 X-0.0906 Y0.6526 Z0.0878 F8.0000
G1 X-0.0756 Y0.6656 Z0.0871 F8.0000
G1 X-0.0587 Y0.6761 Z0.0864 F8.0000
G1 X-0.0404 Y0.6838 Z0.0858 F8.0000
G1 X-0.0211 Y0.6886 Z0.0852 F8.0000
G1 X0.0624 Y0.7026 Z0.0824 F8.0000
G1 X0.1464 Y0.7135 Z0.0796 F8.0000
G1 X0.2307 Y0.7213 Z0.0768 F8.0000
G1 X0.3153 Y0.7259 Z0.0739 F8.0000
G1 X0.4000 Y0.7275 Z0.0711 F8.0000
G1 X0.4847 Y0.7259 Z0.0683 F8.0000
G1 X0.5693 Y0.7213 Z0.0655 F8.0000
G1 X0.6536 Y0.7135 Z0.0626 F8.0000
G1 X0.7376 Y0.7026 Z0.0598 F8.0000
G1 X0.8211 Y0.6886 Z0.0571 F8.0000
G1 X0.8404 Y0.6838 Z0.0565 F8.0000
G1 X0.8587 Y0.6761 Z0.0558 F8.0000
G1 X0.8756 Y0.6656 Z0.0552 F8.0000
G1 X0.8906 Y0.6526 Z0.0544 F8.0000
G1 X0.9035 Y0.6374 Z0.0537 F8.0000
G1 X0.9138 Y0.6204 Z0.0530 F8.0000
G1 X0.9213 Y0.6021 Z0.0523 F8.0000
G1 X0.9259 Y0.5827 Z0.0517 F8.0000
G1 X0.9275 Y0.5629 Z0.0511 F8.0000
G1 X0.9275 Y0.0000 Z0.0324 F8.0000
G1 X0.9261 Y-0.0190 Z0.0319 F8.0000
G1 X0.9218 Y-0.0377 Z0.0314 F8.0000
G1 X0.9148 Y-0.0554 Z0.0307 F8.0000
G1 X0.9053 Y-0.0720 Z0.0301 F8.0000
G1 X0.8933 Y-0.0869 Z0.0293 F8.0000
G1 X0.8793 Y-0.0998 Z0.0286 F8.0000
G1 X0.8635 Y-0.1105 Z0.0279 F8.0000
G1 X0.8463 Y-0.1188 Z0.0272 F8.0000
G1 X0.8280 Y-0.1244 Z0.0265 F8.0000
G1 X0.8092 Y-0.1272 Z0.0259 F8.0000
G1 X0.7901 Y-0.1271 Z0.0253 F8.0000
G1 X0.7712 Y-0.1242 Z0.0248 F8.0000
G1 X0.7050 Y-0.1089 Z0.0226 F8.0000
G1 X0.6381 Y-0.0966 Z0.0204 F8.0000
G1 X0.5708 Y-0.0873 Z0.0181 F8.0000
G1 X0.5032 Y-0.0811 Z0.0158 F8.0000
G1 X0.4353 Y-0.0779 Z0.0135 F8.0000
G1 X0.3673 Y-0.0779 Z0.0113 F8.0000
G1 X0.2994 Y-0.0809 Z0.0090 F8.0000
G1 X0.2318 Y-0.0870 Z0.0067 F8.0000
G1 X0.1644 Y-0.0962 Z0.0045 F8.0000
G1 X0.0976 Y-0.1083 Z0.0022 F8.0000
G1 X0.0313 Y-0.1236 Z0.0000 F8.0000
G3 X0.0288 Y-0.1242 Z0.0000 I0.3687 J-1.4533 K0.0000 F8.0000
G2 X-0.1275 Y0.0000 Z0.0000 I-0.0288 J0.1242 K0.0000 F8.0000
G1 X-0.1275 Y0.5629 Z0.0000 F8.0000
G2 X-0.0211 Y0.6886 Z0.0000 I0.1275 J-0.0000 K0.0000 F8.0000
G2 X0.8211 Y0.6886 Z0.0000 I0.4211 J-2.2636 K0.0000 F8.0000
G2 X0.9275 Y0.5629 Z0.0000 I-0.0211 J-0.1257 K0.0000 F8.0000
G1 X0.9275 Y0.0000 Z0.0000 F8.0000
G2 X0.7712 Y-0.1242 Z0.0000 I-0.1275 J0.0000 K0.0000 F8.0000
G3 X0.0313 Y-0.1236 Z0.0000 I-0.3712 J-1.4526 K0.0000 F8.0000
G0 X0.0313 Y-0.1236 Z0.6970
(Finish operation: RampEntryDressup002)
(Coolant Off:Flood)
M9
(Begin postamble)
M5
G17 G90
M2
