(Exported by FreeCAD)
(Post Processor: script_module)
(Output Time:2025-01-31 14:59:06.239386)
(Begin preamble)
G17 G90
G20
(Begin operation: Fixture)
(Path: Fixture)
G54
(Finish operation: Fixture)
(Begin operation: 0.257 plain001)
(Path: 0.257 plain001)
(0.257 plain001)
(Begin toolchange)
( M6 T4 )
M3 S1000
(Finish operation: 0.257 plain001)
(Begin operation: RampEntryDressup)
(Coolant On:Flood)
M8
M7
(Path: RampEntryDressup)
G0 X0.0000 Y0.0000 Z0.6970
G0 X0.0336 Y0.1002 Z0.6970
G0 X0.0336 Y0.1002 Z0.6180
G1 X0.0428 Y0.0980 Z0.6171 F8.0000
G1 X0.0523 Y0.0975 Z0.6162 F8.0000
G1 X0.1213 Y0.1099 Z0.6095 F8.0000
G1 X0.1907 Y0.1196 Z0.6029 F8.0000
G1 X0.2605 Y0.1265 Z0.5962 F8.0000
G1 X0.3305 Y0.1306 Z0.5894 F8.0000
G1 X0.4005 Y0.1320 Z0.5827 F8.0000
G1 X0.4706 Y0.1306 Z0.5759 F8.0000
G1 X0.5406 Y0.1264 Z0.5692 F8.0000
G1 X0.6104 Y0.1194 Z0.5625 F8.0000
G1 X0.6798 Y0.1097 Z0.5558 F8.0000
G1 X0.7488 Y0.0973 Z0.5492 F8.0000
G1 X0.7611 Y0.0987 Z0.5481 F8.0000
G1 X0.7727 Y0.1028 Z0.5470 F8.0000
G1 X0.7830 Y0.1095 Z0.5457 F8.0000
G1 X0.7916 Y0.1183 Z0.5444 F8.0000
G1 X0.7979 Y0.1289 Z0.5431 F8.0000
G1 X0.8016 Y0.1406 Z0.5419 F8.0000
G1 X0.8026 Y0.1530 Z0.5409 F8.0000
G1 X0.8036 Y0.2907 Z0.5277 F8.0000
G1 X0.8019 Y0.4284 Z0.5146 F8.0000
G1 X0.7991 Y0.4395 Z0.5135 F8.0000
G1 X0.7941 Y0.4498 Z0.5124 F8.0000
G1 X0.7868 Y0.4587 Z0.5112 F8.0000
G1 X0.7778 Y0.4659 Z0.5101 F8.0000
G1 X0.7675 Y0.4708 Z0.5091 F8.0000
G1 X0.6947 Y0.4828 Z0.5021 F8.0000
G1 X0.6216 Y0.4922 Z0.4950 F8.0000
G1 X0.5481 Y0.4990 Z0.4880 F8.0000
G1 X0.4745 Y0.5031 Z0.4809 F8.0000
G1 X0.4008 Y0.5045 Z0.4738 F8.0000
G1 X0.3270 Y0.5033 Z0.4667 F8.0000
G1 X0.2534 Y0.4994 Z0.4596 F8.0000
G1 X0.1799 Y0.4929 Z0.4526 F8.0000
G1 X0.1068 Y0.4837 Z0.4456 F8.0000
G1 X0.0340 Y0.4719 Z0.4386 F8.0000
G1 X0.0236 Y0.4670 Z0.4375 F8.0000
G1 X0.0145 Y0.4601 Z0.4364 F8.0000
G1 X0.0070 Y0.4514 Z0.4353 F8.0000
G1 X0.0015 Y0.4413 Z0.4341 F8.0000
G1 X-0.0017 Y0.4303 Z0.4330 F8.0000
G1 X-0.0026 Y0.4188 Z0.4320 F8.0000
G1 X-0.0036 Y0.2810 Z0.4188 F8.0000
G1 X-0.0018 Y0.1431 Z0.4056 F8.0000
G1 X0.0010 Y0.1318 Z0.4045 F8.0000
G1 X0.0063 Y0.1213 Z0.4034 F8.0000
G1 X0.0137 Y0.1123 Z0.4022 F8.0000
G1 X0.0230 Y0.1051 Z0.4011 F8.0000
G1 X0.0336 Y0.1002 Z0.4000 F8.0000
G3 X0.0523 Y0.0975 Z0.4000 I0.0168 J0.0499 K0.0000 F8.0000
G2 X0.7488 Y0.0973 Z0.4000 I0.3477 J-1.7375 K0.0000 F8.0000
G3 X0.8026 Y0.1530 Z0.4000 I0.0003 J0.0536 K0.0000 F8.0000
G3 X0.8019 Y0.4284 Z0.4000 I-6.6854 J0.1201 K0.0000 F8.0000
G3 X0.7675 Y0.4708 Z0.4000 I-0.0514 J-0.0065 K0.0000 F8.0000
G3 X0.0340 Y0.4719 Z0.4000 I-0.3698 J-2.0125 K0.0000 F8.0000
G3 X-0.0026 Y0.4188 Z0.4000 I0.0179 J-0.0514 K0.0000 F8.0000
G3 X-0.0018 Y0.1431 Z0.4000 I6.5971 J-0.1201 K0.0000 F8.0000
G3 X0.0336 Y0.1002 Z0.4000 I0.0522 J0.0070 K0.0000 F8.0000
G1 X0.0496 Y0.1489 Z0.4000 F8.0000
G2 X0.7498 Y0.1485 Z0.4000 I0.3491 J-1.7657 K0.0000 F8.0000
G2 X0.7512 Y0.1500 Z0.4000 I-0.0005 J0.0018 K0.0000 F8.0000
G1 X0.7516 Y0.1553 Z0.4000 F8.0000
G3 X0.7512 Y0.4219 Z0.4000 I-7.5281 J0.1210 K0.0000 F8.0000
G3 X0.0493 Y0.4227 Z0.4000 I-0.3531 J-1.9220 K0.0000 F8.0000
G3 X0.0484 Y0.4166 Z0.4000 I0.0077 J-0.0042 K0.0000 F8.0000
G3 X0.0489 Y0.1496 Z0.4000 I7.3443 J-0.1207 K0.0000 F8.0000
G2 X0.0496 Y0.1489 Z0.4000 I0.0011 J0.0003 K0.0000 F8.0000
G1 X0.0989 Y0.2097 Z0.4000 F8.0000
G2 X0.7011 Y0.2087 Z0.4000 I0.2982 J-1.8060 K0.0000 F8.0000
G3 X0.7009 Y0.3786 Z0.4000 I-9.7779 J0.0759 K0.0000 F8.0000
G3 X0.0991 Y0.3793 Z0.4000 I-0.3030 J-1.9136 K0.0000 F8.0000
G3 X0.0989 Y0.2097 Z0.4000 I9.7084 J-0.0935 K0.0000 F8.0000
G1 X0.1497 Y0.2684 Z0.4000 F8.0000
G2 X0.6503 Y0.2679 Z0.4000 I0.2483 J-1.8390 K0.0000 F8.0000
G3 X0.6502 Y0.3343 Z0.4000 I-5.3493 J0.0254 K0.0000 F8.0000
G3 X0.1498 Y0.3353 Z0.4000 I-0.2537 J-1.8686 K0.0000 F8.0000
G3 X0.1497 Y0.2684 Z0.4000 I5.3691 J-0.0413 K0.0000 F8.0000
G0 X0.1497 Y0.2684 Z0.6970
(Finish operation: RampEntryDressup)
(Coolant Off:Flood)
M9
(Begin operation: RampEntryDressup001)
(Coolant On:Flood)
M8
M7
(Path: RampEntryDressup001)
G0 X0.0000 Y0.0000 Z0.6970
G0 X-0.0061 Y-0.0183 Z0.6970
G0 X-0.0061 Y-0.0183 Z0.6180
G1 X-0.0266 Y-0.0099 Z0.6164 F8.0000
G1 X-0.0460 Y0.0009 Z0.6147 F8.0000
G1 X-0.0638 Y0.0140 Z0.6129 F8.0000
G1 X-0.0798 Y0.0292 Z0.6110 F8.0000
G1 X-0.0939 Y0.0463 Z0.6091 F8.0000
G1 X-0.1057 Y0.0650 Z0.6072 F8.0000
G1 X-0.1151 Y0.0850 Z0.6054 F8.0000
G1 X-0.1219 Y0.1061 Z0.6036 F8.0000
G1 X-0.1261 Y0.1278 Z0.6019 F8.0000
G1 X-0.1275 Y0.1499 Z0.6003 F8.0000
G1 X-0.1275 Y0.4217 Z0.5785 F8.0000
G1 X-0.1259 Y0.4449 Z0.5768 F8.0000
G1 X-0.1213 Y0.4677 Z0.5750 F8.0000
G1 X-0.1137 Y0.4898 Z0.5731 F8.0000
G1 X-0.1033 Y0.5106 Z0.5712 F8.0000
G1 X-0.0903 Y0.5299 Z0.5692 F8.0000
G1 X-0.0749 Y0.5474 Z0.5672 F8.0000
G1 X-0.0573 Y0.5627 Z0.5652 F8.0000
G1 X-0.0379 Y0.5755 Z0.5633 F8.0000
G1 X-0.0170 Y0.5857 Z0.5615 F8.0000
G1 X0.0051 Y0.5931 Z0.5598 F8.0000
G1 X0.0818 Y0.6059 Z0.5537 F8.0000
G1 X0.1588 Y0.6158 Z0.5475 F8.0000
G1 X0.2362 Y0.6231 Z0.5412 F8.0000
G1 X0.3137 Y0.6276 Z0.5350 F8.0000
G1 X0.3914 Y0.6294 Z0.5287 F8.0000
G1 X0.4691 Y0.6284 Z0.5225 F8.0000
G1 X0.5467 Y0.6246 Z0.5162 F8.0000
G1 X0.6241 Y0.6181 Z0.5100 F8.0000
G1 X0.7012 Y0.6089 Z0.5038 F8.0000
G1 X0.7780 Y0.5969 Z0.4976 F8.0000
G1 X0.8002 Y0.5918 Z0.4960 F8.0000
G1 X0.8216 Y0.5839 Z0.4943 F8.0000
G1 X0.8417 Y0.5734 Z0.4925 F8.0000
G1 X0.8604 Y0.5604 Z0.4905 F8.0000
G1 X0.8772 Y0.5451 Z0.4886 F8.0000
G1 X0.8920 Y0.5278 Z0.4866 F8.0000
G1 X0.9044 Y0.5087 Z0.4846 F8.0000
G1 X0.9143 Y0.4883 Z0.4827 F8.0000
G1 X0.9215 Y0.4667 Z0.4809 F8.0000
G1 X0.9260 Y0.4444 Z0.4792 F8.0000
G1 X0.9275 Y0.4217 Z0.4776 F8.0000
G1 X0.9275 Y0.1499 Z0.4558 F8.0000
G1 X0.9260 Y0.1273 Z0.4542 F8.0000
G1 X0.9216 Y0.1051 Z0.4525 F8.0000
G1 X0.9145 Y0.0836 Z0.4507 F8.0000
G1 X0.9046 Y0.0632 Z0.4488 F8.0000
G1 X0.8923 Y0.0442 Z0.4468 F8.0000
G1 X0.8776 Y0.0269 Z0.4448 F8.0000
G1 X0.8609 Y0.0117 Z0.4429 F8.0000
G1 X0.8424 Y-0.0013 Z0.4410 F8.0000
G1 X0.8223 Y-0.0119 Z0.4391 F8.0000
G1 X0.8011 Y-0.0198 Z0.4374 F8.0000
G1 X0.7790 Y-0.0250 Z0.4358 F8.0000
G1 X0.7585 Y-0.0271 Z0.4342 F8.0000
G1 X0.7379 Y-0.0269 Z0.4325 F8.0000
G1 X0.7175 Y-0.0246 Z0.4309 F8.0000
G1 X0.6546 Y-0.0131 Z0.4258 F8.0000
G1 X0.5913 Y-0.0042 Z0.4207 F8.0000
G1 X0.5277 Y0.0022 Z0.4156 F8.0000
G1 X0.4639 Y0.0060 Z0.4104 F8.0000
G1 X0.4000 Y0.0073 Z0.4053 F8.0000
G1 X0.3361 Y0.0060 Z0.4001 F8.0000
G1 X0.2723 Y0.0022 Z0.3950 F8.0000
G1 X0.2087 Y-0.0042 Z0.3899 F8.0000
G1 X0.1454 Y-0.0131 Z0.3848 F8.0000
G1 X0.0825 Y-0.0246 Z0.3797 F8.0000
G1 X0.0602 Y-0.0272 Z0.3779 F8.0000
G1 X0.0378 Y-0.0270 Z0.3761 F8.0000
G1 X0.0156 Y-0.0240 Z0.3743 F8.0000
G1 X-0.0061 Y-0.0183 Z0.3725 F8.0000
G1 X-0.0266 Y-0.0099 Z0.3717 F8.0000
G1 X-0.0459 Y0.0009 Z0.3708 F8.0000
G1 X-0.0638 Y0.0140 Z0.3698 F8.0000
G1 X-0.0798 Y0.0292 Z0.3689 F8.0000
G1 X-0.0939 Y0.0463 Z0.3679 F8.0000
G1 X-0.1057 Y0.0650 Z0.3669 F8.0000
G1 X-0.1151 Y0.0851 Z0.3659 F8.0000
G1 X-0.1219 Y0.1061 Z0.3650 F8.0000
G1 X-0.1261 Y0.1278 Z0.3641 F8.0000
G1 X-0.1275 Y0.1499 Z0.3633 F8.0000
G1 X-0.1275 Y0.4217 Z0.3520 F8.0000
G1 X-0.1259 Y0.4449 Z0.3511 F8.0000
G1 X-0.1213 Y0.4677 Z0.3502 F8.0000
G1 X-0.1137 Y0.4898 Z0.3492 F8.0000
G1 X-0.1033 Y0.5106 Z0.3482 F8.0000
G1 X-0.0903 Y0.5299 Z0.3471 F8.0000
G1 X-0.0749 Y0.5474 Z0.3461 F8.0000
G1 X-0.0573 Y0.5627 Z0.3451 F8.0000
G1 X-0.0379 Y0.5755 Z0.3441 F8.0000
G1 X-0.0170 Y0.5857 Z0.3432 F8.0000
G1 X0.0051 Y0.5931 Z0.3423 F8.0000
G1 X0.0818 Y0.6059 Z0.3391 F8.0000
G1 X0.1588 Y0.6158 Z0.3359 F8.0000
G1 X0.2362 Y0.6231 Z0.3326 F8.0000
G1 X0.3137 Y0.6276 Z0.3294 F8.0000
G1 X0.3914 Y0.6294 Z0.3261 F8.0000
G1 X0.4691 Y0.6284 Z0.3229 F8.0000
G1 X0.5467 Y0.6246 Z0.3196 F8.0000
G1 X0.6241 Y0.6181 Z0.3164 F8.0000
G1 X0.7012 Y0.6089 Z0.3132 F8.0000
G1 X0.7780 Y0.5969 Z0.3100 F8.0000
G1 X0.8002 Y0.5918 Z0.3092 F8.0000
G1 X0.8215 Y0.5839 Z0.3083 F8.0000
G1 X0.8417 Y0.5734 Z0.3073 F8.0000
G1 X0.8604 Y0.5604 Z0.3063 F8.0000
G1 X0.8772 Y0.5451 Z0.3053 F8.0000
G1 X0.8920 Y0.5278 Z0.3043 F8.0000
G1 X0.9044 Y0.5087 Z0.3032 F8.0000
G1 X0.9143 Y0.4883 Z0.3022 F8.0000
G1 X0.9215 Y0.4667 Z0.3013 F8.0000
G1 X0.9260 Y0.4444 Z0.3004 F8.0000
G1 X0.9275 Y0.4217 Z0.2996 F8.0000
G1 X0.9275 Y0.1499 Z0.2883 F8.0000
G1 X0.9260 Y0.1273 Z0.2874 F8.0000
G1 X0.9216 Y0.1051 Z0.2865 F8.0000
G1 X0.9145 Y0.0836 Z0.2856 F8.0000
G1 X0.9046 Y0.0632 Z0.2846 F8.0000
G1 X0.8923 Y0.0442 Z0.2836 F8.0000
G1 X0.8776 Y0.0269 Z0.2826 F8.0000
G1 X0.8609 Y0.0117 Z0.2815 F8.0000
G1 X0.8423 Y-0.0013 Z0.2806 F8.0000
G1 X0.8223 Y-0.0119 Z0.2796 F8.0000
G1 X0.8011 Y-0.0198 Z0.2787 F8.0000
G1 X0.7790 Y-0.0250 Z0.2779 F8.0000
G1 X0.7585 Y-0.0271 Z0.2770 F8.0000
G1 X0.7379 Y-0.0269 Z0.2762 F8.0000
G1 X0.7175 Y-0.0246 Z0.2753 F8.0000
G1 X0.6546 Y-0.0131 Z0.2727 F8.0000
G1 X0.5913 Y-0.0042 Z0.2700 F8.0000
G1 X0.5277 Y0.0022 Z0.2674 F8.0000
G1 X0.4639 Y0.0060 Z0.2647 F8.0000
G1 X0.4000 Y0.0073 Z0.2620 F8.0000
G1 X0.3361 Y0.0060 Z0.2594 F8.0000
G1 X0.2723 Y0.0022 Z0.2567 F8.0000
G1 X0.2087 Y-0.0042 Z0.2540 F8.0000
G1 X0.1454 Y-0.0131 Z0.2514 F8.0000
G1 X0.0825 Y-0.0246 Z0.2487 F8.0000
G1 X0.0602 Y-0.0272 Z0.2478 F8.0000
G1 X0.0378 Y-0.0270 Z0.2469 F8.0000
G1 X0.0156 Y-0.0240 Z0.2459 F8.0000
G1 X-0.0061 Y-0.0183 Z0.2450 F8.0000
G1 X-0.0266 Y-0.0099 Z0.2446 F8.0000
G1 X-0.0459 Y0.0009 Z0.2441 F8.0000
G1 X-0.0638 Y0.0140 Z0.2436 F8.0000
G1 X-0.0798 Y0.0292 Z0.2432 F8.0000
G1 X-0.0939 Y0.0463 Z0.2427 F8.0000
G1 X-0.1057 Y0.0650 Z0.2422 F8.0000
G1 X-0.1151 Y0.0851 Z0.2417 F8.0000
G1 X-0.1219 Y0.1061 Z0.2412 F8.0000
G1 X-0.1261 Y0.1278 Z0.2407 F8.0000
G1 X-0.1275 Y0.1499 Z0.2403 F8.0000
G1 X-0.1275 Y0.4217 Z0.2345 F8.0000
G1 X-0.1259 Y0.4449 Z0.2341 F8.0000
G1 X-0.1213 Y0.4677 Z0.2336 F8.0000
G1 X-0.1137 Y0.4898 Z0.2331 F8.0000
G1 X-0.1033 Y0.5106 Z0.2326 F8.0000
G1 X-0.0903 Y0.5299 Z0.2321 F8.0000
G1 X-0.0749 Y0.5474 Z0.2315 F8.0000
G1 X-0.0573 Y0.5627 Z0.2310 F8.0000
G1 X-0.0379 Y0.5755 Z0.2305 F8.0000
G1 X-0.0170 Y0.5857 Z0.2300 F8.0000
G1 X0.0051 Y0.5931 Z0.2296 F8.0000
G1 X0.0818 Y0.6059 Z0.2280 F8.0000
G1 X0.1588 Y0.6158 Z0.2263 F8.0000
G1 X0.2362 Y0.6231 Z0.2247 F8.0000
G1 X0.3137 Y0.6276 Z0.2230 F8.0000
G1 X0.3914 Y0.6294 Z0.2214 F8.0000
G1 X0.4691 Y0.6284 Z0.2197 F8.0000
G1 X0.5467 Y0.6246 Z0.2181 F8.0000
G1 X0.6241 Y0.6181 Z0.2164 F8.0000
G1 X0.7012 Y0.6089 Z0.2148 F8.0000
G1 X0.7780 Y0.5969 Z0.2131 F8.0000
G1 X0.8002 Y0.5918 Z0.2127 F8.0000
G1 X0.8215 Y0.5839 Z0.2122 F8.0000
G1 X0.8417 Y0.5734 Z0.2118 F8.0000
G1 X0.8604 Y0.5604 Z0.2113 F8.0000
G1 X0.8772 Y0.5451 Z0.2107 F8.0000
G1 X0.8920 Y0.5278 Z0.2102 F8.0000
G1 X0.9044 Y0.5087 Z0.2097 F8.0000
G1 X0.9143 Y0.4883 Z0.2092 F8.0000
G1 X0.9215 Y0.4667 Z0.2087 F8.0000
G1 X0.9260 Y0.4444 Z0.2082 F8.0000
G1 X0.9275 Y0.4217 Z0.2078 F8.0000
G1 X0.9275 Y0.1499 Z0.2021 F8.0000
G1 X0.9260 Y0.1273 Z0.2016 F8.0000
G1 X0.9216 Y0.1051 Z0.2012 F8.0000
G1 X0.9145 Y0.0836 Z0.2007 F8.0000
G1 X0.9046 Y0.0632 Z0.2002 F8.0000
G1 X0.8923 Y0.0442 Z0.1997 F8.0000
G1 X0.8776 Y0.0269 Z0.1992 F8.0000
G1 X0.8609 Y0.0117 Z0.1986 F8.0000
G1 X0.8423 Y-0.0013 Z0.1981 F8.0000
G1 X0.8223 Y-0.0119 Z0.1976 F8.0000
G1 X0.8011 Y-0.0198 Z0.1972 F8.0000
G1 X0.7790 Y-0.0250 Z0.1968 F8.0000
G1 X0.7585 Y-0.0271 Z0.1963 F8.0000
G1 X0.7379 Y-0.0269 Z0.1959 F8.0000
G1 X0.7175 Y-0.0246 Z0.1955 F8.0000
G1 X0.6546 Y-0.0131 Z0.1941 F8.0000
G1 X0.5913 Y-0.0042 Z0.1928 F8.0000
G1 X0.5277 Y0.0022 Z0.1914 F8.0000
G1 X0.4639 Y0.0060 Z0.1900 F8.0000
G1 X0.4000 Y0.0073 Z0.1887 F8.0000
G1 X0.3361 Y0.0060 Z0.1873 F8.0000
G1 X0.2723 Y0.0022 Z0.1860 F8.0000
G1 X0.2087 Y-0.0042 Z0.1846 F8.0000
G1 X0.1454 Y-0.0131 Z0.1832 F8.0000
G1 X0.0825 Y-0.0246 Z0.1819 F8.0000
G1 X0.0602 Y-0.0272 Z0.1814 F8.0000
G1 X0.0378 Y-0.0270 Z0.1810 F8.0000
G1 X0.0156 Y-0.0240 Z0.1805 F8.0000
G1 X-0.0061 Y-0.0183 Z0.1800 F8.0000
G2 X-0.1275 Y0.1499 Z0.1800 I0.0565 J0.1687 K0.0000 F8.0000
G1 X-0.1275 Y0.4217 Z0.1800 F8.0000
G2 X0.0051 Y0.5931 Z0.1800 I0.1779 J-0.0005 K0.0000 F8.0000
G2 X0.7780 Y0.5969 Z0.1800 I0.3970 J-2.1551 K0.0000 F8.0000
G2 X0.9275 Y0.4217 Z0.1800 I-0.0288 J-0.1759 K0.0000 F8.0000
G1 X0.9275 Y0.1499 Z0.1800 F8.0000
G2 X0.7790 Y-0.0250 Z0.1800 I-0.1778 J0.0005 K0.0000 F8.0000
G2 X0.7175 Y-0.0246 Z0.1800 I-0.0296 J0.1850 K0.0000 F8.0000
G3 X0.0825 Y-0.0246 Z0.1800 I-0.3175 J-1.5683 K0.0000 F8.0000
G2 X-0.0061 Y-0.0183 Z0.1800 I-0.0321 J0.1750 K0.0000 F8.0000
G0 X-0.0061 Y-0.0183 Z0.6970
(Finish operation: RampEntryDressup001)
(Coolant Off:Flood)
M9
(Begin operation: RampEntryDressup002)
(Coolant On:Flood)
M8
M7
(Path: RampEntryDressup002)
G0 X0.0000 Y0.0000 Z0.6970
G0 X-0.0753 Y-0.0754 Z0.6970
G0 X-0.0753 Y-0.0754 Z0.6180
G1 X-0.0906 Y-0.0580 Z0.6164 F8.0000
G1 X-0.1035 Y-0.0387 Z0.6147 F8.0000
G1 X-0.1138 Y-0.0179 Z0.6131 F8.0000
G1 X-0.1213 Y0.0041 Z0.6114 F8.0000
G1 X-0.1259 Y0.0268 Z0.6097 F8.0000
G1 X-0.1275 Y0.0500 Z0.6081 F8.0000
G1 X-0.1275 Y0.5216 Z0.5747 F8.0000
G1 X-0.1259 Y0.5450 Z0.5732 F8.0000
G1 X-0.1212 Y0.5679 Z0.5716 F8.0000
G1 X-0.1136 Y0.5901 Z0.5699 F8.0000
G1 X-0.1031 Y0.6110 Z0.5682 F8.0000
G1 X-0.0899 Y0.6304 Z0.5664 F8.0000
G1 X-0.0743 Y0.6479 Z0.5646 F8.0000
G1 X-0.0566 Y0.6632 Z0.5629 F8.0000
G1 X-0.0370 Y0.6760 Z0.5612 F8.0000
G1 X-0.0159 Y0.6861 Z0.5596 F8.0000
G1 X0.0064 Y0.6934 Z0.5581 F8.0000
G1 X0.0829 Y0.7055 Z0.5527 F8.0000
G1 X0.1597 Y0.7150 Z0.5472 F8.0000
G1 X0.2368 Y0.7219 Z0.5417 F8.0000
G1 X0.3140 Y0.7262 Z0.5362 F8.0000
G1 X0.3914 Y0.7279 Z0.5307 F8.0000
G1 X0.4688 Y0.7270 Z0.5252 F8.0000
G1 X0.5461 Y0.7234 Z0.5197 F8.0000
G1 X0.6233 Y0.7172 Z0.5142 F8.0000
G1 X0.7002 Y0.7084 Z0.5087 F8.0000
G1 X0.7767 Y0.6971 Z0.5033 F8.0000
G1 X0.7991 Y0.6921 Z0.5019 F8.0000
G1 X0.8206 Y0.6843 Z0.5003 F8.0000
G1 X0.8409 Y0.6738 Z0.4987 F8.0000
G1 X0.8597 Y0.6608 Z0.4970 F8.0000
G1 X0.8767 Y0.6455 Z0.4952 F8.0000
G1 X0.8916 Y0.6282 Z0.4935 F8.0000
G1 X0.9042 Y0.6091 Z0.4917 F8.0000
G1 X0.9142 Y0.5885 Z0.4900 F8.0000
G1 X0.9215 Y0.5669 Z0.4884 F8.0000
G1 X0.9259 Y0.5444 Z0.4869 F8.0000
G1 X0.9275 Y0.5216 Z0.4854 F8.0000
G1 X0.9275 Y0.0500 Z0.4520 F8.0000
G1 X0.9260 Y0.0272 Z0.4506 F8.0000
G1 X0.9215 Y0.0049 Z0.4491 F8.0000
G1 X0.9143 Y-0.0168 Z0.4475 F8.0000
G1 X0.9043 Y-0.0373 Z0.4458 F8.0000
G1 X0.8918 Y-0.0563 Z0.4440 F8.0000
G1 X0.8770 Y-0.0736 Z0.4423 F8.0000
G1 X0.8601 Y-0.0889 Z0.4405 F8.0000
G1 X0.8413 Y-0.1019 Z0.4388 F8.0000
G1 X0.8211 Y-0.1124 Z0.4372 F8.0000
G1 X0.7996 Y-0.1202 Z0.4357 F8.0000
G1 X0.7774 Y-0.1252 Z0.4343 F8.0000
G1 X0.7568 Y-0.1271 Z0.4328 F8.0000
G1 X0.7361 Y-0.1267 Z0.4313 F8.0000
G1 X0.7156 Y-0.1241 Z0.4299 F8.0000
G1 X0.6531 Y-0.1121 Z0.4254 F8.0000
G1 X0.5903 Y-0.1027 Z0.4209 F8.0000
G1 X0.5270 Y-0.0960 Z0.4164 F8.0000
G1 X0.4636 Y-0.0919 Z0.4119 F8.0000
G1 X0.4000 Y-0.0906 Z0.4073 F8.0000
G1 X0.3364 Y-0.0919 Z0.4028 F8.0000
G1 X0.2730 Y-0.0960 Z0.3983 F8.0000
G1 X0.2097 Y-0.1027 Z0.3938 F8.0000
G1 X0.1469 Y-0.1121 Z0.3893 F8.0000
G1 X0.0844 Y-0.1241 Z0.3848 F8.0000
G1 X0.0629 Y-0.1270 Z0.3834 F8.0000
G1 X0.0412 Y-0.1272 Z0.3818 F8.0000
G1 X0.0196 Y-0.1247 Z0.3803 F8.0000
G1 X-0.0015 Y-0.1197 Z0.3787 F8.0000
G1 X-0.0218 Y-0.1121 Z0.3771 F8.0000
G1 X-0.0411 Y-0.1021 Z0.3755 F8.0000
G1 X-0.0590 Y-0.0898 Z0.3740 F8.0000
G1 X-0.0753 Y-0.0754 Z0.3725 F8.0000
G1 X-0.0906 Y-0.0580 Z0.3717 F8.0000
G1 X-0.1035 Y-0.0387 Z0.3708 F8.0000
G1 X-0.1138 Y-0.0179 Z0.3699 F8.0000
G1 X-0.1213 Y0.0041 Z0.3691 F8.0000
G1 X-0.1259 Y0.0268 Z0.3682 F8.0000
G1 X-0.1275 Y0.0500 Z0.3674 F8.0000
G1 X-0.1275 Y0.5216 Z0.3500 F8.0000
G1 X-0.1259 Y0.5450 Z0.3493 F8.0000
G1 X-0.1212 Y0.5679 Z0.3484 F8.0000
G1 X-0.1136 Y0.5901 Z0.3475 F8.0000
G1 X-0.1031 Y0.6110 Z0.3466 F8.0000
G1 X-0.0899 Y0.6304 Z0.3457 F8.0000
G1 X-0.0743 Y0.6479 Z0.3448 F8.0000
G1 X-0.0566 Y0.6632 Z0.3439 F8.0000
G1 X-0.0370 Y0.6760 Z0.3430 F8.0000
G1 X-0.0159 Y0.6861 Z0.3422 F8.0000
G1 X0.0064 Y0.6934 Z0.3414 F8.0000
G1 X0.0829 Y0.7055 Z0.3386 F8.0000
G1 X0.1597 Y0.7150 Z0.3357 F8.0000
G1 X0.2368 Y0.7219 Z0.3329 F8.0000
G1 X0.3140 Y0.7262 Z0.3300 F8.0000
G1 X0.3914 Y0.7279 Z0.3272 F8.0000
G1 X0.4688 Y0.7270 Z0.3243 F8.0000
G1 X0.5461 Y0.7234 Z0.3214 F8.0000
G1 X0.6233 Y0.7172 Z0.3186 F8.0000
G1 X0.7002 Y0.7084 Z0.3157 F8.0000
G1 X0.7767 Y0.6971 Z0.3129 F8.0000
G1 X0.7991 Y0.6921 Z0.3122 F8.0000
G1 X0.8206 Y0.6843 Z0.3114 F8.0000
G1 X0.8409 Y0.6738 Z0.3105 F8.0000
G1 X0.8597 Y0.6608 Z0.3097 F8.0000
G1 X0.8767 Y0.6455 Z0.3087 F8.0000
G1 X0.8916 Y0.6282 Z0.3078 F8.0000
G1 X0.9042 Y0.6091 Z0.3069 F8.0000
G1 X0.9142 Y0.5885 Z0.3060 F8.0000
G1 X0.9215 Y0.5668 Z0.3052 F8.0000
G1 X0.9259 Y0.5444 Z0.3044 F8.0000
G1 X0.9275 Y0.5216 Z0.3037 F8.0000
G1 X0.9275 Y0.0500 Z0.2863 F8.0000
G1 X0.9260 Y0.0272 Z0.2856 F8.0000
G1 X0.9215 Y0.0049 Z0.2848 F8.0000
G1 X0.9143 Y-0.0167 Z0.2839 F8.0000
G1 X0.9043 Y-0.0373 Z0.2831 F8.0000
G1 X0.8918 Y-0.0563 Z0.2821 F8.0000
G1 X0.8770 Y-0.0736 Z0.2812 F8.0000
G1 X0.8601 Y-0.0889 Z0.2803 F8.0000
G1 X0.8413 Y-0.1019 Z0.2794 F8.0000
G1 X0.8211 Y-0.1124 Z0.2786 F8.0000
G1 X0.7996 Y-0.1202 Z0.2778 F8.0000
G1 X0.7774 Y-0.1252 Z0.2771 F8.0000
G1 X0.7568 Y-0.1271 Z0.2763 F8.0000
G1 X0.7361 Y-0.1267 Z0.2755 F8.0000
G1 X0.7156 Y-0.1241 Z0.2748 F8.0000
G1 X0.6531 Y-0.1121 Z0.2725 F8.0000
G1 X0.5903 Y-0.1027 Z0.2701 F8.0000
G1 X0.5270 Y-0.0960 Z0.2678 F8.0000
G1 X0.4636 Y-0.0919 Z0.2654 F8.0000
G1 X0.4000 Y-0.0906 Z0.2631 F8.0000
G1 X0.3364 Y-0.0919 Z0.2607 F8.0000
G1 X0.2730 Y-0.0960 Z0.2584 F8.0000
G1 X0.2097 Y-0.1027 Z0.2560 F8.0000
G1 X0.1469 Y-0.1121 Z0.2537 F8.0000
G1 X0.0844 Y-0.1241 Z0.2514 F8.0000
G1 X0.0629 Y-0.1270 Z0.2506 F8.0000
G1 X0.0412 Y-0.1272 Z0.2498 F8.0000
G1 X0.0196 Y-0.1247 Z0.2490 F8.0000
G1 X-0.0015 Y-0.1197 Z0.2482 F8.0000
G1 X-0.0218 Y-0.1121 Z0.2474 F8.0000
G1 X-0.0411 Y-0.1021 Z0.2465 F8.0000
G1 X-0.0590 Y-0.0898 Z0.2458 F8.0000
G1 X-0.0753 Y-0.0754 Z0.2450 F8.0000
G1 X-0.0906 Y-0.0580 Z0.2442 F8.0000
G1 X-0.1035 Y-0.0387 Z0.2433 F8.0000
G1 X-0.1138 Y-0.0179 Z0.2424 F8.0000
G1 X-0.1213 Y0.0041 Z0.2416 F8.0000
G1 X-0.1259 Y0.0268 Z0.2407 F8.0000
G1 X-0.1275 Y0.0500 Z0.2399 F8.0000
G1 X-0.1275 Y0.5216 Z0.2225 F8.0000
G1 X-0.1259 Y0.5450 Z0.2218 F8.0000
G1 X-0.1212 Y0.5679 Z0.2209 F8.0000
G1 X-0.1136 Y0.5901 Z0.2200 F8.0000
G1 X-0.1031 Y0.6110 Z0.2191 F8.0000
G1 X-0.0899 Y0.6304 Z0.2182 F8.0000
G1 X-0.0743 Y0.6479 Z0.2173 F8.0000
G1 X-0.0566 Y0.6632 Z0.2164 F8.0000
G1 X-0.0370 Y0.6760 Z0.2155 F8.0000
G1 X-0.0159 Y0.6861 Z0.2147 F8.0000
G1 X0.0064 Y0.6934 Z0.2139 F8.0000
G1 X0.0829 Y0.7055 Z0.2111 F8.0000
G1 X0.1597 Y0.7150 Z0.2082 F8.0000
G1 X0.2368 Y0.7219 Z0.2054 F8.0000
G1 X0.3140 Y0.7262 Z0.2025 F8.0000
G1 X0.3914 Y0.7279 Z0.1997 F8.0000
G1 X0.4688 Y0.7270 Z0.1968 F8.0000
G1 X0.5461 Y0.7234 Z0.1939 F8.0000
G1 X0.6233 Y0.7172 Z0.1911 F8.0000
G1 X0.7002 Y0.7084 Z0.1882 F8.0000
G1 X0.7767 Y0.6971 Z0.1854 F8.0000
G1 X0.7991 Y0.6921 Z0.1847 F8.0000
G1 X0.8206 Y0.6843 Z0.1839 F8.0000
G1 X0.8409 Y0.6738 Z0.1830 F8.0000
G1 X0.8597 Y0.6608 Z0.1822 F8.0000
G1 X0.8767 Y0.6455 Z0.1812 F8.0000
G1 X0.8916 Y0.6282 Z0.1803 F8.0000
G1 X0.9042 Y0.6091 Z0.1794 F8.0000
G1 X0.9142 Y0.5885 Z0.1785 F8.0000
G1 X0.9215 Y0.5668 Z0.1777 F8.0000
G1 X0.9259 Y0.5444 Z0.1769 F8.0000
G1 X0.9275 Y0.5216 Z0.1762 F8.0000
G1 X0.9275 Y0.0500 Z0.1588 F8.0000
G1 X0.9260 Y0.0272 Z0.1581 F8.0000
G1 X0.9215 Y0.0049 Z0.1573 F8.0000
G1 X0.9143 Y-0.0167 Z0.1564 F8.0000
G1 X0.9043 Y-0.0373 Z0.1556 F8.0000
G1 X0.8918 Y-0.0563 Z0.1546 F8.0000
G1 X0.8770 Y-0.0736 Z0.1537 F8.0000
G1 X0.8601 Y-0.0889 Z0.1528 F8.0000
G1 X0.8413 Y-0.1019 Z0.1519 F8.0000
G1 X0.8211 Y-0.1124 Z0.1511 F8.0000
G1 X0.7996 Y-0.1202 Z0.1503 F8.0000
G1 X0.7774 Y-0.1252 Z0.1496 F8.0000
G1 X0.7568 Y-0.1271 Z0.1488 F8.0000
G1 X0.7361 Y-0.1267 Z0.1480 F8.0000
G1 X0.7156 Y-0.1241 Z0.1473 F8.0000
G1 X0.6531 Y-0.1121 Z0.1450 F8.0000
G1 X0.5903 Y-0.1027 Z0.1426 F8.0000
G1 X0.5270 Y-0.0960 Z0.1403 F8.0000
G1 X0.4636 Y-0.0919 Z0.1379 F8.0000
G1 X0.4000 Y-0.0906 Z0.1356 F8.0000
G1 X0.3364 Y-0.0919 Z0.1332 F8.0000
G1 X0.2730 Y-0.0960 Z0.1309 F8.0000
G1 X0.2097 Y-0.1027 Z0.1285 F8.0000
G1 X0.1469 Y-0.1121 Z0.1262 F8.0000
G1 X0.0844 Y-0.1241 Z0.1239 F8.0000
G1 X0.0629 Y-0.1270 Z0.1231 F8.0000
G1 X0.0412 Y-0.1272 Z0.1223 F8.0000
G1 X0.0196 Y-0.1247 Z0.1215 F8.0000
G1 X-0.0015 Y-0.1197 Z0.1207 F8.0000
G1 X-0.0218 Y-0.1121 Z0.1199 F8.0000
G1 X-0.0411 Y-0.1021 Z0.1190 F8.0000
G1 X-0.0590 Y-0.0898 Z0.1183 F8.0000
G1 X-0.0753 Y-0.0754 Z0.1175 F8.0000
G1 X-0.0906 Y-0.0580 Z0.1167 F8.0000
G1 X-0.1035 Y-0.0387 Z0.1159 F8.0000
G1 X-0.1138 Y-0.0179 Z0.1151 F8.0000
G1 X-0.1213 Y0.0041 Z0.1143 F8.0000
G1 X-0.1259 Y0.0268 Z0.1135 F8.0000
G1 X-0.1275 Y0.0500 Z0.1128 F8.0000
G1 X-0.1275 Y0.5216 Z0.0968 F8.0000
G1 X-0.1259 Y0.5450 Z0.0961 F8.0000
G1 X-0.1212 Y0.5679 Z0.0953 F8.0000
G1 X-0.1136 Y0.5901 Z0.0945 F8.0000
G1 X-0.1031 Y0.6110 Z0.0937 F8.0000
G1 X-0.0899 Y0.6304 Z0.0928 F8.0000
G1 X-0.0743 Y0.6479 Z0.0920 F8.0000
G1 X-0.0566 Y0.6632 Z0.0911 F8.0000
G1 X-0.0370 Y0.6760 Z0.0903 F8.0000
G1 X-0.0159 Y0.6861 Z0.0895 F8.0000
G1 X0.0064 Y0.6934 Z0.0888 F8.0000
G1 X0.0829 Y0.7055 Z0.0862 F8.0000
G1 X0.1597 Y0.7150 Z0.0836 F8.0000
G1 X0.2368 Y0.7219 Z0.0810 F8.0000
G1 X0.3140 Y0.7262 Z0.0784 F8.0000
G1 X0.3914 Y0.7279 Z0.0757 F8.0000
G1 X0.4688 Y0.7270 Z0.0731 F8.0000
G1 X0.5461 Y0.7234 Z0.0704 F8.0000
G1 X0.6233 Y0.7172 Z0.0678 F8.0000
G1 X0.7002 Y0.7084 Z0.0652 F8.0000
G1 X0.7767 Y0.6971 Z0.0626 F8.0000
G1 X0.7991 Y0.6921 Z0.0619 F8.0000
G1 X0.8206 Y0.6843 Z0.0612 F8.0000
G1 X0.8409 Y0.6738 Z0.0604 F8.0000
G1 X0.8597 Y0.6608 Z0.0596 F8.0000
G1 X0.8767 Y0.6455 Z0.0587 F8.0000
G1 X0.8916 Y0.6282 Z0.0579 F8.0000
G1 X0.9042 Y0.6091 Z0.0571 F8.0000
G1 X0.9142 Y0.5885 Z0.0563 F8.0000
G1 X0.9215 Y0.5668 Z0.0555 F8.0000
G1 X0.9259 Y0.5444 Z0.0547 F8.0000
G1 X0.9275 Y0.5216 Z0.0541 F8.0000
G1 X0.9275 Y0.0500 Z0.0381 F8.0000
G1 X0.9260 Y0.0272 Z0.0374 F8.0000
G1 X0.9215 Y0.0049 Z0.0367 F8.0000
G1 X0.9143 Y-0.0167 Z0.0359 F8.0000
G1 X0.9043 Y-0.0373 Z0.0351 F8.0000
G1 X0.8918 Y-0.0563 Z0.0342 F8.0000
G1 X0.8770 Y-0.0736 Z0.0334 F8.0000
G1 X0.8601 Y-0.0889 Z0.0326 F8.0000
G1 X0.8413 Y-0.1019 Z0.0317 F8.0000
G1 X0.8211 Y-0.1124 Z0.0310 F8.0000
G1 X0.7996 Y-0.1202 Z0.0302 F8.0000
G1 X0.7774 Y-0.1252 Z0.0296 F8.0000
G1 X0.7568 Y-0.1271 Z0.0289 F8.0000
G1 X0.7361 Y-0.1267 Z0.0282 F8.0000
G1 X0.7156 Y-0.1241 Z0.0275 F8.0000
G1 X0.6531 Y-0.1121 Z0.0253 F8.0000
G1 X0.5903 Y-0.1027 Z0.0232 F8.0000
G1 X0.5270 Y-0.0960 Z0.0210 F8.0000
G1 X0.4636 Y-0.0919 Z0.0188 F8.0000
G1 X0.4000 Y-0.0906 Z0.0167 F8.0000
G1 X0.3364 Y-0.0919 Z0.0145 F8.0000
G1 X0.2730 Y-0.0960 Z0.0123 F8.0000
G1 X0.2097 Y-0.1027 Z0.0102 F8.0000
G1 X0.1469 Y-0.1121 Z0.0080 F8.0000
G1 X0.0844 Y-0.1241 Z0.0059 F8.0000
G1 X0.0629 Y-0.1270 Z0.0052 F8.0000
G1 X0.0412 Y-0.1272 Z0.0045 F8.0000
G1 X0.0196 Y-0.1247 Z0.0037 F8.0000
G1 X-0.0015 Y-0.1197 Z0.0029 F8.0000
G1 X-0.0218 Y-0.1121 Z0.0022 F8.0000
G1 X-0.0411 Y-0.1021 Z0.0014 F8.0000
G1 X-0.0590 Y-0.0898 Z0.0007 F8.0000
G1 X-0.0753 Y-0.0754 Z0.0000 F8.0000
G2 X-0.1275 Y0.0500 Z0.0000 I0.1257 J0.1259 K0.0000 F8.0000
G1 X-0.1275 Y0.5216 Z0.0000 F8.0000
G2 X0.0064 Y0.6934 Z0.0000 I0.1779 J-0.0005 K0.0000 F8.0000
G2 X0.7767 Y0.6971 Z0.0000 I0.3959 J-2.2520 K0.0000 F8.0000
G2 X0.9275 Y0.5216 Z0.0000 I-0.0275 J-0.1761 K0.0000 F8.0000
G1 X0.9275 Y0.0500 Z0.0000 F8.0000
G2 X0.7774 Y-0.1252 Z0.0000 I-0.1778 J0.0005 K0.0000 F8.0000
G2 X0.7156 Y-0.1241 Z0.0000 I-0.0278 J0.1853 K0.0000 F8.0000
G3 X0.0844 Y-0.1241 Z0.0000 I-0.3156 J-1.4687 K0.0000 F8.0000
G2 X-0.0753 Y-0.0754 Z0.0000 I-0.0340 J0.1746 K0.0000 F8.0000
G0 X-0.0753 Y-0.0754 Z0.6970
(Finish operation: RampEntryDressup002)
(Coolant Off:Flood)
M9
(Begin postamble)
M5
G17 G90
M2
