(Exported by FreeCAD)
(Post Processor: script_module)
(Output Time:2025-01-29 13:27:16.804381)
(Begin preamble)
G17 G90
G20
(Begin operation: Fixture)
(Path: Fixture)
G54
(Finish operation: Fixture)
(Begin operation: 5/16 HSS TiN001)
(Path: 5/16 HSS TiN001)
(5/16 HSS TiN001)
(Begin toolchange)
( M6 T3 )
M3 S1000
(Finish operation: 5/16 HSS TiN001)
(Begin operation: MillFace)
(Coolant On:Flood)
M7
M8
(Path: MillFace)
(MillFace)
G0 Z0.7969
G0 X0.0000 Y0.0000
G0 X-0.0003 Y0.0796
G0 X-0.0003 Y0.0796 Z0.7181
G1 X-0.0003 Y0.0796 Z0.5000 F2.4000
G2 X0.8000 Y0.0793 Z0.5000 I0.3996 J-1.6934 K0.0000 F10.0000
G3 X0.8031 Y0.0874 Z0.5000 I-0.0020 J0.0054 K0.0000 F10.0000
G3 X0.8026 Y0.4310 Z0.5000 I-18.5699 J0.1445 K0.0000 F10.0000
G3 X0.8022 Y0.4319 Z0.5000 I-0.0022 J-0.0005 K0.0000 F10.0000
G3 X-0.0014 Y0.4328 Z0.5000 I-0.4043 J-1.9852 K0.0000 F10.0000
G3 X-0.0032 Y0.4257 Z0.5000 I0.0058 J-0.0052 K0.0000 F10.0000
G3 X-0.0027 Y0.0816 Z0.5000 I12.8946 J-0.1551 K0.0000 F10.0000
G3 X-0.0003 Y0.0796 Z0.5000 I0.0027 J0.0007 K0.0000 F10.0000
G1 X0.0590 Y0.1563 Z0.5000 F2.4000
G2 X0.7407 Y0.1557 Z0.5000 I0.3394 J-1.7558 K0.0000 F10.0000
G3 X0.7407 Y0.3799 Z0.5000 I-41.8025 J0.1000 K0.0000 F10.0000
G3 X0.0592 Y0.3804 Z0.5000 I-0.3423 J-1.9344 K0.0000 F10.0000
G3 X0.0590 Y0.1563 Z0.5000 I17.9268 J-0.1244 K0.0000 F10.0000
G1 X0.1214 Y0.2305 Z0.5000 F2.4000
G2 X0.6782 Y0.2300 Z0.5000 I0.2767 J-1.8241 K0.0000 F10.0000
G3 X0.6782 Y0.3264 Z0.5000 I-25.7480 J0.0373 K0.0000 F10.0000
G3 X0.1215 Y0.3271 Z0.5000 I-0.2806 J-1.8729 K0.0000 F10.0000
G3 X0.1214 Y0.2305 Z0.5000 I11.1088 J-0.0596 K0.0000 F10.0000
G1 X0.1214 Y0.2305 Z0.4000 F2.4000
G2 X0.6782 Y0.2300 Z0.4000 I0.2767 J-1.8241 K0.0000 F10.0000
G3 X0.6782 Y0.3264 Z0.4000 I-25.7480 J0.0373 K0.0000 F10.0000
G3 X0.1215 Y0.3271 Z0.4000 I-0.2806 J-1.8729 K0.0000 F10.0000
G3 X0.1214 Y0.2305 Z0.4000 I11.1088 J-0.0596 K0.0000 F10.0000
G1 X0.1307 Y0.1686 Z0.4000 F2.4000
G2 X0.7407 Y0.1557 Z0.4000 I0.2676 J-1.7681 K0.0000 F10.0000
G3 X0.7407 Y0.3799 Z0.4000 I-41.8025 J0.1000 K0.0000 F10.0000
G3 X0.0592 Y0.3804 Z0.4000 I-0.3423 J-1.9344 K0.0000 F10.0000
G3 X0.0590 Y0.1563 Z0.4000 I17.9268 J-0.1244 K0.0000 F10.0000
G2 X0.1307 Y0.1686 Z0.4000 I0.3394 J-1.7558 K0.0000 F10.0000
G1 X0.1401 Y0.1067 Z0.4000 F2.4000
G2 X0.8000 Y0.0793 Z0.4000 I0.2592 J-1.7205 K0.0000 F10.0000
G3 X0.8031 Y0.0874 Z0.4000 I-0.0020 J0.0054 K0.0000 F10.0000
G3 X0.8026 Y0.4310 Z0.4000 I-18.5699 J0.1445 K0.0000 F10.0000
G3 X0.8022 Y0.4319 Z0.4000 I-0.0022 J-0.0005 K0.0000 F10.0000
G3 X-0.0014 Y0.4328 Z0.4000 I-0.4043 J-1.9852 K0.0000 F10.0000
G3 X-0.0032 Y0.4257 Z0.4000 I0.0058 J-0.0052 K0.0000 F10.0000
G3 X-0.0027 Y0.0816 Z0.4000 I12.8946 J-0.1551 K0.0000 F10.0000
G3 X-0.0003 Y0.0796 Z0.4000 I0.0027 J0.0007 K0.0000 F10.0000
G2 X0.1401 Y0.1067 Z0.4000 I0.3996 J-1.6934 K0.0000 F10.0000
G0 Z0.7969
G0 Z0.7969
(Finish operation: MillFace)

(Path: Profile)
(Profile)
(Compensated Tool Path. Diameter: 7.9502)
G0 Z0.7969
G0 X0.0000 Y0.0000
G0 Y-0.0741
G0 Y-0.0741 Z0.7181
G1 X0.0000 Y-0.0741 Z0.4900 F2.4000
G2 X-0.1565 Y0.0824 Z0.4900 I-0.0000 J0.1565 K0.0000 F10.0000
G1 X-0.1565 Y0.4303 Z0.4900 F10.0000
G2 X-0.0273 Y0.5844 Z0.4900 I0.1565 J0.0000 K0.0000 F10.0000
G2 X0.8273 Y0.5844 Z0.4900 I0.4273 J-2.1800 K0.0000 F10.0000
G2 X0.9565 Y0.4303 Z0.4900 I-0.0273 J-0.1541 K0.0000 F10.0000
G1 X0.9565 Y0.0824 Z0.4900 F10.0000
G2 X0.7670 Y-0.0706 Z0.4900 I-0.1565 J-0.0000 K0.0000 F10.0000
G3 X0.0330 Y-0.0706 Z0.4900 I-0.3670 J-1.5277 K0.0000 F10.0000
G2 X0.0000 Y-0.0741 Z0.4900 I-0.0330 J0.1530 K0.0000 F10.0000
G1 X0.0000 Y-0.0741 Z0.3800 F2.4000
G2 X-0.1565 Y0.0824 Z0.3800 I-0.0000 J0.1565 K0.0000 F10.0000
G1 X-0.1565 Y0.4303 Z0.3800 F10.0000
G2 X-0.0273 Y0.5844 Z0.3800 I0.1565 J0.0000 K0.0000 F10.0000
G2 X0.8273 Y0.5844 Z0.3800 I0.4273 J-2.1800 K0.0000 F10.0000
G2 X0.9565 Y0.4303 Z0.3800 I-0.0273 J-0.1541 K0.0000 F10.0000
G1 X0.9565 Y0.0824 Z0.3800 F10.0000
G2 X0.7670 Y-0.0706 Z0.3800 I-0.1565 J-0.0000 K0.0000 F10.0000
G3 X0.0330 Y-0.0706 Z0.3800 I-0.3670 J-1.5277 K0.0000 F10.0000
G2 X0.0000 Y-0.0741 Z0.3800 I-0.0330 J0.1530 K0.0000 F10.0000
G1 X0.0000 Y-0.0741 Z0.2700 F2.4000
G2 X-0.1565 Y0.0824 Z0.2700 I-0.0000 J0.1565 K0.0000 F10.0000
G1 X-0.1565 Y0.4303 Z0.2700 F10.0000
G2 X-0.0273 Y0.5844 Z0.2700 I0.1565 J0.0000 K0.0000 F10.0000
G2 X0.8273 Y0.5844 Z0.2700 I0.4273 J-2.1800 K0.0000 F10.0000
G2 X0.9565 Y0.4303 Z0.2700 I-0.0273 J-0.1541 K0.0000 F10.0000
G1 X0.9565 Y0.0824 Z0.2700 F10.0000
G2 X0.7670 Y-0.0706 Z0.2700 I-0.1565 J-0.0000 K0.0000 F10.0000
G3 X0.0330 Y-0.0706 Z0.2700 I-0.3670 J-1.5277 K0.0000 F10.0000
G2 X0.0000 Y-0.0741 Z0.2700 I-0.0330 J0.1530 K0.0000 F10.0000
G1 X0.0000 Y-0.0741 Z0.1800 F2.4000
G2 X-0.1565 Y0.0824 Z0.1800 I-0.0000 J0.1565 K0.0000 F10.0000
G1 X-0.1565 Y0.4303 Z0.1800 F10.0000
G2 X-0.0273 Y0.5844 Z0.1800 I0.1565 J0.0000 K0.0000 F10.0000
G2 X0.8273 Y0.5844 Z0.1800 I0.4273 J-2.1800 K0.0000 F10.0000
G2 X0.9565 Y0.4303 Z0.1800 I-0.0273 J-0.1541 K0.0000 F10.0000
G1 X0.9565 Y0.0824 Z0.1800 F10.0000
G2 X0.7670 Y-0.0706 Z0.1800 I-0.1565 J-0.0000 K0.0000 F10.0000
G3 X0.0330 Y-0.0706 Z0.1800 I-0.3670 J-1.5277 K0.0000 F10.0000
G2 X0.0000 Y-0.0741 Z0.1800 I-0.0330 J0.1530 K0.0000 F10.0000
G0 Z0.7969
G0 Z0.7969
(Finish operation: Profile)

(Path: Profile001)
(Profile001)
(Compensated Tool Path. Diameter: 7.9502)
G0 Z0.7969
G0 X0.0000 Y0.0000
G0 X0.0380 Y-0.1518
G0 X0.0380 Y-0.1518 Z0.7181
G1 X0.0380 Y-0.1518 Z0.5000 F2.4000
G3 X0.0349 Y-0.1525 Z0.5000 I0.3620 J-1.4461 K0.0000 F10.0000
G2 X-0.1565 Y0.0000 Z0.5000 I-0.0349 J0.1525 K0.0000 F10.0000
G1 X-0.1565 Y0.5117 Z0.5000 F10.0000
G2 X-0.0263 Y0.6660 Z0.5000 I0.1565 J0.0000 K0.0000 F10.0000
G2 X0.8263 Y0.6660 Z0.5000 I0.4263 J-2.2616 K0.0000 F10.0000
G2 X0.9565 Y0.5117 Z0.5000 I-0.0263 J-0.1543 K0.0000 F10.0000
G1 X0.9565 Y0.0000 Z0.5000 F10.0000
G2 X0.7651 Y-0.1525 Z0.5000 I-0.1565 J-0.0000 K0.0000 F10.0000
G3 X0.0380 Y-0.1518 Z0.5000 I-0.3651 J-1.4453 K0.0000 F10.0000
G1 X0.0380 Y-0.1518 Z0.4000 F2.4000
G3 X0.0349 Y-0.1525 Z0.4000 I0.3620 J-1.4461 K0.0000 F10.0000
G2 X-0.1565 Y0.0000 Z0.4000 I-0.0349 J0.1525 K0.0000 F10.0000
G1 X-0.1565 Y0.5117 Z0.4000 F10.0000
G2 X-0.0263 Y0.6660 Z0.4000 I0.1565 J0.0000 K0.0000 F10.0000
G2 X0.8263 Y0.6660 Z0.4000 I0.4263 J-2.2616 K0.0000 F10.0000
G2 X0.9565 Y0.5117 Z0.4000 I-0.0263 J-0.1543 K0.0000 F10.0000
G1 X0.9565 Y0.0000 Z0.4000 F10.0000
G2 X0.7651 Y-0.1525 Z0.4000 I-0.1565 J-0.0000 K0.0000 F10.0000
G3 X0.0380 Y-0.1518 Z0.4000 I-0.3651 J-1.4453 K0.0000 F10.0000
G1 X0.0380 Y-0.1518 Z0.3000 F2.4000
G3 X0.0349 Y-0.1525 Z0.3000 I0.3620 J-1.4461 K0.0000 F10.0000
G2 X-0.1565 Y0.0000 Z0.3000 I-0.0349 J0.1525 K0.0000 F10.0000
G1 X-0.1565 Y0.5117 Z0.3000 F10.0000
G2 X-0.0263 Y0.6660 Z0.3000 I0.1565 J0.0000 K0.0000 F10.0000
G2 X0.8263 Y0.6660 Z0.3000 I0.4263 J-2.2616 K0.0000 F10.0000
G2 X0.9565 Y0.5117 Z0.3000 I-0.0263 J-0.1543 K0.0000 F10.0000
G1 X0.9565 Y0.0000 Z0.3000 F10.0000
G2 X0.7651 Y-0.1525 Z0.3000 I-0.1565 J-0.0000 K0.0000 F10.0000
G3 X0.0380 Y-0.1518 Z0.3000 I-0.3651 J-1.4453 K0.0000 F10.0000
G1 X0.0380 Y-0.1518 Z0.2000 F2.4000
G3 X0.0349 Y-0.1525 Z0.2000 I0.3620 J-1.4461 K0.0000 F10.0000
G2 X-0.1565 Y0.0000 Z0.2000 I-0.0349 J0.1525 K0.0000 F10.0000
G1 X-0.1565 Y0.5117 Z0.2000 F10.0000
G2 X-0.0263 Y0.6660 Z0.2000 I0.1565 J0.0000 K0.0000 F10.0000
G2 X0.8263 Y0.6660 Z0.2000 I0.4263 J-2.2616 K0.0000 F10.0000
G2 X0.9565 Y0.5117 Z0.2000 I-0.0263 J-0.1543 K0.0000 F10.0000
G1 X0.9565 Y0.0000 Z0.2000 F10.0000
G2 X0.7651 Y-0.1525 Z0.2000 I-0.1565 J-0.0000 K0.0000 F10.0000
G3 X0.0380 Y-0.1518 Z0.2000 I-0.3651 J-1.4453 K0.0000 F10.0000
G1 X0.0380 Y-0.1518 Z0.1000 F2.4000
G3 X0.0349 Y-0.1525 Z0.1000 I0.3620 J-1.4461 K0.0000 F10.0000
G2 X-0.1565 Y0.0000 Z0.1000 I-0.0349 J0.1525 K0.0000 F10.0000
G1 X-0.1565 Y0.5117 Z0.1000 F10.0000
G2 X-0.0263 Y0.6660 Z0.1000 I0.1565 J0.0000 K0.0000 F10.0000
G2 X0.8263 Y0.6660 Z0.1000 I0.4263 J-2.2616 K0.0000 F10.0000
G2 X0.9565 Y0.5117 Z0.1000 I-0.0263 J-0.1543 K0.0000 F10.0000
G1 X0.9565 Y0.0000 Z0.1000 F10.0000
G2 X0.7651 Y-0.1525 Z0.1000 I-0.1565 J-0.0000 K0.0000 F10.0000
G3 X0.0380 Y-0.1518 Z0.1000 I-0.3651 J-1.4453 K0.0000 F10.0000
G1 X0.0380 Y-0.1518 Z0.0000 F2.4000
G3 X0.0349 Y-0.1525 Z0.0000 I0.3620 J-1.4461 K0.0000 F10.0000
G2 X-0.1565 Y0.0000 Z0.0000 I-0.0349 J0.1525 K0.0000 F10.0000
G1 X-0.1565 Y0.5117 Z0.0000 F10.0000
G2 X-0.0263 Y0.6660 Z0.0000 I0.1565 J0.0000 K0.0000 F10.0000
G2 X0.8263 Y0.6660 Z0.0000 I0.4263 J-2.2616 K0.0000 F10.0000
G2 X0.9565 Y0.5117 Z0.0000 I-0.0263 J-0.1543 K0.0000 F10.0000
G1 X0.9565 Y0.0000 Z0.0000 F10.0000
G2 X0.7651 Y-0.1525 Z0.0000 I-0.1565 J-0.0000 K0.0000 F10.0000
G3 X0.0380 Y-0.1518 Z0.0000 I-0.3651 J-1.4453 K0.0000 F10.0000
G0 Z0.7969
G0 Z0.7969
(Finish operation: Profile001)
(Coolant Off:Flood)
M9
(Begin postamble)
M5
G17 G90
M2
