(Exported by FreeCAD)
(Post Processor: script_module)
(Output Time:2025-01-28 19:45:48.541887)
(Begin preamble)
G17 G90
G20
(Begin operation: Fixture)
(Path: Fixture)
G54
(Finish operation: Fixture)
(Begin operation: 365_endmill001)
(Path: 365_endmill001)
(365_endmill001)
(Begin toolchange)
( M6 T2 )
M3 S1000
(Finish operation: 365_endmill001)
(Begin operation: Profile)
(Coolant On:Flood)
M7
M8
(Path: Profile)
(Profile)
(Compensated Tool Path. Diameter: 9.270999999999999)
G0 Z0.6969
G0 X0.0000 Y0.0000
G0 X0.0927 Y0.1091
G0 X0.0927 Y0.1091 Z0.6181
G1 X0.0927 Y0.1091 Z0.4000 F5.0000
G1 X-0.0087 Y0.1953 Z0.4000 F10.0000
G2 X-0.0320 Y0.4496 Z0.4000 I0.1182 J0.1390 K0.0000 F10.0000
G3 X-0.0320 Y2.4504 Z0.4000 I-1.1712 J1.0004 K0.0000 F10.0000
G2 X-0.0087 Y2.7047 Z0.4000 I0.1415 J0.1152 K0.0000 F10.0000
G1 X0.2751 Y2.9459 Z0.4000 F10.0000
G2 X0.5346 Y2.9224 Z0.4000 I0.1182 J-0.1390 K0.0000 F10.0000
G2 X0.5346 Y-0.0224 Z0.4000 I-1.7375 J-1.4724 K0.0000 F10.0000
G2 X0.4317 Y-0.0853 Z0.4000 I-0.1413 J0.1155 K0.0000 F10.0000
G2 X0.2751 Y-0.0459 Z0.4000 I-0.0384 J0.1784 K0.0000 F10.0000
G1 X0.0927 Y0.1091 Z0.4000 F10.0000
G1 X0.0927 Y0.1091 Z0.3000 F5.0000
G1 X-0.0087 Y0.1953 Z0.3000 F10.0000
G2 X-0.0320 Y0.4496 Z0.3000 I0.1182 J0.1390 K0.0000 F10.0000
G3 X-0.0320 Y2.4504 Z0.3000 I-1.1712 J1.0004 K0.0000 F10.0000
G2 X-0.0087 Y2.7047 Z0.3000 I0.1415 J0.1152 K0.0000 F10.0000
G1 X0.2751 Y2.9459 Z0.3000 F10.0000
G2 X0.5346 Y2.9224 Z0.3000 I0.1182 J-0.1390 K0.0000 F10.0000
G2 X0.5346 Y-0.0224 Z0.3000 I-1.7375 J-1.4724 K0.0000 F10.0000
G2 X0.4317 Y-0.0853 Z0.3000 I-0.1413 J0.1155 K0.0000 F10.0000
G2 X0.2751 Y-0.0459 Z0.3000 I-0.0384 J0.1784 K0.0000 F10.0000
G1 X0.0927 Y0.1091 Z0.3000 F10.0000
G1 X0.0927 Y0.1091 Z0.2000 F5.0000
G1 X-0.0087 Y0.1953 Z0.2000 F10.0000
G2 X-0.0320 Y0.4496 Z0.2000 I0.1182 J0.1390 K0.0000 F10.0000
G3 X-0.0320 Y2.4504 Z0.2000 I-1.1712 J1.0004 K0.0000 F10.0000
G2 X-0.0087 Y2.7047 Z0.2000 I0.1415 J0.1152 K0.0000 F10.0000
G1 X0.2751 Y2.9459 Z0.2000 F10.0000
G2 X0.5346 Y2.9224 Z0.2000 I0.1182 J-0.1390 K0.0000 F10.0000
G2 X0.5346 Y-0.0224 Z0.2000 I-1.7375 J-1.4724 K0.0000 F10.0000
G2 X0.4317 Y-0.0853 Z0.2000 I-0.1413 J0.1155 K0.0000 F10.0000
G2 X0.2751 Y-0.0459 Z0.2000 I-0.0384 J0.1784 K0.0000 F10.0000
G1 X0.0927 Y0.1091 Z0.2000 F10.0000
G1 X0.0927 Y0.1091 Z0.1250 F5.0000
G1 X-0.0087 Y0.1953 Z0.1250 F10.0000
G2 X-0.0320 Y0.4496 Z0.1250 I0.1182 J0.1390 K0.0000 F10.0000
G3 X-0.0320 Y2.4504 Z0.1250 I-1.1712 J1.0004 K0.0000 F10.0000
G2 X-0.0087 Y2.7047 Z0.1250 I0.1415 J0.1152 K0.0000 F10.0000
G1 X0.2751 Y2.9459 Z0.1250 F10.0000
G2 X0.5346 Y2.9224 Z0.1250 I0.1182 J-0.1390 K0.0000 F10.0000
G2 X0.5346 Y-0.0224 Z0.1250 I-1.7375 J-1.4724 K0.0000 F10.0000
G2 X0.4317 Y-0.0853 Z0.1250 I-0.1413 J0.1155 K0.0000 F10.0000
G2 X0.2751 Y-0.0459 Z0.1250 I-0.0384 J0.1784 K0.0000 F10.0000
G1 X0.0927 Y0.1091 Z0.1250 F10.0000
G0 Z0.6969
G0 Z0.6969
(Finish operation: Profile)
(Coolant Off:Flood)
M9
(Begin operation: Profile001)
(Coolant On:Flood)
M7
M8
(Path: Profile001)
(Profile001)
(Compensated Tool Path. Diameter: 9.270999999999999)
G0 Z0.6969
G0 X0.0000 Y0.0000
G0 X0.0927 Y0.1091
G0 X0.0927 Y0.1091 Z0.6181
G1 X0.0927 Y0.1091 Z0.4000 F5.0000
G1 X-0.1182 Y0.2884 Z0.4000 F10.0000
G2 X-0.1416 Y0.5426 Z0.4000 I0.1182 J0.1390 K0.0000 F10.0000
G3 X-0.1416 Y2.3574 Z0.4000 I-1.0616 J0.9074 K0.0000 F10.0000
G2 X-0.1182 Y2.6116 Z0.4000 I0.1416 J0.1151 K0.0000 F10.0000
G1 X0.3847 Y3.0390 Z0.4000 F10.0000
G2 X0.6441 Y3.0156 Z0.4000 I0.1182 J-0.1390 K0.0000 F10.0000
G2 X0.6441 Y-0.1156 Z0.4000 I-1.8469 J-1.5656 K0.0000 F10.0000
G2 X0.5412 Y-0.1784 Z0.4000 I-0.1412 J0.1156 K0.0000 F10.0000
G2 X0.3847 Y-0.1390 Z0.4000 I-0.0384 J0.1784 K0.0000 F10.0000
G1 X0.0927 Y0.1091 Z0.4000 F10.0000
G1 X0.0927 Y0.1091 Z0.3000 F5.0000
G1 X-0.1182 Y0.2884 Z0.3000 F10.0000
G2 X-0.1416 Y0.5426 Z0.3000 I0.1182 J0.1390 K0.0000 F10.0000
G3 X-0.1416 Y2.3574 Z0.3000 I-1.0616 J0.9074 K0.0000 F10.0000
G2 X-0.1182 Y2.6116 Z0.3000 I0.1416 J0.1151 K0.0000 F10.0000
G1 X0.3847 Y3.0390 Z0.3000 F10.0000
G2 X0.6441 Y3.0156 Z0.3000 I0.1182 J-0.1390 K0.0000 F10.0000
G2 X0.6441 Y-0.1156 Z0.3000 I-1.8469 J-1.5656 K0.0000 F10.0000
G2 X0.5412 Y-0.1784 Z0.3000 I-0.1412 J0.1156 K0.0000 F10.0000
G2 X0.3847 Y-0.1390 Z0.3000 I-0.0384 J0.1784 K0.0000 F10.0000
G1 X0.0927 Y0.1091 Z0.3000 F10.0000
G1 X0.0927 Y0.1091 Z0.2000 F5.0000
G1 X-0.1182 Y0.2884 Z0.2000 F10.0000
G2 X-0.1416 Y0.5426 Z0.2000 I0.1182 J0.1390 K0.0000 F10.0000
G3 X-0.1416 Y2.3574 Z0.2000 I-1.0616 J0.9074 K0.0000 F10.0000
G2 X-0.1182 Y2.6116 Z0.2000 I0.1416 J0.1151 K0.0000 F10.0000
G1 X0.3847 Y3.0390 Z0.2000 F10.0000
G2 X0.6441 Y3.0156 Z0.2000 I0.1182 J-0.1390 K0.0000 F10.0000
G2 X0.6441 Y-0.1156 Z0.2000 I-1.8469 J-1.5656 K0.0000 F10.0000
G2 X0.5412 Y-0.1784 Z0.2000 I-0.1412 J0.1156 K0.0000 F10.0000
G2 X0.3847 Y-0.1390 Z0.2000 I-0.0384 J0.1784 K0.0000 F10.0000
G1 X0.0927 Y0.1091 Z0.2000 F10.0000
G1 X0.0927 Y0.1091 Z0.1000 F5.0000
G1 X-0.1182 Y0.2884 Z0.1000 F10.0000
G2 X-0.1416 Y0.5426 Z0.1000 I0.1182 J0.1390 K0.0000 F10.0000
G3 X-0.1416 Y2.3574 Z0.1000 I-1.0616 J0.9074 K0.0000 F10.0000
G2 X-0.1182 Y2.6116 Z0.1000 I0.1416 J0.1151 K0.0000 F10.0000
G1 X0.3847 Y3.0390 Z0.1000 F10.0000
G2 X0.6441 Y3.0156 Z0.1000 I0.1182 J-0.1390 K0.0000 F10.0000
G2 X0.6441 Y-0.1156 Z0.1000 I-1.8469 J-1.5656 K0.0000 F10.0000
G2 X0.5412 Y-0.1784 Z0.1000 I-0.1412 J0.1156 K0.0000 F10.0000
G2 X0.3847 Y-0.1390 Z0.1000 I-0.0384 J0.1784 K0.0000 F10.0000
G1 X0.0927 Y0.1091 Z0.1000 F10.0000
G1 X0.0927 Y0.1091 Z0.0000 F5.0000
G1 X-0.1182 Y0.2884 Z0.0000 F10.0000
G2 X-0.1416 Y0.5426 Z0.0000 I0.1182 J0.1390 K0.0000 F10.0000
G3 X-0.1416 Y2.3574 Z0.0000 I-1.0616 J0.9074 K0.0000 F10.0000
G2 X-0.1182 Y2.6116 Z0.0000 I0.1416 J0.1151 K0.0000 F10.0000
G1 X0.3847 Y3.0390 Z0.0000 F10.0000
G2 X0.6441 Y3.0156 Z0.0000 I0.1182 J-0.1390 K0.0000 F10.0000
G2 X0.6441 Y-0.1156 Z0.0000 I-1.8469 J-1.5656 K0.0000 F10.0000
G2 X0.5412 Y-0.1784 Z0.0000 I-0.1412 J0.1156 K0.0000 F10.0000
G2 X0.3847 Y-0.1390 Z0.0000 I-0.0384 J0.1784 K0.0000 F10.0000
G1 X0.0927 Y0.1091 Z0.0000 F10.0000
G0 Z0.6969
G0 Z0.6969
(Finish operation: Profile001)
(Coolant Off:Flood)
M9
(Begin postamble)
M5
G17 G90
M2
