(Exported by FreeCAD)
(Post Processor: script_module)
(Output Time:2025-01-29 17:40:22.362571)
(Begin preamble)
G17 G90
G20
(Begin operation: Fixture)
(Path: Fixture)
G54
(Finish operation: Fixture)
(Begin operation: 0.257 plain001)
(Path: 0.257 plain001)
(0.257 plain001)
(Begin toolchange)
( M6 T4 )
M3 S1000
(Finish operation: 0.257 plain001)
(Begin operation: RampEntryDressup)
(Coolant On:Flood)
M8
(Path: RampEntryDressup)
G0 X0.0000 Y0.0000 Z0.7970
G0 X-0.0001 Y0.0802 Z0.7970
G0 X-0.0001 Y0.0802 Z0.7180
G1 X0.0716 Y0.0955 Z0.7113 F8.0000
G1 X0.1439 Y0.1078 Z0.7044 F8.0000
G1 X0.2167 Y0.1170 Z0.6976 F8.0000
G1 X0.2897 Y0.1232 Z0.6907 F8.0000
G1 X0.3630 Y0.1263 Z0.6838 F8.0000
G1 X0.4363 Y0.1262 Z0.6769 F8.0000
G1 X0.5096 Y0.1232 Z0.6700 F8.0000
G1 X0.5827 Y0.1170 Z0.6632 F8.0000
G1 X0.6554 Y0.1077 Z0.6563 F8.0000
G1 X0.7278 Y0.0954 Z0.6495 F8.0000
G1 X0.7995 Y0.0801 Z0.6428 F8.0000
G1 X0.7978 Y0.0814 Z0.6430 F8.0000
G1 X0.7978 Y0.0836 Z0.6426 F8.0000
G1 X0.7995 Y0.0848 Z0.6419 F8.0000
G1 X0.8015 Y0.0841 Z0.6415 F8.0000
G1 X0.8022 Y0.0820 Z0.6417 F8.0000
G1 X0.8026 Y0.0869 Z0.6413 F8.0000
G1 X0.8026 Y0.4258 Z0.6097 F8.0000
G1 X0.8027 Y0.4286 Z0.6094 F8.0000
G1 X0.8020 Y0.4314 Z0.6091 F8.0000
G1 X0.7297 Y0.4447 Z0.6024 F8.0000
G1 X0.6570 Y0.4554 Z0.5955 F8.0000
G1 X0.5839 Y0.4635 Z0.5887 F8.0000
G1 X0.5106 Y0.4689 Z0.5818 F8.0000
G1 X0.4372 Y0.4717 Z0.5749 F8.0000
G1 X0.3637 Y0.4717 Z0.5680 F8.0000
G1 X0.2903 Y0.4692 Z0.5611 F8.0000
G1 X0.2170 Y0.4639 Z0.5542 F8.0000
G1 X0.1439 Y0.4560 Z0.5474 F8.0000
G1 X0.0712 Y0.4455 Z0.5405 F8.0000
G1 X-0.0011 Y0.4324 Z0.5338 F8.0000
G1 X-0.0026 Y0.4293 Z0.5334 F8.0000
G1 X-0.0026 Y0.4259 Z0.5331 F8.0000
G1 X-0.0035 Y0.2538 Z0.5171 F8.0000
G1 X-0.0021 Y0.0817 Z0.5010 F8.0000
G1 X-0.0015 Y0.0837 Z0.5014 F8.0000
G1 X0.0004 Y0.0844 Z0.5009 F8.0000
G1 X0.0019 Y0.0832 Z0.5001 F8.0000
G1 X0.0017 Y0.0812 Z0.4997 F8.0000
G1 X-0.0001 Y0.0802 Z0.5000 F8.0000
G1 X0.0485 Y0.1435 Z0.5000 F8.0000
G2 X0.7512 Y0.1427 Z0.5000 I0.3494 J-1.7449 K0.0000 F8.0000
G1 X0.7512 Y0.3887 Z0.5000 F8.0000
G3 X0.0486 Y0.3894 Z0.5000 I-0.3532 J-1.9426 K0.0000 F8.0000
G3 X0.0485 Y0.1435 Z0.5000 I19.5265 J-0.1325 K0.0000 F8.0000
G1 X0.0996 Y0.2048 Z0.5000 F8.0000
G2 X0.6998 Y0.2044 Z0.5000 I0.2987 J-1.7927 K0.0000 F8.0000
G1 X0.6998 Y0.3452 Z0.5000 F8.0000
G3 X0.0997 Y0.3460 Z0.5000 I-0.3027 J-1.9016 K0.0000 F8.0000
G3 X0.0996 Y0.2048 Z0.5000 I17.3113 J-0.0813 K0.0000 F8.0000
G1 X0.1510 Y0.2642 Z0.5000 F8.0000
G2 X0.6484 Y0.2642 Z0.5000 I0.2486 J-1.8455 K0.0000 F8.0000
G1 X0.6484 Y0.3010 Z0.5000 F8.0000
G3 X0.1510 Y0.3012 Z0.5000 I-0.2495 J-1.8517 K0.0000 F8.0000
G1 X0.1510 Y0.2642 Z0.5000 F8.0000
G1 X0.2218 Y0.2724 Z0.4934 F8.0000
G1 X0.2928 Y0.2778 Z0.4867 F8.0000
G1 X0.3640 Y0.2806 Z0.4801 F8.0000
G1 X0.4353 Y0.2806 Z0.4734 F8.0000
G1 X0.5065 Y0.2778 Z0.4667 F8.0000
G1 X0.5776 Y0.2724 Z0.4601 F8.0000
G1 X0.6484 Y0.2642 Z0.4534 F8.0000
G1 X0.6484 Y0.3010 Z0.4500 F8.0000
G1 X0.5776 Y0.3092 Z0.4434 F8.0000
G1 X0.5065 Y0.3147 Z0.4367 F8.0000
G1 X0.4353 Y0.3174 Z0.4301 F8.0000
G1 X0.3641 Y0.3174 Z0.4234 F8.0000
G1 X0.2929 Y0.3147 Z0.4167 F8.0000
G1 X0.2218 Y0.3094 Z0.4101 F8.0000
G1 X0.1510 Y0.3012 Z0.4035 F8.0000
G1 X0.1510 Y0.2642 Z0.4000 F8.0000
G2 X0.6484 Y0.2642 Z0.4000 I0.2486 J-1.8455 K0.0000 F8.0000
G1 X0.6484 Y0.3010 Z0.4000 F8.0000
G3 X0.1510 Y0.3012 Z0.4000 I-0.2495 J-1.8517 K0.0000 F8.0000
G1 X0.1510 Y0.2642 Z0.4000 F8.0000
G1 X0.1577 Y0.2135 Z0.4000 F8.0000
G2 X0.6998 Y0.2044 Z0.4000 I0.2406 J-1.8014 K0.0000 F8.0000
G1 X0.6998 Y0.3452 Z0.4000 F8.0000
G3 X0.0997 Y0.3460 Z0.4000 I-0.3027 J-1.9016 K0.0000 F8.0000
G3 X0.0996 Y0.2048 Z0.4000 I17.3113 J-0.0813 K0.0000 F8.0000
G2 X0.1577 Y0.2135 Z0.4000 I0.2987 J-1.7927 K0.0000 F8.0000
G1 X0.1644 Y0.1628 Z0.4000 F8.0000
G2 X0.7512 Y0.1427 Z0.4000 I0.2334 J-1.7642 K0.0000 F8.0000
G1 X0.7512 Y0.3887 Z0.4000 F8.0000
G3 X0.0486 Y0.3894 Z0.4000 I-0.3532 J-1.9426 K0.0000 F8.0000
G3 X0.0485 Y0.1435 Z0.4000 I19.5265 J-0.1325 K0.0000 F8.0000
G2 X0.1644 Y0.1628 Z0.4000 I0.3494 J-1.7449 K0.0000 F8.0000
G1 X0.1712 Y0.1116 Z0.4000 F8.0000
G2 X0.7995 Y0.0801 Z0.4000 I0.2282 J-1.7267 K0.0000 F8.0000
G2 X0.8022 Y0.0820 Z0.4000 I0.0004 J0.0024 K0.0000 F8.0000
G1 X0.8026 Y0.0869 Z0.4000 F8.0000
G1 X0.8026 Y0.4258 Z0.4000 F8.0000
G3 X0.8020 Y0.4314 Z0.4000 I-0.0085 J0.0019 K0.0000 F8.0000
G3 X-0.0011 Y0.4324 Z0.4000 I-0.4039 J-1.9868 K0.0000 F8.0000
G3 X-0.0026 Y0.4259 Z0.4000 I0.0064 J-0.0049 K0.0000 F8.0000
G3 X-0.0021 Y0.0817 Z0.4000 I12.9078 J-0.1530 K0.0000 F8.0000
G2 X-0.0001 Y0.0802 Z0.4000 I0.0021 J0.0007 K0.0000 F8.0000
G2 X0.1712 Y0.1116 Z0.4000 I0.3996 J-1.6952 K0.0000 F8.0000
G0 X0.1712 Y0.1116 Z0.7970
(Finish operation: RampEntryDressup)
(Coolant Off:Flood)
M9
(Begin operation: RampEntryDressup001)
(Coolant On:Flood)
M8
(Path: RampEntryDressup001)
G0 X0.0000 Y0.0000 Z0.7970
G0 X0.0000 Y-0.0461 Z0.7970
G0 X0.0000 Y-0.0461 Z0.7180
G1 X-0.0183 Y-0.0448 Z0.7167 F8.0000
G1 X-0.0362 Y-0.0409 Z0.7153 F8.0000
G1 X-0.0534 Y-0.0345 Z0.7138 F8.0000
G1 X-0.0695 Y-0.0257 Z0.7122 F8.0000
G1 X-0.0842 Y-0.0148 Z0.7105 F8.0000
G1 X-0.0971 Y-0.0018 Z0.7088 F8.0000
G1 X-0.1081 Y0.0129 Z0.7071 F8.0000
G1 X-0.1169 Y0.0290 Z0.7055 F8.0000
G1 X-0.1233 Y0.0461 Z0.7040 F8.0000
G1 X-0.1272 Y0.0641 Z0.7026 F8.0000
G1 X-0.1285 Y0.0824 Z0.7013 F8.0000
G1 X-0.1285 Y0.4303 Z0.6725 F8.0000
G1 X-0.1269 Y0.4501 Z0.6710 F8.0000
G1 X-0.1224 Y0.4695 Z0.6694 F8.0000
G1 X-0.1148 Y0.4879 Z0.6677 F8.0000
G1 X-0.1046 Y0.5049 Z0.6659 F8.0000
G1 X-0.0918 Y0.5202 Z0.6642 F8.0000
G1 X-0.0768 Y0.5333 Z0.6624 F8.0000
G1 X-0.0600 Y0.5439 Z0.6607 F8.0000
G1 X-0.0417 Y0.5518 Z0.6591 F8.0000
G1 X-0.0224 Y0.5568 Z0.6576 F8.0000
G1 X0.0537 Y0.5703 Z0.6513 F8.0000
G1 X0.1302 Y0.5812 Z0.6449 F8.0000
G1 X0.2070 Y0.5893 Z0.6385 F8.0000
G1 X0.2841 Y0.5948 Z0.6321 F8.0000
G1 X0.3614 Y0.5975 Z0.6256 F8.0000
G1 X0.4386 Y0.5975 Z0.6192 F8.0000
G1 X0.5159 Y0.5948 Z0.6128 F8.0000
G1 X0.5930 Y0.5893 Z0.6063 F8.0000
G1 X0.6698 Y0.5812 Z0.5999 F8.0000
G1 X0.7463 Y0.5703 Z0.5936 F8.0000
G1 X0.8224 Y0.5568 Z0.5872 F8.0000
G1 X0.8417 Y0.5518 Z0.5858 F8.0000
G1 X0.8600 Y0.5439 Z0.5842 F8.0000
G1 X0.8768 Y0.5333 Z0.5825 F8.0000
G1 X0.8918 Y0.5202 Z0.5807 F8.0000
G1 X0.9046 Y0.5049 Z0.5789 F8.0000
G1 X0.9148 Y0.4879 Z0.5771 F8.0000
G1 X0.9224 Y0.4695 Z0.5754 F8.0000
G1 X0.9269 Y0.4501 Z0.5738 F8.0000
G1 X0.9285 Y0.4303 Z0.5724 F8.0000
G1 X0.9285 Y0.0824 Z0.5436 F8.0000
G1 X0.9271 Y0.0633 Z0.5423 F8.0000
G1 X0.9228 Y0.0447 Z0.5409 F8.0000
G1 X0.9159 Y0.0269 Z0.5393 F8.0000
G1 X0.9064 Y0.0104 Z0.5376 F8.0000
G1 X0.8946 Y-0.0046 Z0.5359 F8.0000
G1 X0.8807 Y-0.0176 Z0.5341 F8.0000
G1 X0.8650 Y-0.0285 Z0.5323 F8.0000
G1 X0.8479 Y-0.0369 Z0.5305 F8.0000
G1 X0.8297 Y-0.0426 Z0.5288 F8.0000
G1 X0.8109 Y-0.0457 Z0.5273 F8.0000
G1 X0.7918 Y-0.0459 Z0.5258 F8.0000
G1 X0.7729 Y-0.0432 Z0.5246 F8.0000
G1 X0.7060 Y-0.0287 Z0.5190 F8.0000
G1 X0.6386 Y-0.0171 Z0.5134 F8.0000
G1 X0.5707 Y-0.0083 Z0.5077 F8.0000
G1 X0.5026 Y-0.0024 Z0.5020 F8.0000
G1 X0.4342 Y0.0005 Z0.4963 F8.0000
G1 X0.3658 Y0.0005 Z0.4906 F8.0000
G1 X0.2974 Y-0.0024 Z0.4849 F8.0000
G1 X0.2293 Y-0.0083 Z0.4792 F8.0000
G1 X0.1614 Y-0.0171 Z0.4735 F8.0000
G1 X0.0940 Y-0.0287 Z0.4679 F8.0000
G1 X0.0271 Y-0.0432 Z0.4623 F8.0000
G1 X0.0136 Y-0.0454 Z0.4611 F8.0000
G1 X-0.0000 Y-0.0461 Z0.4600 F8.0000
G1 X-0.0183 Y-0.0448 Z0.4593 F8.0000
G1 X-0.0362 Y-0.0409 Z0.4585 F8.0000
G1 X-0.0534 Y-0.0345 Z0.4577 F8.0000
G1 X-0.0695 Y-0.0257 Z0.4568 F8.0000
G1 X-0.0842 Y-0.0148 Z0.4559 F8.0000
G1 X-0.0971 Y-0.0018 Z0.4550 F8.0000
G1 X-0.1081 Y0.0129 Z0.4541 F8.0000
G1 X-0.1169 Y0.0290 Z0.4532 F8.0000
G1 X-0.1233 Y0.0461 Z0.4524 F8.0000
G1 X-0.1272 Y0.0641 Z0.4516 F8.0000
G1 X-0.1285 Y0.0824 Z0.4509 F8.0000
G1 X-0.1285 Y0.4303 Z0.4353 F8.0000
G1 X-0.1270 Y0.4501 Z0.4345 F8.0000
G1 X-0.1224 Y0.4695 Z0.4336 F8.0000
G1 X-0.1148 Y0.4879 Z0.4327 F8.0000
G1 X-0.1046 Y0.5049 Z0.4318 F8.0000
G1 X-0.0918 Y0.5202 Z0.4308 F8.0000
G1 X-0.0768 Y0.5333 Z0.4298 F8.0000
G1 X-0.0600 Y0.5439 Z0.4289 F8.0000
G1 X-0.0417 Y0.5518 Z0.4280 F8.0000
G1 X-0.0224 Y0.5568 Z0.4272 F8.0000
G1 X0.0537 Y0.5703 Z0.4238 F8.0000
G1 X0.1302 Y0.5812 Z0.4203 F8.0000
G1 X0.2070 Y0.5893 Z0.4169 F8.0000
G1 X0.2841 Y0.5948 Z0.4134 F8.0000
G1 X0.3614 Y0.5975 Z0.4099 F8.0000
G1 X0.4386 Y0.5975 Z0.4064 F8.0000
G1 X0.5159 Y0.5948 Z0.4029 F8.0000
G1 X0.5930 Y0.5893 Z0.3994 F8.0000
G1 X0.6698 Y0.5812 Z0.3959 F8.0000
G1 X0.7463 Y0.5703 Z0.3925 F8.0000
G1 X0.8224 Y0.5568 Z0.3890 F8.0000
G1 X0.8417 Y0.5518 Z0.3882 F8.0000
G1 X0.8600 Y0.5439 Z0.3874 F8.0000
G1 X0.8768 Y0.5333 Z0.3865 F8.0000
G1 X0.8918 Y0.5202 Z0.3855 F8.0000
G1 X0.9046 Y0.5049 Z0.3845 F8.0000
G1 X0.9148 Y0.4879 Z0.3836 F8.0000
G1 X0.9224 Y0.4695 Z0.3826 F8.0000
G1 X0.9270 Y0.4501 Z0.3818 F8.0000
G1 X0.9285 Y0.4303 Z0.3810 F8.0000
G1 X0.9285 Y0.0824 Z0.3653 F8.0000
G1 X0.9271 Y0.0633 Z0.3647 F8.0000
G1 X0.9229 Y0.0447 Z0.3639 F8.0000
G1 X0.9159 Y0.0269 Z0.3631 F8.0000
G1 X0.9064 Y0.0104 Z0.3621 F8.0000
G1 X0.8946 Y-0.0046 Z0.3612 F8.0000
G1 X0.8807 Y-0.0176 Z0.3602 F8.0000
G1 X0.8650 Y-0.0285 Z0.3592 F8.0000
G1 X0.8479 Y-0.0369 Z0.3583 F8.0000
G1 X0.8297 Y-0.0427 Z0.3573 F8.0000
G1 X0.8109 Y-0.0457 Z0.3565 F8.0000
G1 X0.7918 Y-0.0459 Z0.3557 F8.0000
G1 X0.7729 Y-0.0432 Z0.3550 F8.0000
G1 X0.7060 Y-0.0287 Z0.3520 F8.0000
G1 X0.6386 Y-0.0171 Z0.3490 F8.0000
G1 X0.5707 Y-0.0083 Z0.3459 F8.0000
G1 X0.5026 Y-0.0024 Z0.3428 F8.0000
G1 X0.4342 Y0.0005 Z0.3397 F8.0000
G1 X0.3658 Y0.0005 Z0.3366 F8.0000
G1 X0.2974 Y-0.0024 Z0.3335 F8.0000
G1 X0.2293 Y-0.0083 Z0.3304 F8.0000
G1 X0.1614 Y-0.0171 Z0.3273 F8.0000
G1 X0.0940 Y-0.0287 Z0.3243 F8.0000
G1 X0.0271 Y-0.0432 Z0.3212 F8.0000
G1 X0.0136 Y-0.0454 Z0.3206 F8.0000
G1 X-0.0000 Y-0.0461 Z0.3200 F8.0000
G1 X-0.0183 Y-0.0448 Z0.3193 F8.0000
G1 X-0.0362 Y-0.0409 Z0.3185 F8.0000
G1 X-0.0534 Y-0.0345 Z0.3177 F8.0000
G1 X-0.0695 Y-0.0257 Z0.3168 F8.0000
G1 X-0.0842 Y-0.0148 Z0.3159 F8.0000
G1 X-0.0971 Y-0.0018 Z0.3150 F8.0000
G1 X-0.1081 Y0.0129 Z0.3141 F8.0000
G1 X-0.1169 Y0.0290 Z0.3132 F8.0000
G1 X-0.1233 Y0.0461 Z0.3124 F8.0000
G1 X-0.1272 Y0.0641 Z0.3116 F8.0000
G1 X-0.1285 Y0.0824 Z0.3109 F8.0000
G1 X-0.1285 Y0.4303 Z0.2953 F8.0000
G1 X-0.1270 Y0.4501 Z0.2945 F8.0000
G1 X-0.1224 Y0.4695 Z0.2936 F8.0000
G1 X-0.1148 Y0.4879 Z0.2927 F8.0000
G1 X-0.1046 Y0.5049 Z0.2918 F8.0000
G1 X-0.0918 Y0.5202 Z0.2908 F8.0000
G1 X-0.0768 Y0.5333 Z0.2898 F8.0000
G1 X-0.0600 Y0.5439 Z0.2889 F8.0000
G1 X-0.0417 Y0.5518 Z0.2880 F8.0000
G1 X-0.0224 Y0.5568 Z0.2872 F8.0000
G1 X0.0537 Y0.5703 Z0.2838 F8.0000
G1 X0.1302 Y0.5812 Z0.2803 F8.0000
G1 X0.2070 Y0.5893 Z0.2769 F8.0000
G1 X0.2841 Y0.5948 Z0.2734 F8.0000
G1 X0.3614 Y0.5975 Z0.2699 F8.0000
G1 X0.4386 Y0.5975 Z0.2664 F8.0000
G1 X0.5159 Y0.5948 Z0.2629 F8.0000
G1 X0.5930 Y0.5893 Z0.2594 F8.0000
G1 X0.6698 Y0.5812 Z0.2559 F8.0000
G1 X0.7463 Y0.5703 Z0.2525 F8.0000
G1 X0.8224 Y0.5568 Z0.2490 F8.0000
G1 X0.8417 Y0.5518 Z0.2482 F8.0000
G1 X0.8600 Y0.5439 Z0.2474 F8.0000
G1 X0.8768 Y0.5333 Z0.2465 F8.0000
G1 X0.8918 Y0.5202 Z0.2455 F8.0000
G1 X0.9046 Y0.5049 Z0.2445 F8.0000
G1 X0.9148 Y0.4879 Z0.2436 F8.0000
G1 X0.9224 Y0.4695 Z0.2426 F8.0000
G1 X0.9270 Y0.4501 Z0.2418 F8.0000
G1 X0.9285 Y0.4303 Z0.2410 F8.0000
G1 X0.9285 Y0.0824 Z0.2253 F8.0000
G1 X0.9271 Y0.0633 Z0.2247 F8.0000
G1 X0.9229 Y0.0447 Z0.2239 F8.0000
G1 X0.9159 Y0.0269 Z0.2231 F8.0000
G1 X0.9064 Y0.0104 Z0.2221 F8.0000
G1 X0.8946 Y-0.0046 Z0.2212 F8.0000
G1 X0.8807 Y-0.0176 Z0.2202 F8.0000
G1 X0.8650 Y-0.0285 Z0.2192 F8.0000
G1 X0.8479 Y-0.0369 Z0.2183 F8.0000
G1 X0.8297 Y-0.0427 Z0.2173 F8.0000
G1 X0.8109 Y-0.0457 Z0.2165 F8.0000
G1 X0.7918 Y-0.0459 Z0.2157 F8.0000
G1 X0.7729 Y-0.0432 Z0.2150 F8.0000
G1 X0.7060 Y-0.0287 Z0.2120 F8.0000
G1 X0.6386 Y-0.0171 Z0.2090 F8.0000
G1 X0.5707 Y-0.0083 Z0.2059 F8.0000
G1 X0.5026 Y-0.0024 Z0.2028 F8.0000
G1 X0.4342 Y0.0005 Z0.1997 F8.0000
G1 X0.3658 Y0.0005 Z0.1966 F8.0000
G1 X0.2974 Y-0.0024 Z0.1935 F8.0000
G1 X0.2293 Y-0.0083 Z0.1904 F8.0000
G1 X0.1614 Y-0.0171 Z0.1873 F8.0000
G1 X0.0940 Y-0.0287 Z0.1843 F8.0000
G1 X0.0271 Y-0.0432 Z0.1812 F8.0000
G1 X0.0136 Y-0.0454 Z0.1806 F8.0000
G1 X-0.0000 Y-0.0461 Z0.1800 F8.0000
G2 X-0.1285 Y0.0824 Z0.1800 I0.0000 J0.1285 K0.0000 F8.0000
G1 X-0.1285 Y0.4303 Z0.1800 F8.0000
G2 X-0.0224 Y0.5568 Z0.1800 I0.1285 J0.0000 K0.0000 F8.0000
G2 X0.8224 Y0.5568 Z0.1800 I0.4224 J-2.1524 K0.0000 F8.0000
G2 X0.9285 Y0.4303 Z0.1800 I-0.0224 J-0.1265 K0.0000 F8.0000
G1 X0.9285 Y0.0824 Z0.1800 F8.0000
G2 X0.7729 Y-0.0432 Z0.1800 I-0.1285 J0.0000 K0.0000 F8.0000
G3 X0.0271 Y-0.0432 Z0.1800 I-0.3729 J-1.5546 K0.0000 F8.0000
G2 X-0.0000 Y-0.0461 Z0.1800 I-0.0271 J0.1256 K0.0000 F8.0000
G0 X-0.0000 Y-0.0461 Z0.7970
(Finish operation: RampEntryDressup001)
(Coolant Off:Flood)
M9
(Begin operation: RampEntryDressup002)
(Coolant On:Flood)
M8
(Path: RampEntryDressup002)
G0 X0.0000 Y0.0000 Z0.7970
G0 X0.0312 Y-0.1246 Z0.7970
G0 X0.0312 Y-0.1246 Z0.7180
G1 X0.0287 Y-0.1253 Z0.7178 F8.0000
G1 X0.0097 Y-0.1281 Z0.7167 F8.0000
G1 X-0.0096 Y-0.1281 Z0.7155 F8.0000
G1 X-0.0286 Y-0.1253 Z0.7141 F8.0000
G1 X-0.0469 Y-0.1196 Z0.7127 F8.0000
G1 X-0.0642 Y-0.1113 Z0.7111 F8.0000
G1 X-0.0801 Y-0.1005 Z0.7096 F8.0000
G1 X-0.0942 Y-0.0874 Z0.7080 F8.0000
G1 X-0.1061 Y-0.0724 Z0.7064 F8.0000
G1 X-0.1157 Y-0.0558 Z0.7050 F8.0000
G1 X-0.1228 Y-0.0379 Z0.7036 F8.0000
G1 X-0.1270 Y-0.0192 Z0.7024 F8.0000
G1 X-0.1285 Y0.0000 Z0.7013 F8.0000
G1 X-0.1285 Y0.5117 Z0.6647 F8.0000
G1 X-0.1269 Y0.5317 Z0.6634 F8.0000
G1 X-0.1223 Y0.5512 Z0.6620 F8.0000
G1 X-0.1147 Y0.5696 Z0.6605 F8.0000
G1 X-0.1043 Y0.5867 Z0.6590 F8.0000
G1 X-0.0915 Y0.6020 Z0.6574 F8.0000
G1 X-0.0764 Y0.6151 Z0.6559 F8.0000
G1 X-0.0594 Y0.6257 Z0.6544 F8.0000
G1 X-0.0410 Y0.6335 Z0.6530 F8.0000
G1 X-0.0216 Y0.6384 Z0.6518 F8.0000
G1 X0.0544 Y0.6514 Z0.6463 F8.0000
G1 X0.1308 Y0.6619 Z0.6408 F8.0000
G1 X0.2075 Y0.6697 Z0.6353 F8.0000
G1 X0.2844 Y0.6749 Z0.6297 F8.0000
G1 X0.3615 Y0.6775 Z0.6242 F8.0000
G1 X0.4385 Y0.6775 Z0.6186 F8.0000
G1 X0.5156 Y0.6749 Z0.6131 F8.0000
G1 X0.5925 Y0.6697 Z0.6076 F8.0000
G1 X0.6692 Y0.6619 Z0.6020 F8.0000
G1 X0.7456 Y0.6514 Z0.5965 F8.0000
G1 X0.8216 Y0.6384 Z0.5911 F8.0000
G1 X0.8410 Y0.6335 Z0.5898 F8.0000
G1 X0.8594 Y0.6257 Z0.5884 F8.0000
G1 X0.8764 Y0.6151 Z0.5869 F8.0000
G1 X0.8915 Y0.6020 Z0.5854 F8.0000
G1 X0.9043 Y0.5867 Z0.5838 F8.0000
G1 X0.9147 Y0.5696 Z0.5823 F8.0000
G1 X0.9223 Y0.5512 Z0.5808 F8.0000
G1 X0.9269 Y0.5317 Z0.5794 F8.0000
G1 X0.9285 Y0.5117 Z0.5782 F8.0000
G1 X0.9285 Y0.0000 Z0.5415 F8.0000
G1 X0.9270 Y-0.0192 Z0.5405 F8.0000
G1 X0.9228 Y-0.0379 Z0.5392 F8.0000
G1 X0.9157 Y-0.0558 Z0.5379 F8.0000
G1 X0.9061 Y-0.0724 Z0.5364 F8.0000
G1 X0.8942 Y-0.0874 Z0.5348 F8.0000
G1 X0.8801 Y-0.1005 Z0.5333 F8.0000
G1 X0.8642 Y-0.1113 Z0.5317 F8.0000
G1 X0.8469 Y-0.1196 Z0.5302 F8.0000
G1 X0.8286 Y-0.1253 Z0.5287 F8.0000
G1 X0.8096 Y-0.1281 Z0.5273 F8.0000
G1 X0.7903 Y-0.1281 Z0.5261 F8.0000
G1 X0.7713 Y-0.1253 Z0.5250 F8.0000
G1 X0.7051 Y-0.1101 Z0.5202 F8.0000
G1 X0.6382 Y-0.0980 Z0.5154 F8.0000
G1 X0.5708 Y-0.0888 Z0.5105 F8.0000
G1 X0.5032 Y-0.0827 Z0.5056 F8.0000
G1 X0.4353 Y-0.0796 Z0.5007 F8.0000
G1 X0.3673 Y-0.0795 Z0.4958 F8.0000
G1 X0.2994 Y-0.0825 Z0.4909 F8.0000
G1 X0.2317 Y-0.0885 Z0.4860 F8.0000
G1 X0.1644 Y-0.0975 Z0.4811 F8.0000
G1 X0.0975 Y-0.1096 Z0.4763 F8.0000
G1 X0.0312 Y-0.1246 Z0.4715 F8.0000
G1 X0.0287 Y-0.1253 Z0.4714 F8.0000
G1 X0.0097 Y-0.1281 Z0.4708 F8.0000
G1 X-0.0095 Y-0.1281 Z0.4702 F8.0000
G1 X-0.0285 Y-0.1253 Z0.4695 F8.0000
G1 X-0.0469 Y-0.1196 Z0.4687 F8.0000
G1 X-0.0642 Y-0.1113 Z0.4679 F8.0000
G1 X-0.0801 Y-0.1005 Z0.4671 F8.0000
G1 X-0.0942 Y-0.0874 Z0.4663 F8.0000
G1 X-0.1061 Y-0.0724 Z0.4655 F8.0000
G1 X-0.1158 Y-0.0558 Z0.4647 F8.0000
G1 X-0.1228 Y-0.0379 Z0.4640 F8.0000
G1 X-0.1271 Y-0.0192 Z0.4634 F8.0000
G1 X-0.1285 Y0.0000 Z0.4628 F8.0000
G1 X-0.1285 Y0.5117 Z0.4437 F8.0000
G1 X-0.1269 Y0.5317 Z0.4430 F8.0000
G1 X-0.1223 Y0.5511 Z0.4423 F8.0000
G1 X-0.1147 Y0.5696 Z0.4415 F8.0000
G1 X-0.1044 Y0.5867 Z0.4407 F8.0000
G1 X-0.0915 Y0.6020 Z0.4399 F8.0000
G1 X-0.0763 Y0.6151 Z0.4391 F8.0000
G1 X-0.0594 Y0.6257 Z0.4384 F8.0000
G1 X-0.0410 Y0.6335 Z0.4376 F8.0000
G1 X-0.0216 Y0.6384 Z0.4370 F8.0000
G1 X0.0544 Y0.6514 Z0.4341 F8.0000
G1 X0.1308 Y0.6619 Z0.4313 F8.0000
G1 X0.2075 Y0.6697 Z0.4284 F8.0000
G1 X0.2844 Y0.6749 Z0.4255 F8.0000
G1 X0.3615 Y0.6775 Z0.4226 F8.0000
G1 X0.4385 Y0.6775 Z0.4197 F8.0000
G1 X0.5156 Y0.6749 Z0.4168 F8.0000
G1 X0.5925 Y0.6697 Z0.4139 F8.0000
G1 X0.6692 Y0.6619 Z0.4110 F8.0000
G1 X0.7456 Y0.6514 Z0.4082 F8.0000
G1 X0.8216 Y0.6384 Z0.4053 F8.0000
G1 X0.8410 Y0.6335 Z0.4047 F8.0000
G1 X0.8594 Y0.6257 Z0.4039 F8.0000
G1 X0.8763 Y0.6151 Z0.4032 F8.0000
G1 X0.8915 Y0.6020 Z0.4024 F8.0000
G1 X0.9044 Y0.5867 Z0.4016 F8.0000
G1 X0.9147 Y0.5696 Z0.4008 F8.0000
G1 X0.9223 Y0.5511 Z0.4000 F8.0000
G1 X0.9269 Y0.5317 Z0.3993 F8.0000
G1 X0.9285 Y0.5117 Z0.3986 F8.0000
G1 X0.9285 Y0.0000 Z0.3795 F8.0000
G1 X0.9271 Y-0.0192 Z0.3789 F8.0000
G1 X0.9228 Y-0.0379 Z0.3783 F8.0000
G1 X0.9158 Y-0.0558 Z0.3776 F8.0000
G1 X0.9061 Y-0.0724 Z0.3768 F8.0000
G1 X0.8942 Y-0.0874 Z0.3760 F8.0000
G1 X0.8801 Y-0.1005 Z0.3752 F8.0000
G1 X0.8642 Y-0.1113 Z0.3744 F8.0000
G1 X0.8469 Y-0.1196 Z0.3736 F8.0000
G1 X0.8285 Y-0.1253 Z0.3728 F8.0000
G1 X0.8095 Y-0.1281 Z0.3721 F8.0000
G1 X0.7903 Y-0.1281 Z0.3715 F8.0000
G1 X0.7713 Y-0.1253 Z0.3709 F8.0000
G1 X0.7051 Y-0.1101 Z0.3684 F8.0000
G1 X0.6382 Y-0.0980 Z0.3659 F8.0000
G1 X0.5709 Y-0.0888 Z0.3633 F8.0000
G1 X0.5032 Y-0.0827 Z0.3608 F8.0000
G1 X0.4353 Y-0.0796 Z0.3582 F8.0000
G1 X0.3673 Y-0.0795 Z0.3557 F8.0000
G1 X0.2994 Y-0.0825 Z0.3531 F8.0000
G1 X0.2317 Y-0.0885 Z0.3506 F8.0000
G1 X0.1644 Y-0.0975 Z0.3480 F8.0000
G1 X0.0975 Y-0.1096 Z0.3455 F8.0000
G1 X0.0312 Y-0.1246 Z0.3430 F8.0000
G1 X0.0287 Y-0.1253 Z0.3429 F8.0000
G1 X0.0097 Y-0.1281 Z0.3423 F8.0000
G1 X-0.0095 Y-0.1281 Z0.3417 F8.0000
G1 X-0.0285 Y-0.1253 Z0.3410 F8.0000
G1 X-0.0469 Y-0.1196 Z0.3402 F8.0000
G1 X-0.0642 Y-0.1113 Z0.3394 F8.0000
G1 X-0.0801 Y-0.1005 Z0.3386 F8.0000
G1 X-0.0942 Y-0.0874 Z0.3378 F8.0000
G1 X-0.1061 Y-0.0724 Z0.3370 F8.0000
G1 X-0.1158 Y-0.0558 Z0.3362 F8.0000
G1 X-0.1228 Y-0.0379 Z0.3355 F8.0000
G1 X-0.1271 Y-0.0192 Z0.3349 F8.0000
G1 X-0.1285 Y0.0000 Z0.3343 F8.0000
G1 X-0.1285 Y0.5117 Z0.3152 F8.0000
G1 X-0.1269 Y0.5317 Z0.3145 F8.0000
G1 X-0.1223 Y0.5511 Z0.3138 F8.0000
G1 X-0.1147 Y0.5696 Z0.3130 F8.0000
G1 X-0.1044 Y0.5867 Z0.3122 F8.0000
G1 X-0.0915 Y0.6020 Z0.3114 F8.0000
G1 X-0.0763 Y0.6151 Z0.3106 F8.0000
G1 X-0.0594 Y0.6257 Z0.3099 F8.0000
G1 X-0.0410 Y0.6335 Z0.3091 F8.0000
G1 X-0.0216 Y0.6384 Z0.3085 F8.0000
G1 X0.0544 Y0.6514 Z0.3056 F8.0000
G1 X0.1308 Y0.6619 Z0.3028 F8.0000
G1 X0.2075 Y0.6697 Z0.2999 F8.0000
G1 X0.2844 Y0.6749 Z0.2970 F8.0000
G1 X0.3615 Y0.6775 Z0.2941 F8.0000
G1 X0.4385 Y0.6775 Z0.2912 F8.0000
G1 X0.5156 Y0.6749 Z0.2883 F8.0000
G1 X0.5925 Y0.6697 Z0.2854 F8.0000
G1 X0.6692 Y0.6619 Z0.2825 F8.0000
G1 X0.7456 Y0.6514 Z0.2797 F8.0000
G1 X0.8216 Y0.6384 Z0.2768 F8.0000
G1 X0.8410 Y0.6335 Z0.2762 F8.0000
G1 X0.8594 Y0.6257 Z0.2754 F8.0000
G1 X0.8763 Y0.6151 Z0.2747 F8.0000
G1 X0.8915 Y0.6020 Z0.2739 F8.0000
G1 X0.9044 Y0.5867 Z0.2731 F8.0000
G1 X0.9147 Y0.5696 Z0.2723 F8.0000
G1 X0.9223 Y0.5511 Z0.2715 F8.0000
G1 X0.9269 Y0.5317 Z0.2708 F8.0000
G1 X0.9285 Y0.5117 Z0.2701 F8.0000
G1 X0.9285 Y0.0000 Z0.2510 F8.0000
G1 X0.9271 Y-0.0192 Z0.2504 F8.0000
G1 X0.9228 Y-0.0379 Z0.2498 F8.0000
G1 X0.9158 Y-0.0558 Z0.2491 F8.0000
G1 X0.9061 Y-0.0724 Z0.2483 F8.0000
G1 X0.8942 Y-0.0874 Z0.2475 F8.0000
G1 X0.8801 Y-0.1005 Z0.2467 F8.0000
G1 X0.8642 Y-0.1113 Z0.2459 F8.0000
G1 X0.8469 Y-0.1196 Z0.2451 F8.0000
G1 X0.8285 Y-0.1253 Z0.2443 F8.0000
G1 X0.8095 Y-0.1281 Z0.2436 F8.0000
G1 X0.7903 Y-0.1281 Z0.2430 F8.0000
G1 X0.7713 Y-0.1253 Z0.2424 F8.0000
G1 X0.7051 Y-0.1101 Z0.2399 F8.0000
G1 X0.6382 Y-0.0980 Z0.2374 F8.0000
G1 X0.5709 Y-0.0888 Z0.2348 F8.0000
G1 X0.5032 Y-0.0827 Z0.2323 F8.0000
G1 X0.4353 Y-0.0796 Z0.2297 F8.0000
G1 X0.3673 Y-0.0795 Z0.2272 F8.0000
G1 X0.2994 Y-0.0825 Z0.2246 F8.0000
G1 X0.2317 Y-0.0885 Z0.2221 F8.0000
G1 X0.1644 Y-0.0975 Z0.2195 F8.0000
G1 X0.0975 Y-0.1096 Z0.2170 F8.0000
G1 X0.0312 Y-0.1246 Z0.2145 F8.0000
G1 X0.0287 Y-0.1253 Z0.2144 F8.0000
G1 X0.0097 Y-0.1281 Z0.2138 F8.0000
G1 X-0.0095 Y-0.1281 Z0.2132 F8.0000
G1 X-0.0285 Y-0.1253 Z0.2125 F8.0000
G1 X-0.0469 Y-0.1196 Z0.2117 F8.0000
G1 X-0.0642 Y-0.1113 Z0.2109 F8.0000
G1 X-0.0801 Y-0.1005 Z0.2101 F8.0000
G1 X-0.0942 Y-0.0874 Z0.2093 F8.0000
G1 X-0.1061 Y-0.0724 Z0.2085 F8.0000
G1 X-0.1158 Y-0.0558 Z0.2077 F8.0000
G1 X-0.1228 Y-0.0379 Z0.2070 F8.0000
G1 X-0.1271 Y-0.0192 Z0.2064 F8.0000
G1 X-0.1285 Y0.0000 Z0.2058 F8.0000
G1 X-0.1285 Y0.5117 Z0.1867 F8.0000
G1 X-0.1269 Y0.5317 Z0.1860 F8.0000
G1 X-0.1223 Y0.5511 Z0.1853 F8.0000
G1 X-0.1147 Y0.5696 Z0.1845 F8.0000
G1 X-0.1044 Y0.5867 Z0.1837 F8.0000
G1 X-0.0915 Y0.6020 Z0.1829 F8.0000
G1 X-0.0763 Y0.6151 Z0.1821 F8.0000
G1 X-0.0594 Y0.6257 Z0.1814 F8.0000
G1 X-0.0410 Y0.6335 Z0.1806 F8.0000
G1 X-0.0216 Y0.6384 Z0.1800 F8.0000
G1 X0.0544 Y0.6514 Z0.1771 F8.0000
G1 X0.1308 Y0.6619 Z0.1743 F8.0000
G1 X0.2075 Y0.6697 Z0.1714 F8.0000
G1 X0.2844 Y0.6749 Z0.1685 F8.0000
G1 X0.3615 Y0.6775 Z0.1656 F8.0000
G1 X0.4385 Y0.6775 Z0.1627 F8.0000
G1 X0.5156 Y0.6749 Z0.1598 F8.0000
G1 X0.5925 Y0.6697 Z0.1569 F8.0000
G1 X0.6692 Y0.6619 Z0.1540 F8.0000
G1 X0.7456 Y0.6514 Z0.1512 F8.0000
G1 X0.8216 Y0.6384 Z0.1483 F8.0000
G1 X0.8410 Y0.6335 Z0.1477 F8.0000
G1 X0.8594 Y0.6257 Z0.1469 F8.0000
G1 X0.8763 Y0.6151 Z0.1462 F8.0000
G1 X0.8915 Y0.6020 Z0.1454 F8.0000
G1 X0.9044 Y0.5867 Z0.1446 F8.0000
G1 X0.9147 Y0.5696 Z0.1438 F8.0000
G1 X0.9223 Y0.5511 Z0.1430 F8.0000
G1 X0.9269 Y0.5317 Z0.1423 F8.0000
G1 X0.9285 Y0.5117 Z0.1416 F8.0000
G1 X0.9285 Y0.0000 Z0.1225 F8.0000
G1 X0.9271 Y-0.0192 Z0.1219 F8.0000
G1 X0.9228 Y-0.0379 Z0.1213 F8.0000
G1 X0.9158 Y-0.0558 Z0.1206 F8.0000
G1 X0.9061 Y-0.0724 Z0.1198 F8.0000
G1 X0.8942 Y-0.0874 Z0.1190 F8.0000
G1 X0.8801 Y-0.1005 Z0.1182 F8.0000
G1 X0.8642 Y-0.1113 Z0.1174 F8.0000
G1 X0.8469 Y-0.1196 Z0.1166 F8.0000
G1 X0.8285 Y-0.1253 Z0.1158 F8.0000
G1 X0.8095 Y-0.1281 Z0.1151 F8.0000
G1 X0.7903 Y-0.1281 Z0.1145 F8.0000
G1 X0.7713 Y-0.1253 Z0.1139 F8.0000
G1 X0.7051 Y-0.1101 Z0.1114 F8.0000
G1 X0.6382 Y-0.0980 Z0.1089 F8.0000
G1 X0.5709 Y-0.0888 Z0.1063 F8.0000
G1 X0.5032 Y-0.0827 Z0.1038 F8.0000
G1 X0.4353 Y-0.0796 Z0.1012 F8.0000
G1 X0.3673 Y-0.0795 Z0.0987 F8.0000
G1 X0.2994 Y-0.0825 Z0.0961 F8.0000
G1 X0.2317 Y-0.0885 Z0.0936 F8.0000
G1 X0.1644 Y-0.0975 Z0.0910 F8.0000
G1 X0.0975 Y-0.1096 Z0.0885 F8.0000
G1 X0.0312 Y-0.1246 Z0.0860 F8.0000
G1 X0.0287 Y-0.1253 Z0.0859 F8.0000
G1 X0.0097 Y-0.1281 Z0.0856 F8.0000
G1 X-0.0095 Y-0.1281 Z0.0851 F8.0000
G1 X-0.0285 Y-0.1253 Z0.0847 F8.0000
G1 X-0.0469 Y-0.1196 Z0.0841 F8.0000
G1 X-0.0642 Y-0.1113 Z0.0836 F8.0000
G1 X-0.0801 Y-0.1005 Z0.0831 F8.0000
G1 X-0.0942 Y-0.0874 Z0.0825 F8.0000
G1 X-0.1062 Y-0.0724 Z0.0820 F8.0000
G1 X-0.1158 Y-0.0558 Z0.0815 F8.0000
G1 X-0.1228 Y-0.0379 Z0.0810 F8.0000
G1 X-0.1271 Y-0.0192 Z0.0805 F8.0000
G1 X-0.1285 Y0.0000 Z0.0802 F8.0000
G1 X-0.1285 Y0.5117 Z0.0674 F8.0000
G1 X-0.1269 Y0.5317 Z0.0670 F8.0000
G1 X-0.1223 Y0.5511 Z0.0665 F8.0000
G1 X-0.1147 Y0.5696 Z0.0659 F8.0000
G1 X-0.1044 Y0.5867 Z0.0654 F8.0000
G1 X-0.0915 Y0.6020 Z0.0649 F8.0000
G1 X-0.0763 Y0.6151 Z0.0643 F8.0000
G1 X-0.0594 Y0.6257 Z0.0638 F8.0000
G1 X-0.0410 Y0.6335 Z0.0633 F8.0000
G1 X-0.0216 Y0.6384 Z0.0629 F8.0000
G1 X0.0544 Y0.6514 Z0.0610 F8.0000
G1 X0.1308 Y0.6619 Z0.0591 F8.0000
G1 X0.2075 Y0.6697 Z0.0571 F8.0000
G1 X0.2844 Y0.6749 Z0.0552 F8.0000
G1 X0.3615 Y0.6775 Z0.0533 F8.0000
G1 X0.4385 Y0.6775 Z0.0513 F8.0000
G1 X0.5156 Y0.6749 Z0.0494 F8.0000
G1 X0.5925 Y0.6697 Z0.0475 F8.0000
G1 X0.6692 Y0.6619 Z0.0455 F8.0000
G1 X0.7456 Y0.6514 Z0.0436 F8.0000
G1 X0.8216 Y0.6384 Z0.0417 F8.0000
G1 X0.8410 Y0.6335 Z0.0413 F8.0000
G1 X0.8594 Y0.6257 Z0.0408 F8.0000
G1 X0.8763 Y0.6151 Z0.0403 F8.0000
G1 X0.8915 Y0.6020 Z0.0397 F8.0000
G1 X0.9044 Y0.5867 Z0.0392 F8.0000
G1 X0.9147 Y0.5696 Z0.0387 F8.0000
G1 X0.9223 Y0.5511 Z0.0381 F8.0000
G1 X0.9269 Y0.5317 Z0.0377 F8.0000
G1 X0.9285 Y0.5117 Z0.0372 F8.0000
G1 X0.9285 Y0.0000 Z0.0244 F8.0000
G1 X0.9271 Y-0.0192 Z0.0241 F8.0000
G1 X0.9228 Y-0.0379 Z0.0236 F8.0000
G1 X0.9158 Y-0.0558 Z0.0232 F8.0000
G1 X0.9062 Y-0.0724 Z0.0226 F8.0000
G1 X0.8942 Y-0.0874 Z0.0221 F8.0000
G1 X0.8801 Y-0.1005 Z0.0216 F8.0000
G1 X0.8642 Y-0.1113 Z0.0210 F8.0000
G1 X0.8469 Y-0.1196 Z0.0205 F8.0000
G1 X0.8285 Y-0.1253 Z0.0200 F8.0000
G1 X0.8095 Y-0.1281 Z0.0195 F8.0000
G1 X0.7903 Y-0.1281 Z0.0190 F8.0000
G1 X0.7713 Y-0.1253 Z0.0187 F8.0000
G1 X0.7051 Y-0.1101 Z0.0170 F8.0000
G1 X0.6382 Y-0.0980 Z0.0153 F8.0000
G1 X0.5709 Y-0.0888 Z0.0136 F8.0000
G1 X0.5032 Y-0.0827 Z0.0119 F8.0000
G1 X0.4353 Y-0.0796 Z0.0102 F8.0000
G1 X0.3673 Y-0.0795 Z0.0085 F8.0000
G1 X0.2994 Y-0.0825 Z0.0068 F8.0000
G1 X0.2317 Y-0.0885 Z0.0051 F8.0000
G1 X0.1644 Y-0.0975 Z0.0034 F8.0000
G1 X0.0975 Y-0.1096 Z0.0017 F8.0000
G1 X0.0312 Y-0.1246 Z0.0000 F8.0000
G3 X0.0287 Y-0.1253 Z0.0000 I0.3688 J-1.4728 K0.0000 F8.0000
G2 X-0.1285 Y0.0000 Z0.0000 I-0.0287 J0.1253 K0.0000 F8.0000
G1 X-0.1285 Y0.5117 Z0.0000 F8.0000
G2 X-0.0216 Y0.6384 Z0.0000 I0.1285 J-0.0000 K0.0000 F8.0000
G2 X0.8216 Y0.6384 Z0.0000 I0.4216 J-2.2340 K0.0000 F8.0000
G2 X0.9285 Y0.5117 Z0.0000 I-0.0216 J-0.1267 K0.0000 F8.0000
G1 X0.9285 Y0.0000 Z0.0000 F8.0000
G2 X0.7713 Y-0.1253 Z0.0000 I-0.1285 J-0.0000 K0.0000 F8.0000
G3 X0.0312 Y-0.1246 Z0.0000 I-0.3713 J-1.4722 K0.0000 F8.0000
G0 X0.0312 Y-0.1246 Z0.7970
(Finish operation: RampEntryDressup002)
(Coolant Off:Flood)
M9
(Begin postamble)
M5
G17 G90
M2
