(Exported by FreeCAD)
(Post Processor: grbl_post)
(Output Time:2026-04-15 08:50:31.913054)
(Begin preamble)
G17 G90
G20
(Begin operation: Fixture)
(Path: Fixture)
G54
(Finish operation: Fixture)
(Begin operation: TC: 516-alcrn)
(Path: TC: 516-alcrn)
(TC: 516-alcrn)
(Begin toolchange)
( M6 T2 )
M3 S1000
m7
(Finish operation: TC: 516-alcrn)
(Begin operation: Helix)
(Path: Helix)
(Helix)
(helix cut operation)
G0 Z0.3969
G0 Z0.3969
G0 X0.0000 Y0.0000 Z0.3969
G0 X0.0000 Y0.0000 Z0.2000
G0 X0.1565 Y0.0000
G1 Z0.2000 F2.0000
G3 X-0.1565 Y0.0000 Z0.1500 I-0.1565 J0.0000 F15.0000
G3 X0.1565 Y0.0000 Z0.1000 I0.1565 J0.0000 F15.0000
G3 X-0.1565 Y0.0000 Z0.0500 I-0.1565 J0.0000 F15.0000
G3 X0.1565 Y0.0000 Z0.0000 I0.1565 J0.0000 F15.0000
G3 X-0.1565 Y0.0000 Z0.0000 I-0.1565 J0.0000 F15.0000
G3 X0.1565 Y0.0000 Z0.0000 I0.1565 J0.0000 F15.0000
G0 X0.0000 Y0.0000 Z0.0000
G0 Z0.2000
G0 X0.2855 Y0.0000
G1 Z0.2000 F2.0000
G3 X-0.2855 Y0.0000 Z0.1500 I-0.2855 J0.0000 F15.0000
G3 X0.2855 Y0.0000 Z0.1000 I0.2855 J0.0000 F15.0000
G3 X-0.2855 Y0.0000 Z0.0500 I-0.2855 J0.0000 F15.0000
G3 X0.2855 Y0.0000 Z0.0000 I0.2855 J0.0000 F15.0000
G3 X-0.2855 Y0.0000 Z0.0000 I-0.2855 J0.0000 F15.0000
G3 X0.2855 Y0.0000 Z0.0000 I0.2855 J0.0000 F15.0000
G0 X0.0000 Y0.0000 Z0.0000
G0 Z0.2000
G0 X0.4145 Y0.0000
G1 Z0.2000 F2.0000
G3 X-0.4145 Y0.0000 Z0.1500 I-0.4145 J0.0000 F15.0000
G3 X0.4145 Y0.0000 Z0.1000 I0.4145 J0.0000 F15.0000
G3 X-0.4145 Y0.0000 Z0.0500 I-0.4145 J0.0000 F15.0000
G3 X0.4145 Y0.0000 Z0.0000 I0.4145 J0.0000 F15.0000
G3 X-0.4145 Y0.0000 Z0.0000 I-0.4145 J0.0000 F15.0000
G3 X0.4145 Y0.0000 Z0.0000 I0.4145 J0.0000 F15.0000
G0 X0.0000 Y0.0000 Z0.0000
G0 Z0.2000
G0 X0.5435 Y0.0000
G1 Z0.2000 F2.0000
G3 X-0.5435 Y0.0000 Z0.1500 I-0.5435 J0.0000 F15.0000
G3 X0.5435 Y0.0000 Z0.1000 I0.5435 J0.0000 F15.0000
G3 X-0.5435 Y0.0000 Z0.0500 I-0.5435 J0.0000 F15.0000
G3 X0.5435 Y0.0000 Z0.0000 I0.5435 J0.0000 F15.0000
G3 X-0.5435 Y0.0000 Z0.0000 I-0.5435 J0.0000 F15.0000
G3 X0.5435 Y0.0000 Z0.0000 I0.5435 J0.0000 F15.0000
G0 X0.0000 Y0.0000 Z0.0000
G0 Z0.2000
G0 Z0.3969
(Finish operation: Helix)
(Begin postamble)
m9
M5
G17 G90
M2
