(Exported by FreeCAD)
(Post Processor: grbl_post)
(Output Time:2024-01-03 20:55:04.521824)
(Begin preamble)
G17 G90
G20
(Begin operation: Fixture)
(Path: Fixture)
G54
(Finish operation: Fixture)
(Begin operation: 716_endmill001)
(Path: 716_endmill001)
(716_endmill001)
(Begin toolchange)
( M6 T2 )
M3 S1000
G4 P2
(Finish operation: 716_endmill001)
(Begin operation: Pocket_Shape)
(Path: Pocket_Shape)
(Pocket_Shape)

G1 X1.3494 Y0.9994 f10

G1 X1.3494 Y0.9994  F10.0000
G1 X1.3439 Y0.9997  F10.0000
G1 X0.3249 Y0.9997  F10.0000
G1 X0.3193 Y0.9994  F10.0000
G1 X0.3190 Y0.9939  F10.0000
G1 X0.3190 Y0.3249  F10.0000
G1 X0.3193 Y0.3193  F10.0000
G1 X0.3249 Y0.3190  F10.0000
G1 X1.3439 Y0.3190  F10.0000
G1 X1.3494 Y0.3193  F10.0000
G1 X1.3497 Y0.3249  F10.0000
G1 X1.3497 Y0.9939  F10.0000
G1 X1.3494 Y0.9994  F10.0000

G1 X1.2622 Y0.9121  F10.0000
G1 X0.4066 Y0.9121  F10.0000
G1 X0.4066 Y0.4066  F10.0000
G1 X1.2622 Y0.4066  F10.0000
G1 X1.2622 Y0.9121  F10.0000

G1 X1.1745 Y0.8246  F10.0000
G1 X0.4942 Y0.8246  F10.0000
G1 X0.4942 Y0.4942  F10.0000
G1 X1.1745 Y0.4942  F10.0000
G1 X1.1745 Y0.8246  F10.0000

G1 X1.0870 Y0.7369  F10.0000
G1 X0.5818 Y0.7369  F10.0000
G1 X0.5818 Y0.5818  F10.0000
G1 X1.0870 Y0.5818  F10.0000
G1 X1.0870 Y0.7369  F10.0000


(Finish operation: Pocket_Shape)
(Begin postamble)
M5

M2

