(Exported by FreeCAD)
(Post Processor: script_module)
(Output Time:2025-01-28 11:43:46.939412)
(Begin preamble)
G17 G90
G20
(Begin operation: Fixture)
(Path: Fixture)
G54
(Finish operation: Fixture)
(Begin operation: 365_endmill001)
(Path: 365_endmill001)
(365_endmill001)
(Begin toolchange)
( M6 T2 )
M3 S1000
(Finish operation: 365_endmill001)
(Begin operation: MillFace)
(Coolant On:Flood)
M8
(Path: MillFace)
(MillFace)
G0 Z0.9969
G0 X0.0000 Y0.0000
G0 X0.0161 Y0.0161
G0 X0.0161 Y0.0161 Z0.9181
G1 X0.0161 Y0.0161 Z0.7500 F2.0000
G3 X0.0681 Y-0.0036 Z0.7500 I0.0479 J0.0479 K0.0000 F15.0000
G1 X3.6819 Y-0.0036 Z0.7500 F15.0000
G3 X3.7537 Y0.0681 Z0.7500 I0.0041 J0.0677 K0.0000 F15.0000
G1 X3.7537 Y0.9945 Z0.7500 F15.0000
G3 X3.7519 Y1.0027 Z0.7500 I-0.0066 J0.0029 K0.0000 F15.0000
G3 X3.7445 Y1.0036 Z0.7500 I-0.0049 J-0.0095 K0.0000 F15.0000
G1 X0.0055 Y1.0037 Z0.7500 F15.0000
G3 X-0.0027 Y1.0019 Z0.7500 I-0.0029 J-0.0066 K0.0000 F15.0000
G3 X-0.0036 Y0.9945 Z0.7500 I0.0095 J-0.0049 K0.0000 F15.0000
G1 X-0.0036 Y0.0681 Z0.7500 F15.0000
G3 X0.0161 Y0.0161 Z0.7500 I0.0677 J-0.0041 K0.0000 F15.0000
G1 X0.0694 Y0.0694 Z0.7500 F2.0000
G3 X0.0702 Y0.0694 Z0.7500 I0.0004 J0.0004 K0.0000 F15.0000
G1 X3.6798 Y0.0694 Z0.7500 F15.0000
G3 X3.6807 Y0.0702 Z0.7500 I0.0004 J0.0005 K0.0000 F15.0000
G1 X3.6807 Y0.9306 Z0.7500 F15.0000
G1 X0.0694 Y0.9307 Z0.7500 F15.0000
G1 X0.0694 Y0.0702 Z0.7500 F15.0000
G3 X0.0694 Y0.0694 Z0.7500 I0.0005 J-0.0004 K0.0000 F15.0000
G1 X0.1424 Y0.1424 Z0.7500 F2.0000
G1 X3.6076 Y0.1424 Z0.7500 F15.0000
G1 X3.6076 Y0.8576 Z0.7500 F15.0000
G1 X0.1424 Y0.8576 Z0.7500 F15.0000
G1 X0.1424 Y0.1424 Z0.7500 F15.0000
G1 X0.2154 Y0.2154 Z0.7500 F2.0000
G1 X3.5346 Y0.2154 Z0.7500 F15.0000
G1 X3.5346 Y0.7846 Z0.7500 F15.0000
G1 X0.2154 Y0.7846 Z0.7500 F15.0000
G1 X0.2154 Y0.2154 Z0.7500 F15.0000
G1 X0.2884 Y0.2884 Z0.7500 F2.0000
G1 X3.4616 Y0.2884 Z0.7500 F15.0000
G1 X3.4616 Y0.7116 Z0.7500 F15.0000
G1 X0.2884 Y0.7116 Z0.7500 F15.0000
G1 X0.2884 Y0.2884 Z0.7500 F15.0000
G1 X0.3614 Y0.3614 Z0.7500 F2.0000
G1 X3.3886 Y0.3614 Z0.7500 F15.0000
G1 X3.3886 Y0.6386 Z0.7500 F15.0000
G1 X0.3614 Y0.6386 Z0.7500 F15.0000
G1 X0.3614 Y0.3614 Z0.7500 F15.0000
G1 X0.4344 Y0.4344 Z0.7500 F2.0000
G1 X3.3156 Y0.4344 Z0.7500 F15.0000
G1 X3.3156 Y0.5656 Z0.7500 F15.0000
G1 X0.4344 Y0.5656 Z0.7500 F15.0000
G1 X0.4344 Y0.4344 Z0.7500 F15.0000
G0 Z0.9969
G0 Z0.9969
(Finish operation: MillFace)
(Coolant Off:Flood)
M9
(Begin operation: MillFace001)
(Coolant On:Flood)
M8
(Path: MillFace001)
(MillFace001)
G0 Z0.9969
G0 X0.0000 Y0.0000
G0 X0.0030 Y1.9961
G0 X0.0030 Y1.9961 Z0.9181
G1 X0.0030 Y1.9961 Z0.7500 F2.0000
G3 X0.0055 Y1.9964 Z0.7500 I0.0000 J0.0107 K0.0000 F15.0000
G1 X3.7445 Y1.9964 Z0.7500 F15.0000
G3 X3.7527 Y1.9981 Z0.7500 I0.0029 J0.0066 K0.0000 F15.0000
G3 X3.7537 Y2.0055 Z0.7500 I-0.0095 J0.0049 K0.0000 F15.0000
G1 X3.7537 Y2.9319 Z0.7500 F15.0000
G3 X3.6819 Y3.0037 Z0.7500 I-0.0677 J0.0041 K0.0000 F15.0000
G1 X0.0681 Y3.0037 Z0.7500 F15.0000
G3 X-0.0036 Y2.9319 Z0.7500 I-0.0041 J-0.0677 K0.0000 F15.0000
G1 X-0.0036 Y2.0055 Z0.7500 F15.0000
G3 X-0.0019 Y1.9973 Z0.7500 I0.0066 J-0.0029 K0.0000 F15.0000
G3 X0.0030 Y1.9961 Z0.7500 I0.0049 J0.0095 K0.0000 F15.0000
G1 X0.0694 Y2.0694 Z0.7500 F2.0000
G1 X3.6807 Y2.0694 Z0.7500 F15.0000
G1 X3.6807 Y2.9298 Z0.7500 F15.0000
G3 X3.6798 Y2.9307 Z0.7500 I-0.0005 J0.0004 K0.0000 F15.0000
G1 X0.0702 Y2.9307 Z0.7500 F15.0000
G3 X0.0694 Y2.9298 Z0.7500 I-0.0004 J-0.0005 K0.0000 F15.0000
G1 X0.0694 Y2.0694 Z0.7500 F15.0000
G1 X0.1424 Y2.1424 Z0.7500 F2.0000
G1 X3.6076 Y2.1424 Z0.7500 F15.0000
G1 X3.6076 Y2.8576 Z0.7500 F15.0000
G1 X0.1424 Y2.8576 Z0.7500 F15.0000
G1 X0.1424 Y2.1424 Z0.7500 F15.0000
G1 X0.2154 Y2.2154 Z0.7500 F2.0000
G1 X3.5346 Y2.2154 Z0.7500 F15.0000
G1 X3.5346 Y2.7846 Z0.7500 F15.0000
G1 X0.2154 Y2.7846 Z0.7500 F15.0000
G1 X0.2154 Y2.2154 Z0.7500 F15.0000
G1 X0.2884 Y2.2884 Z0.7500 F2.0000
G1 X3.4616 Y2.2884 Z0.7500 F15.0000
G1 X3.4616 Y2.7116 Z0.7500 F15.0000
G1 X0.2884 Y2.7116 Z0.7500 F15.0000
G1 X0.2884 Y2.2884 Z0.7500 F15.0000
G1 X0.3614 Y2.3614 Z0.7500 F2.0000
G1 X3.3886 Y2.3614 Z0.7500 F15.0000
G1 X3.3886 Y2.6386 Z0.7500 F15.0000
G1 X0.3614 Y2.6386 Z0.7500 F15.0000
G1 X0.3614 Y2.3614 Z0.7500 F15.0000
G1 X0.4344 Y2.4344 Z0.7500 F2.0000
G1 X3.3156 Y2.4344 Z0.7500 F15.0000
G1 X3.3156 Y2.5656 Z0.7500 F15.0000
G1 X0.4344 Y2.5656 Z0.7500 F15.0000
G1 X0.4344 Y2.4344 Z0.7500 F15.0000
G0 Z0.9969
G0 Z0.9969
(Finish operation: MillFace001)
(Coolant Off:Flood)
M9
(Begin postamble)
M5
G17 G90
M2
