(Exported by FreeCAD)
(Post Processor: script_module)
(Output Time:2025-01-28 14:49:06.052537)
(Begin preamble)
G17 G90
G20
(Begin operation: Fixture)
(Path: Fixture)
G54
(Finish operation: Fixture)
(Begin operation: half_broke_endmill001)
(Path: half_broke_endmill001)
(half_broke_endmill001)
(Begin toolchange)
( M6 T2 )
M3 S1000
(Finish operation: half_broke_endmill001)
(Begin operation: MillFace)
(Coolant On:Flood)
M7
M8
(Path: MillFace)
(MillFace)
G0 Z0.8949
G0 X0.0000 Y0.0000
G0 X-1.2450 Y0.3799
G0 X-1.2450 Y0.3799 Z0.8161
G1 X-1.2450 Y0.3799 Z0.5180 F5.0000
G1 X-1.2450 Y-0.3799 Z0.5180 F10.0000
G2 X-1.2546 Y-0.3760 Z0.5180 I-0.0031 J0.0060 K0.0000 F10.0000
G2 X-1.2550 Y-0.3685 Z0.5180 I0.0355 J0.0059 K0.0000 F10.0000
G1 X-1.2550 Y0.3685 Z0.5180 F10.0000
G2 X-1.2531 Y0.3785 Z0.5180 I0.0093 J0.0034 K0.0000 F10.0000
G2 X-1.2450 Y0.3799 Z0.5180 I0.0056 J-0.0077 K0.0000 F10.0000
G1 X-1.2435 Y0.3800 Z0.5180 F10.0000
G1 X-1.1450 Y0.3800 Z0.5180 F10.0000
G1 X-1.1450 Y-0.3800 Z0.5180 F10.0000
G1 X-1.0450 Y-0.3800 Z0.5180 F10.0000
G1 X-1.0450 Y0.3800 Z0.5180 F10.0000
G1 X-0.9450 Y0.3800 Z0.5180 F10.0000
G1 X-0.9450 Y-0.3800 Z0.5180 F10.0000
G1 X-0.8450 Y-0.3800 Z0.5180 F10.0000
G1 X-0.8450 Y0.3800 Z0.5180 F10.0000
G1 X-0.7450 Y0.3800 Z0.5180 F10.0000
G1 X-0.7450 Y-0.3800 Z0.5180 F10.0000
G1 X-0.6450 Y-0.3800 Z0.5180 F10.0000
G1 X-0.6450 Y0.3800 Z0.5180 F10.0000
G1 X-0.5450 Y0.3800 Z0.5180 F10.0000
G1 X-0.5450 Y-0.3800 Z0.5180 F10.0000
G1 X-0.4450 Y-0.3800 Z0.5180 F10.0000
G1 X-0.4450 Y0.3800 Z0.5180 F10.0000
G1 X-0.3450 Y0.3800 Z0.5180 F10.0000
G1 X-0.3450 Y-0.3800 Z0.5180 F10.0000
G1 X-0.2450 Y-0.3800 Z0.5180 F10.0000
G1 X-0.2450 Y0.3800 Z0.5180 F10.0000
G1 X-0.1450 Y0.3800 Z0.5180 F10.0000
G1 X-0.1450 Y-0.3800 Z0.5180 F10.0000
G1 X-0.0450 Y-0.3800 Z0.5180 F10.0000
G1 X-0.0450 Y0.3800 Z0.5180 F10.0000
G1 X0.0550 Y0.3800 Z0.5180 F10.0000
G1 X0.0550 Y-0.3800 Z0.5180 F10.0000
G1 X0.1550 Y-0.3800 Z0.5180 F10.0000
G1 X0.1550 Y0.3800 Z0.5180 F10.0000
G1 X0.2550 Y0.3800 Z0.5180 F10.0000
G1 X0.2550 Y-0.3800 Z0.5180 F10.0000
G1 X0.3550 Y-0.3800 Z0.5180 F10.0000
G1 X0.3550 Y0.3800 Z0.5180 F10.0000
G1 X0.4550 Y0.3800 Z0.5180 F10.0000
G1 X0.4550 Y-0.3800 Z0.5180 F10.0000
G1 X0.5550 Y-0.3800 Z0.5180 F10.0000
G1 X0.5550 Y0.3800 Z0.5180 F10.0000
G1 X0.6550 Y0.3800 Z0.5180 F10.0000
G1 X0.6550 Y-0.3800 Z0.5180 F10.0000
G1 X0.7550 Y-0.3800 Z0.5180 F10.0000
G1 X0.7550 Y0.3800 Z0.5180 F10.0000
G1 X0.8550 Y0.3800 Z0.5180 F10.0000
G1 X0.8550 Y-0.3800 Z0.5180 F10.0000
G1 X0.9550 Y-0.3800 Z0.5180 F10.0000
G1 X0.9550 Y0.3800 Z0.5180 F10.0000
G1 X1.0550 Y0.3800 Z0.5180 F10.0000
G1 X1.0550 Y-0.3800 Z0.5180 F10.0000
G1 X1.1550 Y-0.3800 Z0.5180 F10.0000
G1 X1.1550 Y0.3800 Z0.5180 F10.0000
G1 X1.2435 Y0.3800 Z0.5180 F10.0000
G2 X1.2531 Y0.3785 Z0.5180 I0.0032 J-0.0107 K0.0000 F10.0000
G2 X1.2550 Y0.3685 Z0.5180 I-0.0074 J-0.0066 K0.0000 F10.0000
G1 X1.2550 Y-0.3685 Z0.5180 F10.0000
G1 X1.2550 Y-0.3685 Z0.3380 F5.0000
G1 X1.2550 Y0.3685 Z0.3380 F10.0000
G3 X1.2531 Y0.3785 Z0.3380 I-0.0093 J0.0034 K0.0000 F10.0000
G3 X1.2435 Y0.3800 Z0.3380 I-0.0064 J-0.0092 K0.0000 F10.0000
G1 X1.1550 Y0.3800 Z0.3380 F10.0000
G1 X1.1550 Y-0.3800 Z0.3380 F10.0000
G1 X1.0550 Y-0.3800 Z0.3380 F10.0000
G1 X1.0550 Y0.3800 Z0.3380 F10.0000
G1 X0.9550 Y0.3800 Z0.3380 F10.0000
G1 X0.9550 Y-0.3800 Z0.3380 F10.0000
G1 X0.8550 Y-0.3800 Z0.3380 F10.0000
G1 X0.8550 Y0.3800 Z0.3380 F10.0000
G1 X0.7550 Y0.3800 Z0.3380 F10.0000
G1 X0.7550 Y-0.3800 Z0.3380 F10.0000
G1 X0.6550 Y-0.3800 Z0.3380 F10.0000
G1 X0.6550 Y0.3800 Z0.3380 F10.0000
G1 X0.5550 Y0.3800 Z0.3380 F10.0000
G1 X0.5550 Y-0.3800 Z0.3380 F10.0000
G1 X0.4550 Y-0.3800 Z0.3380 F10.0000
G1 X0.4550 Y0.3800 Z0.3380 F10.0000
G1 X0.3550 Y0.3800 Z0.3380 F10.0000
G1 X0.3550 Y-0.3800 Z0.3380 F10.0000
G1 X0.2550 Y-0.3800 Z0.3380 F10.0000
G1 X0.2550 Y0.3800 Z0.3380 F10.0000
G1 X0.1550 Y0.3800 Z0.3380 F10.0000
G1 X0.1550 Y-0.3800 Z0.3380 F10.0000
G1 X0.0550 Y-0.3800 Z0.3380 F10.0000
G1 X0.0550 Y0.3800 Z0.3380 F10.0000
G1 X-0.0450 Y0.3800 Z0.3380 F10.0000
G1 X-0.0450 Y-0.3800 Z0.3380 F10.0000
G1 X-0.1450 Y-0.3800 Z0.3380 F10.0000
G1 X-0.1450 Y0.3800 Z0.3380 F10.0000
G1 X-0.2450 Y0.3800 Z0.3380 F10.0000
G1 X-0.2450 Y-0.3800 Z0.3380 F10.0000
G1 X-0.3450 Y-0.3800 Z0.3380 F10.0000
G1 X-0.3450 Y0.3800 Z0.3380 F10.0000
G1 X-0.4450 Y0.3800 Z0.3380 F10.0000
G1 X-0.4450 Y-0.3800 Z0.3380 F10.0000
G1 X-0.5450 Y-0.3800 Z0.3380 F10.0000
G1 X-0.5450 Y0.3800 Z0.3380 F10.0000
G1 X-0.6450 Y0.3800 Z0.3380 F10.0000
G1 X-0.6450 Y-0.3800 Z0.3380 F10.0000
G1 X-0.7450 Y-0.3800 Z0.3380 F10.0000
G1 X-0.7450 Y0.3800 Z0.3380 F10.0000
G1 X-0.8450 Y0.3800 Z0.3380 F10.0000
G1 X-0.8450 Y-0.3800 Z0.3380 F10.0000
G1 X-0.9450 Y-0.3800 Z0.3380 F10.0000
G1 X-0.9450 Y0.3800 Z0.3380 F10.0000
G1 X-1.0450 Y0.3800 Z0.3380 F10.0000
G1 X-1.0450 Y-0.3800 Z0.3380 F10.0000
G1 X-1.1450 Y-0.3800 Z0.3380 F10.0000
G1 X-1.1450 Y0.3800 Z0.3380 F10.0000
G1 X-1.2435 Y0.3800 Z0.3380 F10.0000
G1 X-1.2450 Y0.3799 Z0.3380 F10.0000
G3 X-1.2531 Y0.3785 Z0.3380 I-0.0025 J-0.0092 K0.0000 F10.0000
G3 X-1.2550 Y0.3685 Z0.3380 I0.0074 J-0.0066 K0.0000 F10.0000
G1 X-1.2550 Y-0.3685 Z0.3380 F10.0000
G3 X-1.2546 Y-0.3760 Z0.3380 I0.0360 J-0.0016 K0.0000 F10.0000
G3 X-1.2450 Y-0.3799 Z0.3380 I0.0064 J0.0021 K0.0000 F10.0000
G1 X-1.2450 Y0.3799 Z0.3380 F10.0000
G1 X-1.2450 Y0.3799 Z0.1580 F5.0000
G1 X-1.2450 Y-0.3799 Z0.1580 F10.0000
G2 X-1.2546 Y-0.3760 Z0.1580 I-0.0031 J0.0060 K0.0000 F10.0000
G2 X-1.2550 Y-0.3685 Z0.1580 I0.0355 J0.0059 K0.0000 F10.0000
G1 X-1.2550 Y0.3685 Z0.1580 F10.0000
G2 X-1.2531 Y0.3785 Z0.1580 I0.0093 J0.0034 K0.0000 F10.0000
G2 X-1.2450 Y0.3799 Z0.1580 I0.0056 J-0.0077 K0.0000 F10.0000
G1 X-1.2435 Y0.3800 Z0.1580 F10.0000
G1 X-1.1450 Y0.3800 Z0.1580 F10.0000
G1 X-1.1450 Y-0.3800 Z0.1580 F10.0000
G1 X-1.0450 Y-0.3800 Z0.1580 F10.0000
G1 X-1.0450 Y0.3800 Z0.1580 F10.0000
G1 X-0.9450 Y0.3800 Z0.1580 F10.0000
G1 X-0.9450 Y-0.3800 Z0.1580 F10.0000
G1 X-0.8450 Y-0.3800 Z0.1580 F10.0000
G1 X-0.8450 Y0.3800 Z0.1580 F10.0000
G1 X-0.7450 Y0.3800 Z0.1580 F10.0000
G1 X-0.7450 Y-0.3800 Z0.1580 F10.0000
G1 X-0.6450 Y-0.3800 Z0.1580 F10.0000
G1 X-0.6450 Y0.3800 Z0.1580 F10.0000
G1 X-0.5450 Y0.3800 Z0.1580 F10.0000
G1 X-0.5450 Y-0.3800 Z0.1580 F10.0000
G1 X-0.4450 Y-0.3800 Z0.1580 F10.0000
G1 X-0.4450 Y0.3800 Z0.1580 F10.0000
G1 X-0.3450 Y0.3800 Z0.1580 F10.0000
G1 X-0.3450 Y-0.3800 Z0.1580 F10.0000
G1 X-0.2450 Y-0.3800 Z0.1580 F10.0000
G1 X-0.2450 Y0.3800 Z0.1580 F10.0000
G1 X-0.1450 Y0.3800 Z0.1580 F10.0000
G1 X-0.1450 Y-0.3800 Z0.1580 F10.0000
G1 X-0.0450 Y-0.3800 Z0.1580 F10.0000
G1 X-0.0450 Y0.3800 Z0.1580 F10.0000
G1 X0.0550 Y0.3800 Z0.1580 F10.0000
G1 X0.0550 Y-0.3800 Z0.1580 F10.0000
G1 X0.1550 Y-0.3800 Z0.1580 F10.0000
G1 X0.1550 Y0.3800 Z0.1580 F10.0000
G1 X0.2550 Y0.3800 Z0.1580 F10.0000
G1 X0.2550 Y-0.3800 Z0.1580 F10.0000
G1 X0.3550 Y-0.3800 Z0.1580 F10.0000
G1 X0.3550 Y0.3800 Z0.1580 F10.0000
G1 X0.4550 Y0.3800 Z0.1580 F10.0000
G1 X0.4550 Y-0.3800 Z0.1580 F10.0000
G1 X0.5550 Y-0.3800 Z0.1580 F10.0000
G1 X0.5550 Y0.3800 Z0.1580 F10.0000
G1 X0.6550 Y0.3800 Z0.1580 F10.0000
G1 X0.6550 Y-0.3800 Z0.1580 F10.0000
G1 X0.7550 Y-0.3800 Z0.1580 F10.0000
G1 X0.7550 Y0.3800 Z0.1580 F10.0000
G1 X0.8550 Y0.3800 Z0.1580 F10.0000
G1 X0.8550 Y-0.3800 Z0.1580 F10.0000
G1 X0.9550 Y-0.3800 Z0.1580 F10.0000
G1 X0.9550 Y0.3800 Z0.1580 F10.0000
G1 X1.0550 Y0.3800 Z0.1580 F10.0000
G1 X1.0550 Y-0.3800 Z0.1580 F10.0000
G1 X1.1550 Y-0.3800 Z0.1580 F10.0000
G1 X1.1550 Y0.3800 Z0.1580 F10.0000
G1 X1.2435 Y0.3800 Z0.1580 F10.0000
G2 X1.2531 Y0.3785 Z0.1580 I0.0032 J-0.0107 K0.0000 F10.0000
G2 X1.2550 Y0.3685 Z0.1580 I-0.0074 J-0.0066 K0.0000 F10.0000
G1 X1.2550 Y-0.3685 Z0.1580 F10.0000
G1 X1.2550 Y-0.3685 Z0.0000 F5.0000
G1 X1.2550 Y0.3685 Z0.0000 F10.0000
G3 X1.2531 Y0.3785 Z0.0000 I-0.0093 J0.0034 K0.0000 F10.0000
G3 X1.2435 Y0.3800 Z0.0000 I-0.0064 J-0.0092 K0.0000 F10.0000
G1 X1.1550 Y0.3800 Z0.0000 F10.0000
G1 X1.1550 Y-0.3800 Z0.0000 F10.0000
G1 X1.0550 Y-0.3800 Z0.0000 F10.0000
G1 X1.0550 Y0.3800 Z0.0000 F10.0000
G1 X0.9550 Y0.3800 Z0.0000 F10.0000
G1 X0.9550 Y-0.3800 Z0.0000 F10.0000
G1 X0.8550 Y-0.3800 Z0.0000 F10.0000
G1 X0.8550 Y0.3800 Z0.0000 F10.0000
G1 X0.7550 Y0.3800 Z0.0000 F10.0000
G1 X0.7550 Y-0.3800 Z0.0000 F10.0000
G1 X0.6550 Y-0.3800 Z0.0000 F10.0000
G1 X0.6550 Y0.3800 Z0.0000 F10.0000
G1 X0.5550 Y0.3800 Z0.0000 F10.0000
G1 X0.5550 Y-0.3800 Z0.0000 F10.0000
G1 X0.4550 Y-0.3800 Z0.0000 F10.0000
G1 X0.4550 Y0.3800 Z0.0000 F10.0000
G1 X0.3550 Y0.3800 Z0.0000 F10.0000
G1 X0.3550 Y-0.3800 Z0.0000 F10.0000
G1 X0.2550 Y-0.3800 Z0.0000 F10.0000
G1 X0.2550 Y0.3800 Z0.0000 F10.0000
G1 X0.1550 Y0.3800 Z0.0000 F10.0000
G1 X0.1550 Y-0.3800 Z0.0000 F10.0000
G1 X0.0550 Y-0.3800 Z0.0000 F10.0000
G1 X0.0550 Y0.3800 Z0.0000 F10.0000
G1 X-0.0450 Y0.3800 Z0.0000 F10.0000
G1 X-0.0450 Y-0.3800 Z0.0000 F10.0000
G1 X-0.1450 Y-0.3800 Z0.0000 F10.0000
G1 X-0.1450 Y0.3800 Z0.0000 F10.0000
G1 X-0.2450 Y0.3800 Z0.0000 F10.0000
G1 X-0.2450 Y-0.3800 Z0.0000 F10.0000
G1 X-0.3450 Y-0.3800 Z0.0000 F10.0000
G1 X-0.3450 Y0.3800 Z0.0000 F10.0000
G1 X-0.4450 Y0.3800 Z0.0000 F10.0000
G1 X-0.4450 Y-0.3800 Z0.0000 F10.0000
G1 X-0.5450 Y-0.3800 Z0.0000 F10.0000
G1 X-0.5450 Y0.3800 Z0.0000 F10.0000
G1 X-0.6450 Y0.3800 Z0.0000 F10.0000
G1 X-0.6450 Y-0.3800 Z0.0000 F10.0000
G1 X-0.7450 Y-0.3800 Z0.0000 F10.0000
G1 X-0.7450 Y0.3800 Z0.0000 F10.0000
G1 X-0.8450 Y0.3800 Z0.0000 F10.0000
G1 X-0.8450 Y-0.3800 Z0.0000 F10.0000
G1 X-0.9450 Y-0.3800 Z0.0000 F10.0000
G1 X-0.9450 Y0.3800 Z0.0000 F10.0000
G1 X-1.0450 Y0.3800 Z0.0000 F10.0000
G1 X-1.0450 Y-0.3800 Z0.0000 F10.0000
G1 X-1.1450 Y-0.3800 Z0.0000 F10.0000
G1 X-1.1450 Y0.3800 Z0.0000 F10.0000
G1 X-1.2435 Y0.3800 Z0.0000 F10.0000
G1 X-1.2450 Y0.3799 Z0.0000 F10.0000
G3 X-1.2531 Y0.3785 Z0.0000 I-0.0025 J-0.0092 K0.0000 F10.0000
G3 X-1.2550 Y0.3685 Z0.0000 I0.0074 J-0.0066 K0.0000 F10.0000
G1 X-1.2550 Y-0.3685 Z0.0000 F10.0000
G3 X-1.2546 Y-0.3760 Z0.0000 I0.0360 J-0.0016 K0.0000 F10.0000
G3 X-1.2450 Y-0.3799 Z0.0000 I0.0064 J0.0021 K0.0000 F10.0000
G1 X-1.2450 Y0.3799 Z0.0000 F10.0000
G0 Z0.8949
G0 Z0.8949
(Finish operation: MillFace)
(Coolant Off:Flood)
M9
(Begin postamble)
M5
G17 G90
M2
