(Exported by FreeCAD)
(Post Processor: script_module)
(Output Time:2025-01-27 19:13:02.642283)
(Begin preamble)
G17 G90
G20
(Begin operation: Fixture)
(Path: Fixture)
G54
(Finish operation: Fixture)
(Begin operation: 365_endmill001)
(Path: 365_endmill001)
(365_endmill001)
(Begin toolchange)
( M6 T2 )
M3 S1000
(Finish operation: 365_endmill001)
(Begin operation: Profile)
(Coolant On:Flood)
M7
M8
(Path: Profile)
(Profile)
(Compensated Tool Path. Diameter: 9.270999999999999)
G0 Z0.9969
G0 X0.0000 Y0.0000
G0 X-0.1104 Y-0.1104
G0 X-0.1104 Y-0.1104 Z0.9181
G1 X-0.1104 Y-0.1104 Z0.6000 F2.0000
G2 X-0.1825 Y0.0630 Z0.6000 I0.1740 J0.1740 K0.0000 F10.0000
G1 X-0.1825 Y2.9370 Z0.6000 F10.0000
G2 X-0.0783 Y3.1377 Z0.6000 I0.2472 J-0.0009 K0.0000 F10.0000
G2 X0.0630 Y3.1825 Z0.6000 I0.1427 J-0.2051 K0.0000 F10.0000
G1 X3.6870 Y3.1825 Z0.6000 F10.0000
G2 X3.9325 Y2.9370 Z0.6000 I-0.0001 J-0.2456 K0.0000 F10.0000
G1 X3.9325 Y0.0630 Z0.6000 F10.0000
G2 X3.8378 Y-0.1305 Z0.6000 I-0.2464 J0.0007 K0.0000 F10.0000
G2 X3.6870 Y-0.1825 Z0.6000 I-0.1518 J0.1954 K0.0000 F10.0000
G1 X0.0630 Y-0.1825 Z0.6000 F10.0000
G2 X-0.1104 Y-0.1104 Z0.6000 I0.0006 J0.2461 K0.0000 F10.0000
G1 X-0.1104 Y-0.1104 Z0.4000 F2.0000
G2 X-0.1825 Y0.0630 Z0.4000 I0.1740 J0.1740 K0.0000 F10.0000
G1 X-0.1825 Y2.9370 Z0.4000 F10.0000
G2 X-0.0783 Y3.1377 Z0.4000 I0.2472 J-0.0009 K0.0000 F10.0000
G2 X0.0630 Y3.1825 Z0.4000 I0.1427 J-0.2051 K0.0000 F10.0000
G1 X3.6870 Y3.1825 Z0.4000 F10.0000
G2 X3.9325 Y2.9370 Z0.4000 I-0.0001 J-0.2456 K0.0000 F10.0000
G1 X3.9325 Y0.0630 Z0.4000 F10.0000
G2 X3.8378 Y-0.1305 Z0.4000 I-0.2464 J0.0007 K0.0000 F10.0000
G2 X3.6870 Y-0.1825 Z0.4000 I-0.1518 J0.1954 K0.0000 F10.0000
G1 X0.0630 Y-0.1825 Z0.4000 F10.0000
G2 X-0.1104 Y-0.1104 Z0.4000 I0.0006 J0.2461 K0.0000 F10.0000
G1 X-0.1104 Y-0.1104 Z0.2000 F2.0000
G2 X-0.1825 Y0.0630 Z0.2000 I0.1740 J0.1740 K0.0000 F10.0000
G1 X-0.1825 Y2.9370 Z0.2000 F10.0000
G2 X-0.0783 Y3.1377 Z0.2000 I0.2472 J-0.0009 K0.0000 F10.0000
G2 X0.0630 Y3.1825 Z0.2000 I0.1427 J-0.2051 K0.0000 F10.0000
G1 X3.6870 Y3.1825 Z0.2000 F10.0000
G2 X3.9325 Y2.9370 Z0.2000 I-0.0001 J-0.2456 K0.0000 F10.0000
G1 X3.9325 Y0.0630 Z0.2000 F10.0000
G2 X3.8378 Y-0.1305 Z0.2000 I-0.2464 J0.0007 K0.0000 F10.0000
G2 X3.6870 Y-0.1825 Z0.2000 I-0.1518 J0.1954 K0.0000 F10.0000
G1 X0.0630 Y-0.1825 Z0.2000 F10.0000
G2 X-0.1104 Y-0.1104 Z0.2000 I0.0006 J0.2461 K0.0000 F10.0000
G1 X-0.1104 Y-0.1104 Z0.0000 F2.0000
G2 X-0.1825 Y0.0630 Z0.0000 I0.1740 J0.1740 K0.0000 F10.0000
G1 X-0.1825 Y2.9370 Z0.0000 F10.0000
G2 X-0.0783 Y3.1377 Z0.0000 I0.2472 J-0.0009 K0.0000 F10.0000
G2 X0.0630 Y3.1825 Z0.0000 I0.1427 J-0.2051 K0.0000 F10.0000
G1 X3.6870 Y3.1825 Z0.0000 F10.0000
G2 X3.9325 Y2.9370 Z0.0000 I-0.0001 J-0.2456 K0.0000 F10.0000
G1 X3.9325 Y0.0630 Z0.0000 F10.0000
G2 X3.8378 Y-0.1305 Z0.0000 I-0.2464 J0.0007 K0.0000 F10.0000
G2 X3.6870 Y-0.1825 Z0.0000 I-0.1518 J0.1954 K0.0000 F10.0000
G1 X0.0630 Y-0.1825 Z0.0000 F10.0000
G2 X-0.1104 Y-0.1104 Z0.0000 I0.0006 J0.2461 K0.0000 F10.0000
G0 Z0.9969
G0 Z0.9969
(Finish operation: Profile)
(Coolant Off:Flood)
M9
(Begin operation: Profile001)
(Coolant On:Flood)
M7
M8
(Path: Profile001)
(Profile001)
(Compensated Tool Path. Diameter: 9.270999999999999)
G0 Z0.9969
G0 X0.0000 Y0.0000
G0 X3.7375 Y0.0625
G0 X3.7375 Y0.0625 Z0.9181
G1 X3.7375 Y0.0625 Z0.6000 F2.0000
G2 X3.3675 Y-0.3075 Z0.6000 I-0.3708 J0.0008 K0.0000 F10.0000
G1 X0.3825 Y-0.3075 Z0.6000 F10.0000
G2 X0.0125 Y0.0625 Z0.6000 I0.0008 J0.3708 K0.0000 F10.0000
G1 X0.0125 Y2.9375 Z0.6000 F10.0000
G2 X0.3825 Y3.3075 Z0.6000 I0.3708 J-0.0008 K0.0000 F10.0000
G1 X3.3675 Y3.3075 Z0.6000 F10.0000
G2 X3.7375 Y2.9375 Z0.6000 I-0.0008 J-0.3708 K0.0000 F10.0000
G1 X3.7375 Y0.0625 Z0.6000 F10.0000
G0 Z0.9969
G0 X3.6125 Z0.9969
G0 X3.6125 Z0.9181
G1 X3.6125 Y0.0625 Z0.6000 F2.0000
G2 X3.3675 Y-0.1825 Z0.6000 I-0.2457 J0.0007 K0.0000 F10.0000
G1 X0.3825 Y-0.1825 Z0.6000 F10.0000
G2 X0.1375 Y0.0625 Z0.6000 I0.0007 J0.2457 K0.0000 F10.0000
G1 X0.1375 Y2.9375 Z0.6000 F10.0000
G2 X0.3825 Y3.1825 Z0.6000 I0.2457 J-0.0007 K0.0000 F10.0000
G1 X3.3675 Y3.1825 Z0.6000 F10.0000
G2 X3.6125 Y2.9375 Z0.6000 I-0.0007 J-0.2457 K0.0000 F10.0000
G1 X3.6125 Y0.0625 Z0.6000 F10.0000
G0 Z0.9969
G0 X3.7375 Z0.9969
G0 X3.7375 Z0.9181
G1 X3.7375 Y0.0625 Z0.5000 F2.0000
G2 X3.3675 Y-0.3075 Z0.5000 I-0.3708 J0.0008 K0.0000 F10.0000
G1 X0.3825 Y-0.3075 Z0.5000 F10.0000
G2 X0.0125 Y0.0625 Z0.5000 I0.0008 J0.3708 K0.0000 F10.0000
G1 X0.0125 Y2.9375 Z0.5000 F10.0000
G2 X0.3825 Y3.3075 Z0.5000 I0.3708 J-0.0008 K0.0000 F10.0000
G1 X3.3675 Y3.3075 Z0.5000 F10.0000
G2 X3.7375 Y2.9375 Z0.5000 I-0.0008 J-0.3708 K0.0000 F10.0000
G1 X3.7375 Y0.0625 Z0.5000 F10.0000
G0 Z0.9969
G0 X3.6125 Z0.9969
G0 X3.6125 Z0.9181
G1 X3.6125 Y0.0625 Z0.5000 F2.0000
G2 X3.3675 Y-0.1825 Z0.5000 I-0.2457 J0.0007 K0.0000 F10.0000
G1 X0.3825 Y-0.1825 Z0.5000 F10.0000
G2 X0.1375 Y0.0625 Z0.5000 I0.0007 J0.2457 K0.0000 F10.0000
G1 X0.1375 Y2.9375 Z0.5000 F10.0000
G2 X0.3825 Y3.1825 Z0.5000 I0.2457 J-0.0007 K0.0000 F10.0000
G1 X3.3675 Y3.1825 Z0.5000 F10.0000
G2 X3.6125 Y2.9375 Z0.5000 I-0.0007 J-0.2457 K0.0000 F10.0000
G1 X3.6125 Y0.0625 Z0.5000 F10.0000
G0 Z0.9969
G0 Z0.9969
(Finish operation: Profile001)
(Coolant Off:Flood)
M9
(Begin operation: MillFace)
(Coolant On:Flood)
M7
M8
(Path: MillFace)
(MillFace)
G0 Z0.9969
G0 X0.0000 Y0.0000
G0 X0.3171 Y0.0525
G0 X0.3171 Y0.0525 Z0.9181
G1 X0.3171 Y0.0525 Z0.7500 F2.0000
G2 X0.3164 Y0.0676 Z0.7500 I0.0664 J0.0110 K0.0000 F10.0000
G1 X0.3164 Y2.9324 Z0.7500 F10.0000
G2 X0.3876 Y3.0036 Z0.7500 I0.0671 J0.0041 K0.0000 F10.0000
G1 X3.3624 Y3.0036 Z0.7500 F10.0000
G2 X3.4336 Y2.9324 Z0.7500 I0.0041 J-0.0671 K0.0000 F10.0000
G1 X3.4336 Y0.0676 Z0.7500 F10.0000
G2 X3.3624 Y-0.0037 Z0.7500 I-0.0671 J-0.0041 K0.0000 F10.0000
G1 X0.3876 Y-0.0036 Z0.7500 F10.0000
G2 X0.3171 Y0.0525 Z0.7500 I-0.0041 J0.0671 K0.0000 F10.0000
G1 X0.4259 Y0.1059 Z0.7500 F2.0000
G1 X0.4259 Y2.8941 Z0.7500 F10.0000
G1 X3.3241 Y2.8941 Z0.7500 F10.0000
G1 X3.3241 Y0.1058 Z0.7500 F10.0000
G1 X0.4259 Y0.1059 Z0.7500 F10.0000
G1 X0.5354 Y0.2154 Z0.7500 F2.0000
G1 X0.5354 Y2.7846 Z0.7500 F10.0000
G1 X3.2146 Y2.7846 Z0.7500 F10.0000
G1 X3.2146 Y0.2153 Z0.7500 F10.0000
G1 X0.5354 Y0.2154 Z0.7500 F10.0000
G1 X0.6449 Y0.3249 Z0.7500 F2.0000
G1 X0.6449 Y2.6751 Z0.7500 F10.0000
G1 X3.1051 Y2.6751 Z0.7500 F10.0000
G1 X3.1051 Y0.3248 Z0.7500 F10.0000
G1 X0.6449 Y0.3249 Z0.7500 F10.0000
G1 X0.7544 Y0.4344 Z0.7500 F2.0000
G1 X0.7544 Y2.5656 Z0.7500 F10.0000
G1 X2.9956 Y2.5656 Z0.7500 F10.0000
G1 X2.9956 Y0.4343 Z0.7500 F10.0000
G1 X0.7544 Y0.4344 Z0.7500 F10.0000
G1 X0.8639 Y0.5439 Z0.7500 F2.0000
G1 X0.8639 Y2.4561 Z0.7500 F10.0000
G1 X2.8861 Y2.4561 Z0.7500 F10.0000
G1 X2.8861 Y0.5438 Z0.7500 F10.0000
G1 X0.8639 Y0.5439 Z0.7500 F10.0000
G1 X0.9734 Y0.6534 Z0.7500 F2.0000
G1 X0.9734 Y2.3466 Z0.7500 F10.0000
G1 X2.7766 Y2.3466 Z0.7500 F10.0000
G1 X2.7766 Y0.6533 Z0.7500 F10.0000
G1 X0.9734 Y0.6534 Z0.7500 F10.0000
G1 X1.0829 Y0.7629 Z0.7500 F2.0000
G1 X1.0829 Y2.2371 Z0.7500 F10.0000
G1 X2.6671 Y2.2371 Z0.7500 F10.0000
G1 X2.6671 Y0.7628 Z0.7500 F10.0000
G1 X1.0829 Y0.7629 Z0.7500 F10.0000
G1 X1.1924 Y0.8724 Z0.7500 F2.0000
G1 X1.1924 Y2.1276 Z0.7500 F10.0000
G1 X2.5576 Y2.1276 Z0.7500 F10.0000
G1 X2.5576 Y0.8723 Z0.7500 F10.0000
G1 X1.1924 Y0.8724 Z0.7500 F10.0000
G1 X1.3019 Y0.9819 Z0.7500 F2.0000
G1 X1.3019 Y2.0181 Z0.7500 F10.0000
G1 X2.4481 Y2.0181 Z0.7500 F10.0000
G1 X2.4481 Y0.9818 Z0.7500 F10.0000
G1 X1.3019 Y0.9819 Z0.7500 F10.0000
G1 X1.4114 Y1.0914 Z0.7500 F2.0000
G1 X1.4114 Y1.9086 Z0.7500 F10.0000
G1 X2.3386 Y1.9086 Z0.7500 F10.0000
G1 X2.3386 Y1.0913 Z0.7500 F10.0000
G1 X1.4114 Y1.0914 Z0.7500 F10.0000
G1 X1.5209 Y1.2009 Z0.7500 F2.0000
G1 X1.5209 Y1.7991 Z0.7500 F10.0000
G1 X2.2291 Y1.7991 Z0.7500 F10.0000
G1 X2.2291 Y1.2008 Z0.7500 F10.0000
G1 X1.5209 Y1.2009 Z0.7500 F10.0000
G1 X1.6304 Y1.3104 Z0.7500 F2.0000
G1 X1.6304 Y1.6896 Z0.7500 F10.0000
G1 X2.1196 Y1.6896 Z0.7500 F10.0000
G1 X2.1196 Y1.3103 Z0.7500 F10.0000
G1 X1.6304 Y1.3104 Z0.7500 F10.0000
G1 X1.7399 Y1.4199 Z0.7500 F2.0000
G1 X1.7399 Y1.5801 Z0.7500 F10.0000
G1 X2.0101 Y1.5801 Z0.7500 F10.0000
G1 X2.0101 Y1.4198 Z0.7500 F10.0000
G1 X1.7399 Y1.4199 Z0.7500 F10.0000
G0 Z0.9969
G0 Z0.9969
(Finish operation: MillFace)
(Coolant Off:Flood)
M9
M7
M8
(Begin operation: Pocket_Shape)
(Path: Pocket_Shape)
(Pocket_Shape)
G0 Z0.9969
G0 X0.0000 Y0.0000
G0 X1.5757 Y1.4545
G0 X1.5757 Y1.4545 Z0.9181
G1 X1.5757 Y1.4545 Z0.6000 F2.0000
G3 X1.6175 Y1.4332 Z0.6000 I0.0496 J0.0458 K0.0000 F10.0000
G1 X1.6301 Y1.4325 Z0.6000 F10.0000
G1 X2.1199 Y1.4325 Z0.6000 F10.0000
G3 X2.1325 Y1.5668 Z0.6000 I0.0049 J0.0673 K0.0000 F10.0000
G1 X2.1199 Y1.5675 Z0.6000 F10.0000
G1 X1.6301 Y1.5675 Z0.6000 F10.0000
G3 X1.5757 Y1.4545 Z0.6000 I-0.0049 J-0.0673 K0.0000 F10.0000
G1 X1.5757 Y1.4545 Z0.4000 F2.0000
G3 X1.6175 Y1.4332 Z0.4000 I0.0496 J0.0458 K0.0000 F10.0000
G1 X1.6301 Y1.4325 Z0.4000 F10.0000
G1 X2.1199 Y1.4325 Z0.4000 F10.0000
G3 X2.1325 Y1.5668 Z0.4000 I0.0049 J0.0673 K0.0000 F10.0000
G1 X2.1199 Y1.5675 Z0.4000 F10.0000
G1 X1.6301 Y1.5675 Z0.4000 F10.0000
G3 X1.5757 Y1.4545 Z0.4000 I-0.0049 J-0.0673 K0.0000 F10.0000
G1 X1.5757 Y1.4545 Z0.2000 F2.0000
G3 X1.6175 Y1.4332 Z0.2000 I0.0496 J0.0458 K0.0000 F10.0000
G1 X1.6301 Y1.4325 Z0.2000 F10.0000
G1 X2.1199 Y1.4325 Z0.2000 F10.0000
G3 X2.1325 Y1.5668 Z0.2000 I0.0049 J0.0673 K0.0000 F10.0000
G1 X2.1199 Y1.5675 Z0.2000 F10.0000
G1 X1.6301 Y1.5675 Z0.2000 F10.0000
G3 X1.5757 Y1.4545 Z0.2000 I-0.0049 J-0.0673 K0.0000 F10.0000
G0 Z0.9969
G0 Z0.9969
(Finish operation: Pocket_Shape)
(Begin postamble)
M9
M5
G17 G90
M2
