(Exported by FreeCAD)
(Post Processor: script_module)
(Output Time:2025-01-27 20:14:05.339806)
(Begin preamble)
G17 G90
G20
(Begin operation: Fixture)
(Path: Fixture)
G54
(Finish operation: Fixture)
(Begin operation: 365_endmill001)
(Path: 365_endmill001)
(365_endmill001)
(Begin toolchange)
( M6 T2 )
M3 S1000
(Finish operation: 365_endmill001)
(Begin operation: Profile001)
(Coolant On:Flood)
M8
(Path: Profile001)
(Profile001)
(Compensated Tool Path. Diameter: 9.270999999999999)
G0 Z0.9969
G0 X0.0000 Y0.0000
G0 X3.7175 Y0.0625
G0 X3.7175 Y0.0625 Z0.9181
G1 X3.7175 Y0.0625 Z0.6000 F2.0000
G2 X3.3475 Y-0.3075 Z0.6000 I-0.3708 J0.0008 K0.0000 F20.0000
G1 X0.4025 Y-0.3075 Z0.6000 F20.0000
G2 X0.0325 Y0.0625 Z0.6000 I0.0008 J0.3708 K0.0000 F20.0000
G1 X0.0325 Y2.9375 Z0.6000 F20.0000
G2 X0.4025 Y3.3075 Z0.6000 I0.3708 J-0.0008 K0.0000 F20.0000
G1 X3.3475 Y3.3075 Z0.6000 F20.0000
G2 X3.7175 Y2.9375 Z0.6000 I-0.0008 J-0.3708 K0.0000 F20.0000
G1 X3.7175 Y0.0625 Z0.6000 F20.0000
G0 Z0.9969
G0 X3.5925 Z0.9969
G0 X3.5925 Z0.9181
G1 X3.5925 Y0.0625 Z0.6000 F2.0000
G2 X3.3475 Y-0.1825 Z0.6000 I-0.2457 J0.0007 K0.0000 F20.0000
G1 X0.4025 Y-0.1825 Z0.6000 F20.0000
G2 X0.1575 Y0.0625 Z0.6000 I0.0007 J0.2457 K0.0000 F20.0000
G1 X0.1575 Y2.9375 Z0.6000 F20.0000
G2 X0.4025 Y3.1825 Z0.6000 I0.2457 J-0.0007 K0.0000 F20.0000
G1 X3.3475 Y3.1825 Z0.6000 F20.0000
G2 X3.5925 Y2.9375 Z0.6000 I-0.0007 J-0.2457 K0.0000 F20.0000
G1 X3.5925 Y0.0625 Z0.6000 F20.0000
G0 Z0.9969
G0 X3.7175 Z0.9969
G0 X3.7175 Z0.9181
G1 X3.7175 Y0.0625 Z0.5000 F2.0000
G2 X3.3475 Y-0.3075 Z0.5000 I-0.3708 J0.0008 K0.0000 F20.0000
G1 X0.4025 Y-0.3075 Z0.5000 F20.0000
G2 X0.0325 Y0.0625 Z0.5000 I0.0008 J0.3708 K0.0000 F20.0000
G1 X0.0325 Y2.9375 Z0.5000 F20.0000
G2 X0.4025 Y3.3075 Z0.5000 I0.3708 J-0.0008 K0.0000 F20.0000
G1 X3.3475 Y3.3075 Z0.5000 F20.0000
G2 X3.7175 Y2.9375 Z0.5000 I-0.0008 J-0.3708 K0.0000 F20.0000
G1 X3.7175 Y0.0625 Z0.5000 F20.0000
G0 Z0.9969
G0 X3.5925 Z0.9969
G0 X3.5925 Z0.9181
G1 X3.5925 Y0.0625 Z0.5000 F2.0000
G2 X3.3475 Y-0.1825 Z0.5000 I-0.2457 J0.0007 K0.0000 F20.0000
G1 X0.4025 Y-0.1825 Z0.5000 F20.0000
G2 X0.1575 Y0.0625 Z0.5000 I0.0007 J0.2457 K0.0000 F20.0000
G1 X0.1575 Y2.9375 Z0.5000 F20.0000
G2 X0.4025 Y3.1825 Z0.5000 I0.2457 J-0.0007 K0.0000 F20.0000
G1 X3.3475 Y3.1825 Z0.5000 F20.0000
G2 X3.5925 Y2.9375 Z0.5000 I-0.0007 J-0.2457 K0.0000 F20.0000
G1 X3.5925 Y0.0625 Z0.5000 F20.0000
G0 Z0.9969
G0 Z0.9969
(Finish operation: Profile001)
(Coolant Off:Flood)
M9
(Begin postamble)
M5
G17 G90
M2
