(Exported by FreeCAD)
(Post Processor: script_module)
(Output Time:2025-01-27 22:25:22.376965)
(Begin preamble)
G17 G90
G20
(Begin operation: Fixture)
(Path: Fixture)
G54
(Finish operation: Fixture)
(Begin operation: 365_endmill001)
(Path: 365_endmill001)
(365_endmill001)
(Begin toolchange)
( M6 T2 )
M3 S1000
(Finish operation: 365_endmill001)
(Begin operation: Adaptive)
(Coolant On:Flood)
M8
(Path: Adaptive)
(Adaptive)
(Helix to depth: 17.780000)
G0 Z0.9969
G0 X1.8421 Y1.3211 Z0.9969
G0 X1.8421 Y1.3211 Z0.9181
G1 X1.8421 Y1.3211 Z0.8000 F2.0000
G1 X2.0478 Y1.5000 Z0.8000 F2.0000
G1 X2.0471 Y1.5154 Z0.7994 F2.0000
G1 X2.0450 Y1.5306 Z0.7988 F2.0000
G1 X2.0416 Y1.5456 Z0.7982 F2.0000
G1 X2.0368 Y1.5602 Z0.7976 F2.0000
G1 X2.0308 Y1.5743 Z0.7970 F2.0000
G1 X2.0235 Y1.5878 Z0.7965 F2.0000
G1 X2.0151 Y1.6007 Z0.7959 F2.0000
G1 X2.0055 Y1.6127 Z0.7953 F2.0000
G1 X1.9950 Y1.6238 Z0.7947 F2.0000
G1 X1.9835 Y1.6339 Z0.7941 F2.0000
G1 X1.9711 Y1.6430 Z0.7935 F2.0000
G1 X1.9580 Y1.6509 Z0.7929 F2.0000
G1 X1.9442 Y1.6577 Z0.7923 F2.0000
G1 X1.9299 Y1.6631 Z0.7917 F2.0000
G1 X1.9152 Y1.6673 Z0.7911 F2.0000
G1 X1.9001 Y1.6702 Z0.7906 F2.0000
G1 X1.8849 Y1.6717 Z0.7900 F2.0000
G1 X1.8696 Y1.6718 Z0.7894 F2.0000
G1 X1.8544 Y1.6706 Z0.7888 F2.0000
G1 X1.8393 Y1.6681 Z0.7882 F2.0000
G1 X1.8245 Y1.6642 Z0.7876 F2.0000
G1 X1.8101 Y1.6590 Z0.7870 F2.0000
G1 X1.7963 Y1.6525 Z0.7864 F2.0000
G1 X1.7830 Y1.6449 Z0.7858 F2.0000
G1 X1.7706 Y1.6361 Z0.7852 F2.0000
G1 X1.7589 Y1.6262 Z0.7846 F2.0000
G1 X1.7482 Y1.6154 Z0.7841 F2.0000
G1 X1.7385 Y1.6036 Z0.7835 F2.0000
G1 X1.7298 Y1.5911 Z0.7829 F2.0000
G1 X1.7224 Y1.5778 Z0.7823 F2.0000
G1 X1.7161 Y1.5639 Z0.7817 F2.0000
G1 X1.7111 Y1.5495 Z0.7811 F2.0000
G1 X1.7074 Y1.5347 Z0.7805 F2.0000
G1 X1.7050 Y1.5197 Z0.7799 F2.0000
G1 X1.7040 Y1.5045 Z0.7793 F2.0000
G1 X1.7043 Y1.4893 Z0.7787 F2.0000
G1 X1.7060 Y1.4741 Z0.7781 F2.0000
G1 X1.7090 Y1.4592 Z0.7776 F2.0000
G1 X1.7134 Y1.4447 Z0.7770 F2.0000
G1 X1.7190 Y1.4305 Z0.7764 F2.0000
G1 X1.7258 Y1.4170 Z0.7758 F2.0000
G1 X1.7338 Y1.4041 Z0.7752 F2.0000
G1 X1.7430 Y1.3919 Z0.7746 F2.0000
G1 X1.7531 Y1.3807 Z0.7740 F2.0000
G1 X1.7643 Y1.3703 Z0.7734 F2.0000
G1 X1.7762 Y1.3610 Z0.7728 F2.0000
G1 X1.7890 Y1.3529 Z0.7722 F2.0000
G1 X1.8025 Y1.3458 Z0.7717 F2.0000
G1 X1.8165 Y1.3401 Z0.7711 F2.0000
G1 X1.8309 Y1.3355 Z0.7705 F2.0000
G1 X1.8457 Y1.3323 Z0.7699 F2.0000
G1 X1.8608 Y1.3304 Z0.7693 F2.0000
G1 X1.8759 Y1.3299 Z0.7687 F2.0000
G1 X1.8910 Y1.3307 Z0.7681 F2.0000
G1 X1.9060 Y1.3328 Z0.7675 F2.0000
G1 X1.9207 Y1.3363 Z0.7669 F2.0000
G1 X1.9351 Y1.3411 Z0.7663 F2.0000
G1 X1.9489 Y1.3471 Z0.7657 F2.0000
G1 X1.9622 Y1.3543 Z0.7652 F2.0000
G1 X1.9748 Y1.3627 Z0.7646 F2.0000
G1 X1.9866 Y1.3721 Z0.7640 F2.0000
G1 X1.9974 Y1.3826 Z0.7634 F2.0000
G1 X2.0074 Y1.3940 Z0.7628 F2.0000
G1 X2.0162 Y1.4062 Z0.7622 F2.0000
G1 X2.0240 Y1.4191 Z0.7616 F2.0000
G1 X2.0305 Y1.4327 Z0.7610 F2.0000
G1 X2.0358 Y1.4468 Z0.7604 F2.0000
G1 X2.0399 Y1.4613 Z0.7598 F2.0000
G1 X2.0426 Y1.4761 Z0.7593 F2.0000
G1 X2.0440 Y1.4911 Z0.7587 F2.0000
G1 X2.0441 Y1.5062 Z0.7581 F2.0000
G1 X2.0428 Y1.5212 Z0.7575 F2.0000
G1 X2.0402 Y1.5360 Z0.7569 F2.0000
G1 X2.0363 Y1.5505 Z0.7563 F2.0000
G1 X2.0311 Y1.5647 Z0.7557 F2.0000
G1 X2.0247 Y1.5783 Z0.7551 F2.0000
G1 X2.0171 Y1.5912 Z0.7545 F2.0000
G1 X2.0084 Y1.6035 Z0.7539 F2.0000
G1 X1.9986 Y1.6149 Z0.7533 F2.0000
G1 X1.9879 Y1.6254 Z0.7528 F2.0000
G1 X1.9763 Y1.6349 Z0.7522 F2.0000
G1 X1.9639 Y1.6433 Z0.7516 F2.0000
G1 X1.9507 Y1.6506 Z0.7510 F2.0000
G1 X1.9370 Y1.6567 Z0.7504 F2.0000
G1 X1.9228 Y1.6615 Z0.7498 F2.0000
G1 X1.9083 Y1.6651 Z0.7492 F2.0000
G1 X1.8935 Y1.6673 Z0.7486 F2.0000
G1 X1.8785 Y1.6683 Z0.7480 F2.0000
G1 X1.8636 Y1.6679 Z0.7474 F2.0000
G1 X1.8487 Y1.6661 Z0.7469 F2.0000
G1 X1.8340 Y1.6631 Z0.7463 F2.0000
G1 X1.8197 Y1.6587 Z0.7457 F2.0000
G1 X1.8058 Y1.6532 Z0.7451 F2.0000
G1 X1.7925 Y1.6464 Z0.7445 F2.0000
G1 X1.7799 Y1.6384 Z0.7439 F2.0000
G1 X1.7680 Y1.6294 Z0.7433 F2.0000
G1 X1.7569 Y1.6193 Z0.7427 F2.0000
G1 X1.7468 Y1.6083 Z0.7421 F2.0000
G1 X1.7378 Y1.5964 Z0.7415 F2.0000
G1 X1.7298 Y1.5838 Z0.7409 F2.0000
G1 X1.7230 Y1.5706 Z0.7404 F2.0000
G1 X1.7173 Y1.5568 Z0.7398 F2.0000
G1 X1.7130 Y1.5425 Z0.7392 F2.0000
G1 X1.7099 Y1.5279 Z0.7386 F2.0000
G1 X1.7081 Y1.5131 Z0.7380 F2.0000
G1 X1.7076 Y1.4982 Z0.7374 F2.0000
G1 X1.7085 Y1.4834 Z0.7368 F2.0000
G1 X1.7107 Y1.4687 Z0.7362 F2.0000
G1 X1.7142 Y1.4542 Z0.7356 F2.0000
G1 X1.7189 Y1.4401 Z0.7350 F2.0000
G1 X1.7249 Y1.4265 Z0.7344 F2.0000
G1 X1.7321 Y1.4135 Z0.7339 F2.0000
G1 X1.7404 Y1.4011 Z0.7333 F2.0000
G1 X1.7498 Y1.3896 Z0.7327 F2.0000
G1 X1.7601 Y1.3789 Z0.7321 F2.0000
G1 X1.7714 Y1.3692 Z0.7315 F2.0000
G1 X1.7834 Y1.3606 Z0.7309 F2.0000
G1 X1.7962 Y1.3530 Z0.7303 F2.0000
G1 X1.8096 Y1.3467 Z0.7297 F2.0000
G1 X1.8235 Y1.3415 Z0.7291 F2.0000
G1 X1.8378 Y1.3376 Z0.7285 F2.0000
G1 X1.8524 Y1.3350 Z0.7280 F2.0000
G1 X1.8672 Y1.3337 Z0.7274 F2.0000
G1 X1.8820 Y1.3337 Z0.7268 F2.0000
G1 X1.8967 Y1.3350 Z0.7262 F2.0000
G1 X1.9113 Y1.3377 Z0.7256 F2.0000
G1 X1.9256 Y1.3416 Z0.7250 F2.0000
G1 X1.9394 Y1.3468 Z0.7244 F2.0000
G1 X1.9528 Y1.3531 Z0.7238 F2.0000
G1 X1.9655 Y1.3607 Z0.7232 F2.0000
G1 X1.9775 Y1.3693 Z0.7226 F2.0000
G1 X1.9887 Y1.3790 Z0.7220 F2.0000
G1 X1.9989 Y1.3896 Z0.7215 F2.0000
G1 X2.0082 Y1.4011 Z0.7209 F2.0000
G1 X2.0164 Y1.4133 Z0.7203 F2.0000
G1 X2.0235 Y1.4263 Z0.7197 F2.0000
G1 X2.0294 Y1.4398 Z0.7191 F2.0000
G1 X2.0341 Y1.4538 Z0.7185 F2.0000
G1 X2.0376 Y1.4681 Z0.7179 F2.0000
G1 X2.0397 Y1.4827 Z0.7173 F2.0000
G1 X2.0405 Y1.4974 Z0.7167 F2.0000
G1 X2.0401 Y1.5121 Z0.7161 F2.0000
G1 X2.0383 Y1.5267 Z0.7156 F2.0000
G1 X2.0352 Y1.5411 Z0.7150 F2.0000
G1 X2.0309 Y1.5552 Z0.7144 F2.0000
G1 X2.0253 Y1.5688 Z0.7138 F2.0000
G1 X2.0185 Y1.5819 Z0.7132 F2.0000
G1 X2.0107 Y1.5943 Z0.7126 F2.0000
G1 X2.0017 Y1.6059 Z0.7120 F2.0000
G1 X1.9917 Y1.6167 Z0.7114 F2.0000
G1 X1.9809 Y1.6266 Z0.7108 F2.0000
G1 X1.9692 Y1.6355 Z0.7102 F2.0000
G1 X1.9567 Y1.6433 Z0.7096 F2.0000
G1 X1.9436 Y1.6499 Z0.7091 F2.0000
G1 X1.9300 Y1.6554 Z0.7085 F2.0000
G1 X1.9160 Y1.6596 Z0.7079 F2.0000
G1 X1.9016 Y1.6626 Z0.7073 F2.0000
G1 X1.8871 Y1.6642 Z0.7067 F2.0000
G1 X1.8724 Y1.6646 Z0.7061 F2.0000
G1 X1.8578 Y1.6637 Z0.7055 F2.0000
G1 X1.8433 Y1.6615 Z0.7049 F2.0000
G1 X1.8291 Y1.6579 Z0.7043 F2.0000
G1 X1.8153 Y1.6532 Z0.7037 F2.0000
G1 X1.8019 Y1.6472 Z0.7031 F2.0000
G1 X1.7891 Y1.6401 Z0.7026 F2.0000
G1 X1.7771 Y1.6319 Z0.7020 F2.0000
G1 X1.7658 Y1.6226 Z0.7014 F2.0000
G1 X1.7553 Y1.6124 Z0.7008 F2.0000
G1 X1.7459 Y1.6013 Z0.7002 F2.0000
G3 X2.0041 Y1.3987 Z0.7000 I0.1291 J-0.1013 F20.0000
G3 X1.7459 Y1.6013 Z0.7000 I-0.1291 J0.1013 F20.0000
(Adaptive - depth: 17.780000)
G1 X1.8750 Y1.3177 F20.0000
G1 X1.8777 Y1.3147 F20.0000
G1 X1.8797 Y1.3113 F20.0000
G1 X1.8802 Y1.3073 F20.0000
G1 X1.8834 Y1.3000 F20.0000
G1 X1.8907 Y1.2908 F20.0000
G1 X1.9038 Y1.2817 F20.0000
G1 X1.9326 Y1.2692 F20.0000
G1 X1.9577 Y1.2645 F20.0000
G1 X1.9793 Y1.2640 F20.0000
G1 X1.9973 Y1.2655 F20.0000
G1 X2.0212 Y1.2719 F20.0000
G1 X2.0364 Y1.2771 F20.0000
G1 X2.0536 Y1.2849 F20.0000
G1 X2.0701 Y1.2950 F20.0000
G1 X2.0846 Y1.3059 F20.0000
G1 X2.0992 Y1.3179 F20.0000
G1 X2.1169 Y1.3369 F20.0000
G1 X2.1294 Y1.3529 F20.0000
G1 X2.1412 Y1.3706 F20.0000
G1 X2.1516 Y1.3903 F20.0000
G1 X2.1597 Y1.4099 F20.0000
G1 X2.1663 Y1.4304 F20.0000
G1 X2.1722 Y1.4513 F20.0000
G1 X2.1777 Y1.4823 F20.0000
G1 X2.1801 Y1.5066 F20.0000
G1 X2.1794 Y1.5322 F20.0000
G1 X2.1777 Y1.5509 F20.0000
G1 X2.1735 Y1.5731 F20.0000
G1 X2.1673 Y1.5942 F20.0000
G1 X2.1513 Y1.6341 F20.0000
G1 X2.1361 Y1.6617 F20.0000
G1 X2.1228 Y1.6826 F20.0000
G1 X2.1073 Y1.7037 F20.0000
G1 X2.0888 Y1.7249 F20.0000
G1 X2.0689 Y1.7421 F20.0000
G1 X2.0549 Y1.7530 F20.0000
G1 X2.0352 Y1.7653 F20.0000
G1 X1.9751 Y1.7879 F20.0000
G1 X1.9082 Y1.7992 F20.0000
G1 X1.8452 Y1.8012 F20.0000
G1 X1.7822 Y1.7938 F20.0000
G1 X1.7586 Y1.7869 F20.0000
G1 X1.7217 Y1.7689 F20.0000
G1 X1.7114 Y1.7623 F20.0000
G1 X1.6604 Y1.7247 F20.0000
G1 X1.6383 Y1.7020 F20.0000
G1 X1.6134 Y1.6700 F20.0000
G1 X1.6004 Y1.6469 F20.0000
G1 X1.5913 Y1.6270 F20.0000
G1 X1.5755 Y1.5844 F20.0000
G1 X1.5682 Y1.5536 F20.0000
G1 X1.5632 Y1.5271 F20.0000
G1 X1.5620 Y1.4980 F20.0000
G1 X1.5623 Y1.4796 F20.0000
G1 X1.5647 Y1.4557 F20.0000
G1 X1.5694 Y1.4333 F20.0000
G1 X1.5819 Y1.3910 F20.0000
G1 X1.5945 Y1.3620 F20.0000
G1 X1.6061 Y1.3388 F20.0000
G1 X1.6213 Y1.3155 F20.0000
G1 X1.6339 Y1.2987 F20.0000
G1 X1.6501 Y1.2803 F20.0000
G1 X1.6676 Y1.2638 F20.0000
G1 X1.6838 Y1.2473 F20.0000
G1 X1.7242 Y1.2099 F20.0000
G1 X1.7343 Y1.2037 F20.0000
G1 X1.7495 Y1.1917 F20.0000
G1 X2.1001 Y1.1934 F20.0000
G1 X2.1481 Y1.2030 F20.0000
G1 X2.1690 Y1.2121 F20.0000
G1 X2.2018 Y1.2367 F20.0000
G1 X2.2266 Y1.2616 F20.0000
G1 X2.2461 Y1.2862 F20.0000
G1 X2.2628 Y1.3115 F20.0000
G1 X2.2749 Y1.3329 F20.0000
G1 X2.2847 Y1.3541 F20.0000
G1 X2.3017 Y1.4013 F20.0000
G1 X2.3091 Y1.4318 F20.0000
G1 X2.3142 Y1.4604 F20.0000
G1 X2.3182 Y1.4902 F20.0000
G1 X2.3199 Y1.5214 F20.0000
G1 X2.3196 Y1.5517 F20.0000
G1 X2.3155 Y1.5822 F20.0000
G1 X2.3118 Y1.6014 F20.0000
G1 X2.2980 Y1.6503 F20.0000
G1 X2.2864 Y1.6796 F20.0000
G1 X2.2739 Y1.7067 F20.0000
G1 X2.2596 Y1.7345 F20.0000
G1 X2.2431 Y1.7613 F20.0000
G1 X2.2251 Y1.7872 F20.0000
G1 X2.2126 Y1.7968 F20.0000
G1 X2.1951 Y1.8063 F20.0000
G1 X2.1914 Y1.8078 F20.0000
G1 X1.6521 Y1.8068 F20.0000
G1 X1.6245 Y1.8029 F20.0000
G1 X1.5893 Y1.7918 F20.0000
G1 X1.5819 Y1.7884 F20.0000
G1 X1.5581 Y1.7726 F20.0000
G1 X1.5453 Y1.7623 F20.0000
G1 X1.5221 Y1.7406 F20.0000
G1 X1.5015 Y1.7165 F20.0000
G1 X1.4862 Y1.6956 F20.0000
G1 X1.4729 Y1.6759 F20.0000
G1 X1.4587 Y1.6494 F20.0000
G1 X1.4478 Y1.6252 F20.0000
G1 X1.4385 Y1.6004 F20.0000
G1 X1.4309 Y1.5738 F20.0000
G1 X1.4252 Y1.5475 F20.0000
G1 X1.4215 Y1.5209 F20.0000
G1 X1.4198 Y1.4938 F20.0000
G1 X1.4200 Y1.4670 F20.0000
G1 X1.4222 Y1.4402 F20.0000
G1 X1.4264 Y1.4136 F20.0000
G1 X1.4323 Y1.3873 F20.0000
G1 X1.4483 Y1.3359 F20.0000
G1 X1.4606 Y1.3068 F20.0000
G1 X1.4744 Y1.2785 F20.0000
G1 X1.4894 Y1.2507 F20.0000
G1 X1.5172 Y1.2074 F20.0000
G1 X1.5258 Y1.1993 F20.0000
G1 X1.5354 Y1.1929 F20.0000
G1 X1.5391 Y1.1917 F20.0000
G1 X1.5650 Y1.1917 F20.0000
G1 X1.5650 Y1.1917 F20.0000
G1 X1.5682 Y1.1917 F20.0000
G1 X1.5679 Y1.1919 F20.0000
G1 X1.5645 Y1.1917 F20.0000
G1 X1.5674 Y1.1914 F20.0000
G1 X1.5674 Y1.1914 F20.0000
G1 X1.6191 Y1.1917 F20.0000
G1 X1.6191 Y1.1917 F20.0000
G1 X1.6371 Y1.1934 F20.0000
G1 X1.6459 Y1.1954 F20.0000
G1 X1.6545 Y1.1981 F20.0000
G1 X1.6629 Y1.2015 F20.0000
G1 X1.6708 Y1.2057 F20.0000
G1 X1.6786 Y1.2106 F20.0000
G0 X1.6860 Y1.2160
G0 X1.7527 Y1.2724
G0 X1.7606 Y1.2773
G0 X1.7689 Y1.2810
G0 X1.7778 Y1.2830
G0 X1.7968 Y1.2847
G0 X1.9523 Y1.2844
G0 X1.9619 Y1.2840
G0 X1.9712 Y1.2827
G0 X1.9801 Y1.2798
G0 X1.9887 Y1.2758
G0 X2.0052 Y1.2653
G0 X2.0212 Y1.2534
G1 X2.0288 Y1.2475 F20.0000
G1 X2.0731 Y1.2138 F20.0000
G1 X2.0888 Y1.2045 F20.0000
G1 X2.0972 Y1.2005 F20.0000
G1 X2.1058 Y1.1976 F20.0000
G1 X2.1326 Y1.1917 F20.0000
G1 X2.1326 Y1.1917 F20.0000
G1 X2.2544 Y1.1929 F20.0000
G1 X2.2987 Y1.2013 F20.0000
G1 X2.3191 Y1.2101 F20.0000
G1 X2.3430 Y1.2281 F20.0000
G1 X2.3538 Y1.2387 F20.0000
G1 X2.3745 Y1.2623 F20.0000
G1 X2.3927 Y1.2879 F20.0000
G1 X2.4053 Y1.3083 F20.0000
G1 X2.4178 Y1.3314 F20.0000
G1 X2.4296 Y1.3588 F20.0000
G1 X2.4387 Y1.3839 F20.0000
G1 X2.4464 Y1.4104 F20.0000
G1 X2.4574 Y1.4646 F20.0000
G1 X2.4609 Y1.4958 F20.0000
G1 X2.4628 Y1.5271 F20.0000
G1 X2.4636 Y1.5583 F20.0000
G1 X2.4621 Y1.5896 F20.0000
G1 X2.4592 Y1.6208 F20.0000
G1 X2.4528 Y1.6516 F20.0000
G1 X2.4471 Y1.6750 F20.0000
G1 X2.4375 Y1.7045 F20.0000
G1 X2.4158 Y1.7581 F20.0000
G1 X2.4016 Y1.7862 F20.0000
G1 X2.3967 Y1.7923 F20.0000
G1 X2.3780 Y1.8066 F20.0000
G1 X2.3743 Y1.8083 F20.0000
G1 X2.2719 Y1.8083 F20.0000
G1 X2.2719 Y1.8083 F20.0000
G1 X2.2534 Y1.8061 F20.0000
G1 X2.2443 Y1.8041 F20.0000
G1 X2.2357 Y1.8012 F20.0000
G1 X2.2274 Y1.7977 F20.0000
G1 X2.2200 Y1.7931 F20.0000
G1 X2.2138 Y1.7874 F20.0000
G0 X2.2096 Y1.7808
G0 X2.2072 Y1.7731
G0 X2.2060 Y1.7648
G0 X2.2055 Y1.7473
G0 X2.2271 Y1.2751
G1 X2.2276 Y1.2638 F20.0000
G1 X2.2293 Y1.2421 F20.0000
G1 X2.2313 Y1.2323 F20.0000
G1 X2.2350 Y1.2234 F20.0000
G1 X2.2399 Y1.2163 F20.0000
G1 X2.2463 Y1.2101 F20.0000
G1 X2.2537 Y1.2050 F20.0000
G1 X2.2616 Y1.2008 F20.0000
G1 X2.2699 Y1.1976 F20.0000
G1 X2.2968 Y1.1917 F20.0000
G1 X2.2968 Y1.1917 F20.0000
G1 X2.4001 Y1.1932 F20.0000
G1 X2.4407 Y1.2008 F20.0000
G1 X2.4616 Y1.2094 F20.0000
G1 X2.4801 Y1.2224 F20.0000
G1 X2.4963 Y1.2384 F20.0000
G1 X2.5167 Y1.2623 F20.0000
G1 X2.5349 Y1.2879 F20.0000
G1 X2.5492 Y1.3118 F20.0000
G1 X2.5605 Y1.3327 F20.0000
G1 X2.5723 Y1.3602 F20.0000
G1 X2.5898 Y1.4109 F20.0000
G1 X2.5969 Y1.4414 F20.0000
G1 X2.6026 Y1.4722 F20.0000
G1 X2.6070 Y1.5032 F20.0000
G1 X2.6090 Y1.5344 F20.0000
G1 X2.6095 Y1.5657 F20.0000
G1 X2.6083 Y1.5969 F20.0000
G1 X2.6051 Y1.6282 F20.0000
G1 X2.6001 Y1.6592 F20.0000
G1 X2.5871 Y1.7207 F20.0000
G1 X2.5782 Y1.7510 F20.0000
G1 X2.5667 Y1.7803 F20.0000
G1 X2.5605 Y1.7904 F20.0000
G1 X2.5492 Y1.8014 F20.0000
G1 X2.5394 Y1.8081 F20.0000
G1 X2.4567 Y1.8083 F20.0000
G1 X2.4567 Y1.8083 F20.0000
G1 X2.4382 Y1.8061 F20.0000
G1 X2.4291 Y1.8041 F20.0000
G1 X2.4205 Y1.8012 F20.0000
G1 X2.4122 Y1.7977 F20.0000
G1 X2.4045 Y1.7931 F20.0000
G1 X2.3984 Y1.7874 F20.0000
G0 X2.3937 Y1.7808
G0 X2.3907 Y1.7731
G0 X2.3888 Y1.7648
G0 X2.3866 Y1.7473
G0 X2.3605 Y1.2749
G1 X2.3597 Y1.2635 F20.0000
G1 X2.3593 Y1.2419 F20.0000
G1 X2.3605 Y1.2320 F20.0000
G1 X2.3634 Y1.2234 F20.0000
G1 X2.3681 Y1.2163 F20.0000
G1 X2.3743 Y1.2101 F20.0000
G1 X2.3814 Y1.2050 F20.0000
G1 X2.3893 Y1.2008 F20.0000
G1 X2.3976 Y1.1976 F20.0000
G1 X2.4245 Y1.1917 F20.0000
G1 X2.4245 Y1.1917 F20.0000
G1 X2.5426 Y1.1929 F20.0000
G1 X2.5832 Y1.2005 F20.0000
G1 X2.6041 Y1.2089 F20.0000
G1 X2.6225 Y1.2217 F20.0000
G1 X2.6415 Y1.2397 F20.0000
G1 X2.6617 Y1.2635 F20.0000
G1 X2.6799 Y1.2891 F20.0000
G1 X2.6937 Y1.3118 F20.0000
G1 X2.7057 Y1.3344 F20.0000
G1 X2.7180 Y1.3627 F20.0000
G1 X2.7271 Y1.3885 F20.0000
G1 X2.7429 Y1.4427 F20.0000
G1 X2.7488 Y1.4734 F20.0000
G1 X2.7534 Y1.5044 F20.0000
G1 X2.7571 Y1.5357 F20.0000
G1 X2.7589 Y1.5669 F20.0000
G1 X2.7594 Y1.5982 F20.0000
G1 X2.7584 Y1.6294 F20.0000
G1 X2.7557 Y1.6607 F20.0000
G1 X2.7515 Y1.6917 F20.0000
G1 X2.7458 Y1.7227 F20.0000
G1 X2.7370 Y1.7530 F20.0000
G1 X2.7224 Y1.7874 F20.0000
G1 X2.7126 Y1.7992 F20.0000
G1 X2.7032 Y1.8063 F20.0000
G1 X2.6998 Y1.8083 F20.0000
G1 X2.6211 Y1.8083 F20.0000
G1 X2.6211 Y1.8083 F20.0000
G1 X2.6026 Y1.8061 F20.0000
G1 X2.5935 Y1.8041 F20.0000
G1 X2.5849 Y1.8012 F20.0000
G1 X2.5765 Y1.7977 F20.0000
G1 X2.5689 Y1.7931 F20.0000
G1 X2.5627 Y1.7874 F20.0000
G0 X2.5578 Y1.7808
G0 X2.5546 Y1.7731
G0 X2.5524 Y1.7648
G0 X2.5497 Y1.7473
G0 X2.5081 Y1.2749
G1 X2.5071 Y1.2635 F20.0000
G1 X2.5059 Y1.2419 F20.0000
G1 X2.5069 Y1.2320 F20.0000
G1 X2.5096 Y1.2234 F20.0000
G1 X2.5143 Y1.2163 F20.0000
G1 X2.5202 Y1.2101 F20.0000
G1 X2.5273 Y1.2050 F20.0000
G1 X2.5352 Y1.2008 F20.0000
G1 X2.5436 Y1.1976 F20.0000
G1 X2.5704 Y1.1917 F20.0000
G1 X2.5704 Y1.1917 F20.0000
G1 X2.6885 Y1.1929 F20.0000
G1 X2.7254 Y1.1998 F20.0000
G1 X2.7466 Y1.2079 F20.0000
G1 X2.7648 Y1.2207 F20.0000
G1 X2.7837 Y1.2384 F20.0000
G1 X2.8041 Y1.2623 F20.0000
G1 X2.8226 Y1.2876 F20.0000
G1 X2.8364 Y1.3093 F20.0000
G1 X2.8602 Y1.3551 F20.0000
G1 X2.8718 Y1.3841 F20.0000
G1 X2.8812 Y1.4124 F20.0000
G1 X2.8976 Y1.4729 F20.0000
G1 X2.9033 Y1.5037 F20.0000
G1 X2.9077 Y1.5347 F20.0000
G1 X2.9112 Y1.5659 F20.0000
G1 X2.9129 Y1.5972 F20.0000
G1 X2.9131 Y1.6284 F20.0000
G1 X2.9122 Y1.6597 F20.0000
G1 X2.9094 Y1.6909 F20.0000
G1 X2.9033 Y1.7217 F20.0000
G1 X2.8979 Y1.7451 F20.0000
G1 X2.8888 Y1.7751 F20.0000
G1 X2.8799 Y1.7923 F20.0000
G1 X2.8686 Y1.8029 F20.0000
G1 X2.8622 Y1.8073 F20.0000
G1 X2.8583 Y1.8083 F20.0000
G1 X2.7717 Y1.8083 F20.0000
G1 X2.7717 Y1.8083 F20.0000
G1 X2.7532 Y1.8061 F20.0000
G1 X2.7441 Y1.8041 F20.0000
G1 X2.7355 Y1.8012 F20.0000
G1 X2.7271 Y1.7977 F20.0000
G1 X2.7195 Y1.7931 F20.0000
G1 X2.7131 Y1.7874 F20.0000
G0 X2.7084 Y1.7808
G0 X2.7050 Y1.7731
G0 X2.7028 Y1.7648
G0 X2.7000 Y1.7473
G0 X2.6545 Y1.2749
G1 X2.6533 Y1.2635 F20.0000
G1 X2.6521 Y1.2419 F20.0000
G1 X2.6531 Y1.2320 F20.0000
G1 X2.6558 Y1.2234 F20.0000
G1 X2.6602 Y1.2163 F20.0000
G1 X2.6663 Y1.2101 F20.0000
G1 X2.6732 Y1.2050 F20.0000
G1 X2.6811 Y1.2008 F20.0000
G1 X2.6895 Y1.1976 F20.0000
G1 X2.7163 Y1.1917 F20.0000
G1 X2.7163 Y1.1917 F20.0000
G1 X2.8307 Y1.1929 F20.0000
G1 X2.8713 Y1.2003 F20.0000
G1 X2.8925 Y1.2087 F20.0000
G1 X2.9139 Y1.2237 F20.0000
G1 X2.9301 Y1.2397 F20.0000
G1 X2.9508 Y1.2633 F20.0000
G1 X2.9695 Y1.2884 F20.0000
G1 X2.9865 Y1.3147 F20.0000
G1 X3.0020 Y1.3403 F20.0000
G1 X3.0162 Y1.3681 F20.0000
G1 X3.0288 Y1.3967 F20.0000
G1 X3.0401 Y1.4259 F20.0000
G1 X3.0495 Y1.4557 F20.0000
G1 X3.0573 Y1.4860 F20.0000
G1 X3.0635 Y1.5167 F20.0000
G1 X3.0679 Y1.5477 F20.0000
G1 X3.0704 Y1.5790 F20.0000
G1 X3.0711 Y1.6102 F20.0000
G1 X3.0701 Y1.6415 F20.0000
G1 X3.0674 Y1.6727 F20.0000
G1 X3.0630 Y1.7037 F20.0000
G1 X3.0568 Y1.7345 F20.0000
G1 X3.0490 Y1.7650 F20.0000
G1 X3.0374 Y1.7891 F20.0000
G1 X3.0300 Y1.7982 F20.0000
G1 X3.0172 Y1.8076 F20.0000
G1 X3.0133 Y1.8083 F20.0000
G1 X2.9267 Y1.8083 F20.0000
G1 X2.9267 Y1.8083 F20.0000
G1 X2.9082 Y1.8061 F20.0000
G1 X2.8991 Y1.8041 F20.0000
G1 X2.8905 Y1.8012 F20.0000
G1 X2.8821 Y1.7977 F20.0000
G1 X2.8745 Y1.7931 F20.0000
G1 X2.8681 Y1.7874 F20.0000
G0 X2.8634 Y1.7808
G0 X2.8600 Y1.7731
G0 X2.8575 Y1.7648
G0 X2.8543 Y1.7473
G0 X2.8009 Y1.2749
G1 X2.7997 Y1.2635 F20.0000
G1 X2.7982 Y1.2419 F20.0000
G1 X2.7990 Y1.2320 F20.0000
G1 X2.8014 Y1.2234 F20.0000
G1 X2.8059 Y1.2163 F20.0000
G1 X2.8120 Y1.2101 F20.0000
G1 X2.8189 Y1.2050 F20.0000
G1 X2.8268 Y1.2008 F20.0000
G1 X2.8351 Y1.1976 F20.0000
G1 X2.8620 Y1.1917 F20.0000
G1 X2.8620 Y1.1917 F20.0000
G1 X2.9801 Y1.1929 F20.0000
G1 X3.0207 Y1.2005 F20.0000
G1 X3.0453 Y1.2104 F20.0000
G1 X3.0773 Y1.2355 F20.0000
G1 X3.1009 Y1.2613 F20.0000
G1 X3.1216 Y1.2849 F20.0000
G1 X3.1390 Y1.3108 F20.0000
G1 X3.1528 Y1.3342 F20.0000
G1 X3.1656 Y1.3575 F20.0000
G1 X3.1779 Y1.3863 F20.0000
G1 X3.1877 Y1.4134 F20.0000
G1 X3.2045 Y1.4712 F20.0000
G1 X3.2106 Y1.5020 F20.0000
G1 X3.2156 Y1.5330 F20.0000
G1 X3.2192 Y1.5642 F20.0000
G1 X3.2210 Y1.5955 F20.0000
G1 X3.2212 Y1.6267 F20.0000
G1 X3.2200 Y1.6580 F20.0000
G1 X3.2173 Y1.6892 F20.0000
G1 X3.2131 Y1.7202 F20.0000
G1 X3.2072 Y1.7510 F20.0000
G1 X3.1969 Y1.7805 F20.0000
G1 X3.1890 Y1.7938 F20.0000
G1 X3.1774 Y1.8044 F20.0000
G1 X3.1708 Y1.8083 F20.0000
G1 X3.0881 Y1.8083 F20.0000
G1 X3.0881 Y1.8083 F20.0000
G1 X3.0696 Y1.8061 F20.0000
G1 X3.0605 Y1.8041 F20.0000
G1 X3.0519 Y1.8012 F20.0000
G1 X3.0436 Y1.7977 F20.0000
G1 X3.0359 Y1.7931 F20.0000
G1 X3.0295 Y1.7874 F20.0000
G0 X3.0246 Y1.7808
G0 X3.0209 Y1.7731
G0 X3.0185 Y1.7648
G0 X3.0148 Y1.7473
G0 X2.9483 Y1.2746
G1 X2.9469 Y1.2633 F20.0000
G1 X2.9446 Y1.2419 F20.0000
G1 X2.9451 Y1.2320 F20.0000
G1 X2.9476 Y1.2234 F20.0000
G1 X2.9520 Y1.2160 F20.0000
G1 X2.9579 Y1.2101 F20.0000
G1 X2.9651 Y1.2050 F20.0000
G1 X2.9727 Y1.2008 F20.0000
G1 X2.9811 Y1.1976 F20.0000
G1 X3.0079 Y1.1917 F20.0000
G1 X3.0079 Y1.1917 F20.0000
G1 X3.1334 Y1.1932 F20.0000
G1 X3.1629 Y1.1978 F20.0000
G1 X3.1848 Y1.2045 F20.0000
G1 X3.1986 Y1.2109 F20.0000
G1 X3.2254 Y1.2313 F20.0000
G1 X3.2335 Y1.2394 F20.0000
G1 X3.2544 Y1.2625 F20.0000
G1 X3.2739 Y1.2872 F20.0000
G1 X3.3056 Y1.3364 F20.0000
G1 X3.3201 Y1.3642 F20.0000
G1 X3.3329 Y1.3927 F20.0000
G1 X3.3445 Y1.4220 F20.0000
G1 X3.3541 Y1.4518 F20.0000
G1 X3.3620 Y1.4820 F20.0000
G1 X3.3681 Y1.5128 F20.0000
G1 X3.3723 Y1.5438 F20.0000
G1 X3.3748 Y1.5750 F20.0000
G1 X3.3760 Y1.6375 F20.0000
G1 X3.3743 Y1.6688 F20.0000
G1 X3.3713 Y1.7000 F20.0000
G1 X3.3654 Y1.7308 F20.0000
G1 X3.3595 Y1.7574 F20.0000
G1 X3.3465 Y1.7901 F20.0000
G1 X3.3383 Y1.7987 F20.0000
G1 X3.3290 Y1.8061 F20.0000
G1 X3.3255 Y1.8081 F20.0000
G1 X3.2507 Y1.8083 F20.0000
G1 X3.2507 Y1.8083 F20.0000
G1 X3.2323 Y1.8061 F20.0000
G1 X3.2232 Y1.8041 F20.0000
G1 X3.2146 Y1.8012 F20.0000
G1 X3.2062 Y1.7977 F20.0000
G1 X3.1986 Y1.7931 F20.0000
G1 X3.1922 Y1.7874 F20.0000
G0 X3.1873 Y1.7808
G0 X3.1836 Y1.7731
G0 X3.1811 Y1.7648
G0 X3.1774 Y1.7473
G0 X3.1125 Y1.2746
G1 X3.1110 Y1.2633 F20.0000
G1 X3.1088 Y1.2419 F20.0000
G1 X3.1093 Y1.2320 F20.0000
G1 X3.1117 Y1.2234 F20.0000
G1 X3.1161 Y1.2160 F20.0000
G1 X3.1220 Y1.2101 F20.0000
G1 X3.1292 Y1.2050 F20.0000
G1 X3.1368 Y1.2008 F20.0000
G1 X3.1452 Y1.1976 F20.0000
G1 X3.1720 Y1.1917 F20.0000
G1 X3.1720 Y1.1917 F20.0000
G1 X3.2827 Y1.1929 F20.0000
G1 X3.3270 Y1.2010 F20.0000
G1 X3.3479 Y1.2094 F20.0000
G1 X3.3720 Y1.2264 F20.0000
G1 X3.3856 Y1.2392 F20.0000
G1 X3.4065 Y1.2625 F20.0000
G1 X3.4269 Y1.2864 F20.0000
G1 X3.4446 Y1.3123 F20.0000
G1 X3.4601 Y1.3381 F20.0000
G1 X3.4734 Y1.3617 F20.0000
G1 X3.4862 Y1.3903 F20.0000
G1 X3.4970 Y1.4190 F20.0000
G1 X3.5064 Y1.4483 F20.0000
G1 X3.5138 Y1.4788 F20.0000
G1 X3.5194 Y1.5096 F20.0000
G1 X3.5273 Y1.5719 F20.0000
G1 X3.5288 Y1.6031 F20.0000
G1 X3.5290 Y1.6344 F20.0000
G1 X3.5285 Y1.6656 F20.0000
G1 X3.5261 Y1.6969 F20.0000
G1 X3.5207 Y1.7279 F20.0000
G1 X3.5138 Y1.7539 F20.0000
G1 X3.5069 Y1.7758 F20.0000
G1 X3.5000 Y1.7896 F20.0000
G1 X3.4924 Y1.7982 F20.0000
G1 X3.4796 Y1.8076 F20.0000
G1 X3.4756 Y1.8083 F20.0000
G1 X3.3812 Y1.8083 F20.0000
G1 X3.3812 Y1.8083 F20.0000
G1 X3.3627 Y1.8061 F20.0000
G1 X3.3536 Y1.8041 F20.0000
G1 X3.3450 Y1.8012 F20.0000
G1 X3.3366 Y1.7977 F20.0000
G1 X3.3290 Y1.7931 F20.0000
G1 X3.3226 Y1.7874 F20.0000
G0 X3.3179 Y1.7808
G0 X3.3145 Y1.7731
G0 X3.3120 Y1.7648
G0 X3.3091 Y1.7473
G0 X3.2569 Y1.2749
G1 X3.2557 Y1.2635 F20.0000
G1 X3.2539 Y1.2419 F20.0000
G1 X3.2549 Y1.2320 F20.0000
G1 X3.2574 Y1.2234 F20.0000
G1 X3.2618 Y1.2163 F20.0000
G1 X3.2680 Y1.2101 F20.0000
G1 X3.2749 Y1.2050 F20.0000
G1 X3.2827 Y1.2008 F20.0000
G1 X3.2911 Y1.1976 F20.0000
G1 X3.3179 Y1.1917 F20.0000
G1 X3.3179 Y1.1917 F20.0000
G1 X3.4434 Y1.1934 F20.0000
G1 X3.4803 Y1.2003 F20.0000
G1 X3.5015 Y1.2084 F20.0000
G1 X3.5315 Y1.2303 F20.0000
G1 X3.5396 Y1.2384 F20.0000
G1 X3.5812 Y1.2854 F20.0000
G1 X3.5984 Y1.3115 F20.0000
G1 X3.6107 Y1.3329 F20.0000
G1 X3.6225 Y1.3551 F20.0000
G1 X3.6444 Y1.4090 F20.0000
G1 X3.6538 Y1.4387 F20.0000
G1 X3.6614 Y1.4692 F20.0000
G1 X3.6742 Y1.5308 F20.0000
G1 X3.6784 Y1.5618 F20.0000
G1 X3.6816 Y1.5930 F20.0000
G1 X3.6841 Y1.6243 F20.0000
G1 X3.6848 Y1.6555 F20.0000
G1 X3.6823 Y1.6868 F20.0000
G1 X3.6784 Y1.7124 F20.0000
G1 X3.6735 Y1.7375 F20.0000
G1 X3.6649 Y1.7670 F20.0000
G1 X3.6535 Y1.7911 F20.0000
G1 X3.6511 Y1.7943 F20.0000
G1 X3.6422 Y1.8022 F20.0000
G1 X3.6358 Y1.8066 F20.0000
G1 X3.6321 Y1.8083 F20.0000
G1 X3.5416 Y1.8083 F20.0000
G1 X3.5416 Y1.8083 F20.0000
G1 X3.5231 Y1.8061 F20.0000
G1 X3.5140 Y1.8041 F20.0000
G1 X3.5054 Y1.8012 F20.0000
G1 X3.4970 Y1.7977 F20.0000
G1 X3.4894 Y1.7931 F20.0000
G1 X3.4830 Y1.7874 F20.0000
G0 X3.4783 Y1.7808
G0 X3.4749 Y1.7731
G0 X3.4727 Y1.7648
G0 X3.4695 Y1.7473
G0 X3.4205 Y1.2749
G1 X3.4193 Y1.2635 F20.0000
G1 X3.4178 Y1.2419 F20.0000
G1 X3.4188 Y1.2320 F20.0000
G1 X3.4215 Y1.2234 F20.0000
G1 X3.4259 Y1.2163 F20.0000
G1 X3.4321 Y1.2101 F20.0000
G1 X3.4390 Y1.2050 F20.0000
G1 X3.4469 Y1.2008 F20.0000
G1 X3.4552 Y1.1976 F20.0000
G1 X3.4820 Y1.1917 F20.0000
G1 X3.4820 Y1.1917 F20.0000
G1 X3.5891 Y1.1927 F20.0000
G1 X3.6334 Y1.2005 F20.0000
G1 X3.6545 Y1.2089 F20.0000
G1 X3.6789 Y1.2264 F20.0000
G1 X3.6924 Y1.2394 F20.0000
G1 X3.7210 Y1.2714 F20.0000
G1 X3.7325 Y1.2950 F20.0000
G1 X3.7402 Y1.3164 F20.0000
G1 X3.7397 Y1.7852 F20.0000
G1 X3.7377 Y1.8000 F20.0000
G1 X3.7365 Y1.8036 F20.0000
G1 X3.7335 Y1.8063 F20.0000
G1 X3.7298 Y1.8081 F20.0000
G1 X3.7259 Y1.8083 F20.0000
G1 X3.7259 Y1.8083 F20.0000
G1 X3.7074 Y1.8061 F20.0000
G1 X3.6986 Y1.8039 F20.0000
G1 X3.6905 Y1.8004 F20.0000
G1 X3.6836 Y1.7960 F20.0000
G0 X3.6781 Y1.7899
G0 X3.6742 Y1.7827
G0 X3.6713 Y1.7749
G0 X3.6671 Y1.7576
G0 X3.5849 Y1.2638
G1 X3.5829 Y1.2525 F20.0000
G1 X3.5802 Y1.2313 F20.0000
G1 X3.5807 Y1.2217 F20.0000
G1 X3.5832 Y1.2136 F20.0000
G1 X3.5881 Y1.2072 F20.0000
G1 X3.5945 Y1.2020 F20.0000
G1 X3.6019 Y1.1983 F20.0000
G1 X3.6102 Y1.1956 F20.0000
G1 X3.6280 Y1.1917 F20.0000
G1 X3.6280 Y1.1917 F20.0000
G1 X3.7276 Y1.1927 F20.0000
G1 X3.7313 Y1.1932 F20.0000
G1 X3.7350 Y1.1944 F20.0000
G1 X3.7377 Y1.1971 F20.0000
G1 X3.7406 Y1.2040 F20.0000
G1 X3.7406 Y1.2114 F20.0000
G1 X3.7406 Y1.2114 F20.0000
G1 X3.7384 Y1.2293 F20.0000
G1 X3.7365 Y1.2382 F20.0000
G1 X3.7335 Y1.2468 F20.0000
G1 X3.7301 Y1.2549 F20.0000
G1 X3.7254 Y1.2625 F20.0000
G1 X3.7197 Y1.2692 F20.0000
G0 X3.7133 Y1.2744
G0 X3.7057 Y1.2785
G0 X3.6892 Y1.2847
G0 X1.9528 Y1.7087
G0 X1.9331 Y1.7119
G0 X1.8169 Y1.7148
G0 X1.8073 Y1.7160
G0 X1.7982 Y1.7183
G0 X1.7891 Y1.7217
G0 X1.7630 Y1.7352
G0 X1.7283 Y1.7557
G1 X1.7192 Y1.7611 F20.0000
G1 X1.6661 Y1.7936 F20.0000
G1 X1.6577 Y1.7980 F20.0000
G1 X1.6491 Y1.8014 F20.0000
G1 X1.6405 Y1.8039 F20.0000
G1 X1.6137 Y1.8081 F20.0000
G1 X1.6137 Y1.8081 F20.0000
G1 X1.5034 Y1.8068 F20.0000
G1 X1.4641 Y1.7990 F20.0000
G1 X1.4486 Y1.7938 F20.0000
G1 X1.4375 Y1.7884 F20.0000
G1 X1.4272 Y1.7817 F20.0000
G1 X1.4048 Y1.7635 F20.0000
G1 X1.3787 Y1.7389 F20.0000
G1 X1.3583 Y1.7148 F20.0000
G1 X1.3401 Y1.6887 F20.0000
G1 X1.3280 Y1.6681 F20.0000
G1 X1.3081 Y1.6262 F20.0000
G1 X1.2977 Y1.5962 F20.0000
G1 X1.2901 Y1.5699 F20.0000
G1 X1.2832 Y1.5404 F20.0000
G1 X1.2785 Y1.5091 F20.0000
G1 X1.2758 Y1.4793 F20.0000
G1 X1.2749 Y1.4486 F20.0000
G1 X1.2761 Y1.4176 F20.0000
G1 X1.2790 Y1.3871 F20.0000
G1 X1.2840 Y1.3565 F20.0000
G1 X1.2908 Y1.3265 F20.0000
G1 X1.2997 Y1.2970 F20.0000
G1 X1.3103 Y1.2680 F20.0000
G1 X1.3228 Y1.2397 F20.0000
G1 X1.3391 Y1.2089 F20.0000
G1 X1.3467 Y1.2000 F20.0000
G1 X1.3561 Y1.1929 F20.0000
G1 X1.3597 Y1.1917 F20.0000
G1 X1.3597 Y1.1917 F20.0000
G1 X1.3777 Y1.1934 F20.0000
G1 X1.3866 Y1.1954 F20.0000
G1 X1.3952 Y1.1981 F20.0000
G1 X1.4033 Y1.2015 F20.0000
G1 X1.4109 Y1.2060 F20.0000
G1 X1.4173 Y1.2114 F20.0000
G0 X1.4225 Y1.2180
G0 X1.4264 Y1.2256
G0 X1.4316 Y1.2424
G0 X1.5244 Y1.7279
G1 X1.5263 Y1.7382 F20.0000
G1 X1.5298 Y1.7566 F20.0000
G1 X1.5308 Y1.7655 F20.0000
G1 X1.5305 Y1.7736 F20.0000
G1 X1.5281 Y1.7810 F20.0000
G1 X1.5236 Y1.7874 F20.0000
G1 X1.5177 Y1.7931 F20.0000
G1 X1.5106 Y1.7975 F20.0000
G1 X1.5027 Y1.8012 F20.0000
G1 X1.4943 Y1.8039 F20.0000
G1 X1.4766 Y1.8068 F20.0000
G1 X1.4678 Y1.8081 F20.0000
G1 X1.4678 Y1.8081 F20.0000
G1 X1.3615 Y1.8066 F20.0000
G1 X1.3260 Y1.8000 F20.0000
G1 X1.3066 Y1.7933 F20.0000
G1 X1.2918 Y1.7859 F20.0000
G1 X1.2601 Y1.7603 F20.0000
G1 X1.2372 Y1.7384 F20.0000
G1 X1.2170 Y1.7141 F20.0000
G1 X1.1993 Y1.6887 F20.0000
G1 X1.1873 Y1.6686 F20.0000
G1 X1.1661 Y1.6248 F20.0000
G1 X1.1555 Y1.5950 F20.0000
G1 X1.1476 Y1.5682 F20.0000
G1 X1.1339 Y1.5081 F20.0000
G1 X1.1297 Y1.4769 F20.0000
G1 X1.1267 Y1.4454 F20.0000
G1 X1.1267 Y1.4139 F20.0000
G1 X1.1277 Y1.3875 F20.0000
G1 X1.1309 Y1.3561 F20.0000
G1 X1.1363 Y1.3250 F20.0000
G1 X1.1432 Y1.2955 F20.0000
G1 X1.1523 Y1.2653 F20.0000
G1 X1.1735 Y1.2099 F20.0000
G1 X1.1779 Y1.2035 F20.0000
G1 X1.1895 Y1.1929 F20.0000
G1 X1.1932 Y1.1917 F20.0000
G1 X1.1932 Y1.1917 F20.0000
G1 X1.2111 Y1.1934 F20.0000
G1 X1.2200 Y1.1954 F20.0000
G1 X1.2286 Y1.1981 F20.0000
G1 X1.2367 Y1.2015 F20.0000
G1 X1.2443 Y1.2060 F20.0000
G1 X1.2510 Y1.2114 F20.0000
G0 X1.2564 Y1.2180
G0 X1.2606 Y1.2254
G0 X1.2667 Y1.2419
G0 X1.3930 Y1.7286
G1 X1.3957 Y1.7387 F20.0000
G1 X1.4003 Y1.7571 F20.0000
G1 X1.4018 Y1.7657 F20.0000
G1 X1.4018 Y1.7739 F20.0000
G1 X1.3999 Y1.7812 F20.0000
G1 X1.3957 Y1.7876 F20.0000
G1 X1.3898 Y1.7931 F20.0000
G1 X1.3829 Y1.7975 F20.0000
G1 X1.3750 Y1.8012 F20.0000
G1 X1.3666 Y1.8039 F20.0000
G1 X1.3489 Y1.8068 F20.0000
G1 X1.3401 Y1.8081 F20.0000
G1 X1.3401 Y1.8081 F20.0000
G1 X1.2298 Y1.8073 F20.0000
G1 X1.1786 Y1.7980 F20.0000
G1 X1.1634 Y1.7921 F20.0000
G1 X1.1491 Y1.7840 F20.0000
G1 X1.1208 Y1.7603 F20.0000
G1 X1.0977 Y1.7387 F20.0000
G1 X1.0770 Y1.7148 F20.0000
G1 X1.0583 Y1.6892 F20.0000
G1 X1.0453 Y1.6686 F20.0000
G1 X1.0337 Y1.6469 F20.0000
G1 X1.0128 Y1.5987 F20.0000
G1 X1.0032 Y1.5684 F20.0000
G1 X0.9953 Y1.5381 F20.0000
G1 X0.9884 Y1.5071 F20.0000
G1 X0.9840 Y1.4759 F20.0000
G1 X0.9813 Y1.4444 F20.0000
G1 X0.9801 Y1.4129 F20.0000
G1 X0.9818 Y1.3499 F20.0000
G1 X0.9850 Y1.3184 F20.0000
G1 X0.9894 Y1.2872 F20.0000
G1 X0.9966 Y1.2564 F20.0000
G1 X1.0054 Y1.2247 F20.0000
G1 X1.0116 Y1.2099 F20.0000
G1 X1.0160 Y1.2032 F20.0000
G1 X1.0276 Y1.1927 F20.0000
G1 X1.0313 Y1.1917 F20.0000
G1 X1.0313 Y1.1917 F20.0000
G1 X1.0492 Y1.1934 F20.0000
G1 X1.0581 Y1.1954 F20.0000
G1 X1.0667 Y1.1981 F20.0000
G1 X1.0748 Y1.2015 F20.0000
G1 X1.0824 Y1.2060 F20.0000
G1 X1.0891 Y1.2114 F20.0000
G0 X1.0947 Y1.2180
G0 X1.0989 Y1.2254
G0 X1.1056 Y1.2421
G0 X1.2458 Y1.7288
G1 X1.2485 Y1.7389 F20.0000
G1 X1.2537 Y1.7571 F20.0000
G1 X1.2554 Y1.7657 F20.0000
G1 X1.2557 Y1.7739 F20.0000
G1 X1.2537 Y1.7812 F20.0000
G1 X1.2498 Y1.7876 F20.0000
G1 X1.2438 Y1.7931 F20.0000
G1 X1.2370 Y1.7975 F20.0000
G1 X1.2291 Y1.8012 F20.0000
G1 X1.2207 Y1.8039 F20.0000
G1 X1.2030 Y1.8068 F20.0000
G1 X1.1941 Y1.8081 F20.0000
G1 X1.1941 Y1.8081 F20.0000
G1 X1.0878 Y1.8073 F20.0000
G1 X1.0524 Y1.8024 F20.0000
G1 X1.0288 Y1.7960 F20.0000
G1 X1.0140 Y1.7896 F20.0000
G1 X1.0005 Y1.7805 F20.0000
G1 X0.9542 Y1.7411 F20.0000
G1 X0.9336 Y1.7173 F20.0000
G1 X0.9043 Y1.6777 F20.0000
G1 X0.8885 Y1.6501 F20.0000
G1 X0.8765 Y1.6255 F20.0000
G1 X0.8654 Y1.5997 F20.0000
G1 X0.8558 Y1.5711 F20.0000
G1 X0.8413 Y1.5153 F20.0000
G1 X0.8361 Y1.4840 F20.0000
G1 X0.8324 Y1.4525 F20.0000
G1 X0.8275 Y1.3895 F20.0000
G1 X0.8273 Y1.3580 F20.0000
G1 X0.8278 Y1.3265 F20.0000
G1 X0.8312 Y1.2950 F20.0000
G1 X0.8351 Y1.2667 F20.0000
G1 X0.8482 Y1.2207 F20.0000
G1 X0.8529 Y1.2096 F20.0000
G1 X0.8573 Y1.2032 F20.0000
G1 X0.8688 Y1.1927 F20.0000
G1 X0.8725 Y1.1917 F20.0000
G1 X0.8725 Y1.1917 F20.0000
G1 X0.8905 Y1.1934 F20.0000
G1 X0.8994 Y1.1954 F20.0000
G1 X0.9080 Y1.1981 F20.0000
G1 X0.9161 Y1.2015 F20.0000
G1 X0.9240 Y1.2060 F20.0000
G1 X0.9306 Y1.2114 F20.0000
G0 X0.9360 Y1.2178
G0 X0.9405 Y1.2251
G0 X0.9473 Y1.2416
G0 X1.0989 Y1.7296
G1 X1.1019 Y1.7394 F20.0000
G1 X1.1075 Y1.7574 F20.0000
G1 X1.1095 Y1.7660 F20.0000
G1 X1.1097 Y1.7741 F20.0000
G1 X1.1080 Y1.7812 F20.0000
G1 X1.1038 Y1.7876 F20.0000
G1 X1.0982 Y1.7931 F20.0000
G1 X1.0913 Y1.7975 F20.0000
G1 X1.0834 Y1.8012 F20.0000
G1 X1.0750 Y1.8039 F20.0000
G1 X1.0573 Y1.8068 F20.0000
G1 X1.0485 Y1.8081 F20.0000
G1 X1.0485 Y1.8081 F20.0000
G1 X0.9422 Y1.8073 F20.0000
G1 X0.9107 Y1.8031 F20.0000
G1 X0.8871 Y1.7970 F20.0000
G1 X0.8718 Y1.7908 F20.0000
G1 X0.8541 Y1.7800 F20.0000
G1 X0.8317 Y1.7623 F20.0000
G1 X0.8086 Y1.7406 F20.0000
G1 X0.7876 Y1.7170 F20.0000
G1 X0.7719 Y1.6969 F20.0000
G1 X0.7576 Y1.6757 F20.0000
G1 X0.7434 Y1.6503 F20.0000
G1 X0.7205 Y1.6019 F20.0000
G1 X0.7099 Y1.5721 F20.0000
G1 X0.7008 Y1.5421 F20.0000
G1 X0.6855 Y1.4806 F20.0000
G1 X0.6804 Y1.4493 F20.0000
G1 X0.6762 Y1.4181 F20.0000
G1 X0.6727 Y1.3866 F20.0000
G1 X0.6710 Y1.3551 F20.0000
G1 X0.6740 Y1.2953 F20.0000
G1 X0.6794 Y1.2643 F20.0000
G1 X0.6848 Y1.2399 F20.0000
G1 X0.6951 Y1.2119 F20.0000
G1 X0.7015 Y1.2020 F20.0000
G1 X0.7101 Y1.1939 F20.0000
G1 X0.7133 Y1.1917 F20.0000
G1 X0.7133 Y1.1917 F20.0000
G1 X0.7313 Y1.1934 F20.0000
G1 X0.7402 Y1.1954 F20.0000
G1 X0.7488 Y1.1981 F20.0000
G1 X0.7569 Y1.2015 F20.0000
G1 X0.7648 Y1.2060 F20.0000
G1 X0.7714 Y1.2114 F20.0000
G0 X0.7771 Y1.2180
G0 X0.7815 Y1.2251
G0 X0.7889 Y1.2416
G0 X0.9518 Y1.7296
G1 X0.9550 Y1.7397 F20.0000
G1 X0.9609 Y1.7576 F20.0000
G1 X0.9631 Y1.7662 F20.0000
G1 X0.9636 Y1.7741 F20.0000
G1 X0.9619 Y1.7812 F20.0000
G1 X0.9579 Y1.7876 F20.0000
G1 X0.9523 Y1.7931 F20.0000
G1 X0.9451 Y1.7975 F20.0000
G1 X0.9375 Y1.8012 F20.0000
G1 X0.9291 Y1.8039 F20.0000
G1 X0.9114 Y1.8068 F20.0000
G1 X0.9026 Y1.8081 F20.0000
G1 X0.9026 Y1.8081 F20.0000
G1 X0.7884 Y1.8068 F20.0000
G1 X0.7648 Y1.8034 F20.0000
G1 X0.7333 Y1.7943 F20.0000
G1 X0.7188 Y1.7872 F20.0000
G1 X0.6863 Y1.7618 F20.0000
G1 X0.6629 Y1.7404 F20.0000
G1 X0.6415 Y1.7170 F20.0000
G1 X0.6225 Y1.6924 F20.0000
G1 X0.6083 Y1.6727 F20.0000
G1 X0.5920 Y1.6457 F20.0000
G1 X0.5790 Y1.6198 F20.0000
G1 X0.5674 Y1.5938 F20.0000
G1 X0.5472 Y1.5379 F20.0000
G1 X0.5391 Y1.5074 F20.0000
G1 X0.5322 Y1.4764 F20.0000
G1 X0.5263 Y1.4454 F20.0000
G1 X0.5224 Y1.4139 F20.0000
G1 X0.5197 Y1.3824 F20.0000
G1 X0.5185 Y1.3509 F20.0000
G1 X0.5187 Y1.3194 F20.0000
G1 X0.5204 Y1.2879 F20.0000
G1 X0.5266 Y1.2569 F20.0000
G1 X0.5396 Y1.2133 F20.0000
G1 X0.5458 Y1.2030 F20.0000
G1 X0.5573 Y1.1924 F20.0000
G1 X0.5610 Y1.1917 F20.0000
G1 X0.5610 Y1.1917 F20.0000
G1 X0.5790 Y1.1934 F20.0000
G1 X0.5878 Y1.1954 F20.0000
G1 X0.5965 Y1.1981 F20.0000
G1 X0.6046 Y1.2015 F20.0000
G1 X0.6125 Y1.2060 F20.0000
G1 X0.6191 Y1.2114 F20.0000
G0 X0.6248 Y1.2180
G0 X0.6294 Y1.2251
G0 X0.6368 Y1.2416
G0 X0.8051 Y1.7296
G1 X0.8086 Y1.7397 F20.0000
G1 X0.8147 Y1.7576 F20.0000
G1 X0.8169 Y1.7662 F20.0000
G1 X0.8177 Y1.7741 F20.0000
G1 X0.8159 Y1.7812 F20.0000
G1 X0.8120 Y1.7876 F20.0000
G1 X0.8063 Y1.7931 F20.0000
G1 X0.7992 Y1.7975 F20.0000
G1 X0.7916 Y1.8012 F20.0000
G1 X0.7832 Y1.8039 F20.0000
G1 X0.7655 Y1.8068 F20.0000
G1 X0.7566 Y1.8081 F20.0000
G1 X0.7566 Y1.8081 F20.0000
G1 X0.6425 Y1.8071 F20.0000
G1 X0.5992 Y1.7990 F20.0000
G1 X0.5760 Y1.7904 F20.0000
G1 X0.5618 Y1.7817 F20.0000
G1 X0.5118 Y1.7406 F20.0000
G1 X0.4906 Y1.7173 F20.0000
G1 X0.4584 Y1.6757 F20.0000
G1 X0.4419 Y1.6486 F20.0000
G1 X0.4281 Y1.6228 F20.0000
G1 X0.4156 Y1.5962 F20.0000
G1 X0.4043 Y1.5667 F20.0000
G1 X0.3863 Y1.5091 F20.0000
G1 X0.3797 Y1.4781 F20.0000
G1 X0.3743 Y1.4469 F20.0000
G1 X0.3698 Y1.4156 F20.0000
G1 X0.3674 Y1.3841 F20.0000
G1 X0.3661 Y1.3526 F20.0000
G1 X0.3664 Y1.3211 F20.0000
G1 X0.3684 Y1.2896 F20.0000
G1 X0.3738 Y1.2584 F20.0000
G1 X0.3858 Y1.2111 F20.0000
G1 X0.3898 Y1.2042 F20.0000
G1 X0.3979 Y1.1956 F20.0000
G1 X0.4008 Y1.1932 F20.0000
G1 X0.4043 Y1.1917 F20.0000
G1 X0.4043 Y1.1917 F20.0000
G1 X0.4222 Y1.1934 F20.0000
G1 X0.4311 Y1.1954 F20.0000
G1 X0.4397 Y1.1981 F20.0000
G1 X0.4478 Y1.2015 F20.0000
G1 X0.4557 Y1.2060 F20.0000
G1 X0.4624 Y1.2114 F20.0000
G0 X0.4680 Y1.2178
G0 X0.4729 Y1.2251
G0 X0.4806 Y1.2411
G0 X0.6585 Y1.7301
G1 X0.6619 Y1.7399 F20.0000
G1 X0.6683 Y1.7579 F20.0000
G1 X0.6708 Y1.7662 F20.0000
G1 X0.6715 Y1.7741 F20.0000
G1 X0.6698 Y1.7812 F20.0000
G1 X0.6661 Y1.7876 F20.0000
G1 X0.6604 Y1.7931 F20.0000
G1 X0.6533 Y1.7975 F20.0000
G1 X0.6457 Y1.8012 F20.0000
G1 X0.6373 Y1.8039 F20.0000
G1 X0.6196 Y1.8068 F20.0000
G1 X0.6107 Y1.8081 F20.0000
G1 X0.6107 Y1.8081 F20.0000
G1 X0.4887 Y1.8068 F20.0000
G1 X0.4493 Y1.7990 F20.0000
G1 X0.4299 Y1.7923 F20.0000
G1 X0.4053 Y1.7773 F20.0000
G1 X0.3617 Y1.7416 F20.0000
G1 X0.3401 Y1.7185 F20.0000
G1 X0.3078 Y1.6779 F20.0000
G1 X0.2911 Y1.6511 F20.0000
G1 X0.2771 Y1.6257 F20.0000
G1 X0.2640 Y1.5989 F20.0000
G1 X0.2525 Y1.5694 F20.0000
G1 X0.2431 Y1.5406 F20.0000
G1 X0.2274 Y1.4815 F20.0000
G1 X0.2219 Y1.4503 F20.0000
G1 X0.2175 Y1.4190 F20.0000
G1 X0.2141 Y1.3875 F20.0000
G1 X0.2126 Y1.3561 F20.0000
G1 X0.2121 Y1.3246 F20.0000
G1 X0.2131 Y1.2931 F20.0000
G1 X0.2180 Y1.2618 F20.0000
G1 X0.2234 Y1.2394 F20.0000
G1 X0.2320 Y1.2114 F20.0000
G1 X0.2360 Y1.2045 F20.0000
G1 X0.2441 Y1.1959 F20.0000
G1 X0.2470 Y1.1934 F20.0000
G1 X0.2505 Y1.1917 F20.0000
G1 X0.2505 Y1.1917 F20.0000
G1 X0.2685 Y1.1934 F20.0000
G1 X0.2773 Y1.1954 F20.0000
G1 X0.2859 Y1.1981 F20.0000
G1 X0.2940 Y1.2015 F20.0000
G1 X0.3019 Y1.2060 F20.0000
G1 X0.3086 Y1.2114 F20.0000
G0 X0.3145 Y1.2178
G0 X0.3191 Y1.2251
G0 X0.3270 Y1.2411
G0 X0.5118 Y1.7303
G1 X0.5155 Y1.7402 F20.0000
G1 X0.5221 Y1.7579 F20.0000
G1 X0.5246 Y1.7662 F20.0000
G1 X0.5253 Y1.7744 F20.0000
G1 X0.5239 Y1.7815 F20.0000
G1 X0.5202 Y1.7876 F20.0000
G1 X0.5145 Y1.7931 F20.0000
G1 X0.5074 Y1.7975 F20.0000
G1 X0.4998 Y1.8012 F20.0000
G1 X0.4914 Y1.8039 F20.0000
G1 X0.4737 Y1.8068 F20.0000
G1 X0.4648 Y1.8081 F20.0000
G1 X0.4648 Y1.8081 F20.0000
G1 X0.3428 Y1.8071 F20.0000
G1 X0.2916 Y1.7975 F20.0000
G1 X0.2724 Y1.7901 F20.0000
G1 X0.2547 Y1.7793 F20.0000
G1 X0.2323 Y1.7608 F20.0000
G1 X0.2087 Y1.7399 F20.0000
G1 X0.1870 Y1.7168 F20.0000
G1 X0.1673 Y1.6922 F20.0000
G1 X0.1523 Y1.6703 F20.0000
G1 X0.1390 Y1.6481 F20.0000
G1 X0.1147 Y1.5987 F20.0000
G1 X0.1033 Y1.5691 F20.0000
G1 X0.0935 Y1.5391 F20.0000
G1 X0.0765 Y1.4781 F20.0000
G1 X0.0704 Y1.4471 F20.0000
G1 X0.0650 Y1.4158 F20.0000
G1 X0.0605 Y1.3846 F20.0000
G1 X0.0586 Y1.3233 F20.0000
G1 X0.0613 Y1.2918 F20.0000
G1 X0.0647 Y1.2665 F20.0000
G1 X0.0706 Y1.2360 F20.0000
G1 X0.0807 Y1.2099 F20.0000
G1 X0.0851 Y1.2035 F20.0000
G1 X0.0967 Y1.1929 F20.0000
G1 X0.1004 Y1.1917 F20.0000
G1 X0.1078 Y1.1917 F20.0000
G1 X0.1078 Y1.1917 F20.0000
G1 X0.1257 Y1.1934 F20.0000
G1 X0.1346 Y1.1954 F20.0000
G1 X0.1432 Y1.1981 F20.0000
G1 X0.1513 Y1.2015 F20.0000
G1 X0.1592 Y1.2060 F20.0000
G1 X0.1658 Y1.2114 F20.0000
G0 X0.1715 Y1.2180
G0 X0.1762 Y1.2251
G0 X0.1836 Y1.2416
G0 X0.3497 Y1.7296
G1 X0.3529 Y1.7397 F20.0000
G1 X0.3590 Y1.7576 F20.0000
G1 X0.3612 Y1.7662 F20.0000
G1 X0.3617 Y1.7741 F20.0000
G1 X0.3600 Y1.7812 F20.0000
G1 X0.3561 Y1.7876 F20.0000
G1 X0.3504 Y1.7931 F20.0000
G1 X0.3433 Y1.7975 F20.0000
G1 X0.3356 Y1.8012 F20.0000
G1 X0.3273 Y1.8039 F20.0000
G1 X0.3095 Y1.8068 F20.0000
G1 X0.3007 Y1.8081 F20.0000
G1 X0.3007 Y1.8081 F20.0000
G1 X0.1865 Y1.8068 F20.0000
G1 X0.1550 Y1.8004 F20.0000
G1 X0.1356 Y1.7938 F20.0000
G1 X0.1211 Y1.7859 F20.0000
G1 X0.0655 Y1.7397 F20.0000
G1 X0.0433 Y1.7170 F20.0000
G1 X0.0273 Y1.6932 F20.0000
G1 X0.0187 Y1.6747 F20.0000
G1 X0.0098 Y1.6471 F20.0000
G1 X0.0101 Y1.2023 F20.0000
G1 X0.0113 Y1.1986 F20.0000
G1 X0.0138 Y1.1956 F20.0000
G1 X0.0170 Y1.1934 F20.0000
G1 X0.0207 Y1.1919 F20.0000
G1 X0.0207 Y1.1919 F20.0000
G1 X0.0396 Y1.1934 F20.0000
G1 X0.0502 Y1.1959 F20.0000
G1 X0.0615 Y1.2000 F20.0000
G1 X0.0719 Y1.2057 F20.0000
G0 X0.0805 Y1.2128
G0 X0.0866 Y1.2207
G0 X0.0913 Y1.2291
G0 X0.0974 Y1.2468
G0 X0.2094 Y1.7283
G1 X0.2119 Y1.7384 F20.0000
G1 X0.2160 Y1.7569 F20.0000
G1 X0.2173 Y1.7657 F20.0000
G1 X0.2173 Y1.7739 F20.0000
G1 X0.2151 Y1.7810 F20.0000
G1 X0.2106 Y1.7874 F20.0000
G1 X0.2050 Y1.7931 F20.0000
G1 X0.1978 Y1.7975 F20.0000
G1 X0.1900 Y1.8012 F20.0000
G1 X0.1816 Y1.8039 F20.0000
G1 X0.1639 Y1.8068 F20.0000
G1 X0.1550 Y1.8081 F20.0000
G1 X0.1550 Y1.8081 F20.0000
G1 X0.0566 Y1.8073 F20.0000
G1 X0.0212 Y1.8002 F20.0000
G1 X0.0175 Y1.7985 F20.0000
G1 X0.0121 Y1.7923 F20.0000
G1 X0.0098 Y1.7889 F20.0000
G1 X0.0094 Y1.7456 F20.0000
G1 X0.0094 Y1.7456 F20.0000
G1 X0.0106 Y1.7416 F20.0000
G1 X0.0125 Y1.7411 F20.0000
G1 X0.0155 Y1.7443 F20.0000
G1 X0.0305 Y1.7744 F20.0000
G1 X0.0369 Y1.7904 F20.0000
G1 X0.0376 Y1.7968 F20.0000
G1 X0.0359 Y1.8017 F20.0000
G1 X0.0320 Y1.8051 F20.0000
G1 X0.0273 Y1.8081 F20.0000
G1 X0.0273 Y1.8081 F20.0000
G1 X0.0194 Y1.8076 F20.0000
G1 X0.0155 Y1.8061 F20.0000
G1 X0.0125 Y1.8031 F20.0000
G1 X0.0106 Y1.7995 F20.0000
G1 X0.0094 Y1.7955 F20.0000
G1 X0.0094 Y1.7955 F20.0000
G1 X0.0079 Y1.7771 F20.0000
G1 X0.0081 Y1.7680 F20.0000
G1 X0.0094 Y1.7589 F20.0000
G1 X0.0113 Y1.7500 F20.0000
G1 X0.0143 Y1.7414 F20.0000
G1 X0.0180 Y1.7330 F20.0000
G0 X0.0224 Y1.7249
G0 X0.0896 Y1.6314
G0 X0.0940 Y1.6230
G0 X0.0972 Y1.6147
G0 X0.0992 Y1.6056
G0 X0.1009 Y1.5869
G0 X0.1011 Y1.3693
G0 X0.1006 Y1.3602
G0 X0.0989 Y1.3516
G0 X0.0960 Y1.3435
G0 X0.0913 Y1.3359
G0 X0.0795 Y1.3216
G0 X0.0726 Y1.3145
G1 X0.0652 Y1.3071 F20.0000
G1 X0.0251 Y1.2689 F20.0000
G1 X0.0177 Y1.2608 F20.0000
G1 X0.0113 Y1.2527 F20.0000
G1 X0.0069 Y1.2443 F20.0000
G1 X0.0042 Y1.2357 F20.0000
G1 X0.0027 Y1.2266 F20.0000
G1 X0.0025 Y1.2178 F20.0000
G1 X0.0034 Y1.2092 F20.0000
G1 X0.0064 Y1.2013 F20.0000
G1 X0.0108 Y1.1944 F20.0000
G1 X0.0226 Y1.1826 F20.0000
G1 X0.0226 Y1.1826 F20.0000
G1 X3.7293 Y1.1831 F20.0000
G1 X3.7352 Y1.1843 F20.0000
G1 X3.7389 Y1.1860 F20.0000
G1 X3.7434 Y1.1900 F20.0000
G1 X3.7461 Y1.1937 F20.0000
G1 X3.7490 Y1.1998 F20.0000
G1 X3.7500 Y1.2074 F20.0000
G1 X3.7493 Y1.7987 F20.0000
G1 X3.7473 Y1.8044 F20.0000
G1 X3.7424 Y1.8110 F20.0000
G1 X3.7379 Y1.8140 F20.0000
G1 X3.7325 Y1.8167 F20.0000
G1 X3.7227 Y1.8177 F20.0000
G1 X0.0207 Y1.8169 F20.0000
G1 X0.0138 Y1.8152 F20.0000
G1 X0.0106 Y1.8135 F20.0000
G1 X0.0064 Y1.8098 F20.0000
G1 X0.0032 Y1.8049 F20.0000
G1 X0.0012 Y1.8002 F20.0000
G1 X0.0002 Y1.7945 F20.0000
G1 X0.0007 Y1.2013 F20.0000
G1 X0.0020 Y1.1969 F20.0000
G1 X0.0047 Y1.1924 F20.0000
G1 X0.0076 Y1.1890 F20.0000
G1 X0.0121 Y1.1860 F20.0000
G1 X0.0175 Y1.1833 F20.0000
G1 X0.0226 Y1.1826 F20.0000
G1 X0.0226 Y1.1826 F20.0000
G0 Z0.9969
(Helix to depth: 15.240000)
G0 Z0.9969
G0 X1.8421 Y1.3211 Z0.9969
G0 X1.8421 Y1.3211 Z0.9181
G1 X1.8421 Y1.3211 Z0.7000 F2.0000
G1 X2.0478 Y1.5000 Z0.7000 F2.0000
G1 X2.0471 Y1.5154 Z0.6994 F2.0000
G1 X2.0450 Y1.5306 Z0.6988 F2.0000
G1 X2.0416 Y1.5456 Z0.6982 F2.0000
G1 X2.0368 Y1.5602 Z0.6976 F2.0000
G1 X2.0308 Y1.5743 Z0.6970 F2.0000
G1 X2.0235 Y1.5878 Z0.6965 F2.0000
G1 X2.0151 Y1.6007 Z0.6959 F2.0000
G1 X2.0055 Y1.6127 Z0.6953 F2.0000
G1 X1.9950 Y1.6238 Z0.6947 F2.0000
G1 X1.9835 Y1.6339 Z0.6941 F2.0000
G1 X1.9711 Y1.6430 Z0.6935 F2.0000
G1 X1.9580 Y1.6509 Z0.6929 F2.0000
G1 X1.9442 Y1.6577 Z0.6923 F2.0000
G1 X1.9299 Y1.6631 Z0.6917 F2.0000
G1 X1.9152 Y1.6673 Z0.6911 F2.0000
G1 X1.9001 Y1.6702 Z0.6906 F2.0000
G1 X1.8849 Y1.6717 Z0.6900 F2.0000
G1 X1.8696 Y1.6718 Z0.6894 F2.0000
G1 X1.8544 Y1.6706 Z0.6888 F2.0000
G1 X1.8393 Y1.6681 Z0.6882 F2.0000
G1 X1.8245 Y1.6642 Z0.6876 F2.0000
G1 X1.8101 Y1.6590 Z0.6870 F2.0000
G1 X1.7963 Y1.6525 Z0.6864 F2.0000
G1 X1.7830 Y1.6449 Z0.6858 F2.0000
G1 X1.7706 Y1.6361 Z0.6852 F2.0000
G1 X1.7589 Y1.6262 Z0.6846 F2.0000
G1 X1.7482 Y1.6154 Z0.6841 F2.0000
G1 X1.7385 Y1.6036 Z0.6835 F2.0000
G1 X1.7298 Y1.5911 Z0.6829 F2.0000
G1 X1.7224 Y1.5778 Z0.6823 F2.0000
G1 X1.7161 Y1.5639 Z0.6817 F2.0000
G1 X1.7111 Y1.5495 Z0.6811 F2.0000
G1 X1.7074 Y1.5347 Z0.6805 F2.0000
G1 X1.7050 Y1.5197 Z0.6799 F2.0000
G1 X1.7040 Y1.5045 Z0.6793 F2.0000
G1 X1.7043 Y1.4893 Z0.6787 F2.0000
G1 X1.7060 Y1.4741 Z0.6781 F2.0000
G1 X1.7090 Y1.4592 Z0.6776 F2.0000
G1 X1.7134 Y1.4447 Z0.6770 F2.0000
G1 X1.7190 Y1.4305 Z0.6764 F2.0000
G1 X1.7258 Y1.4170 Z0.6758 F2.0000
G1 X1.7338 Y1.4041 Z0.6752 F2.0000
G1 X1.7430 Y1.3919 Z0.6746 F2.0000
G1 X1.7531 Y1.3807 Z0.6740 F2.0000
G1 X1.7643 Y1.3703 Z0.6734 F2.0000
G1 X1.7762 Y1.3610 Z0.6728 F2.0000
G1 X1.7890 Y1.3529 Z0.6722 F2.0000
G1 X1.8025 Y1.3458 Z0.6717 F2.0000
G1 X1.8165 Y1.3401 Z0.6711 F2.0000
G1 X1.8309 Y1.3355 Z0.6705 F2.0000
G1 X1.8457 Y1.3323 Z0.6699 F2.0000
G1 X1.8608 Y1.3304 Z0.6693 F2.0000
G1 X1.8759 Y1.3299 Z0.6687 F2.0000
G1 X1.8910 Y1.3307 Z0.6681 F2.0000
G1 X1.9060 Y1.3328 Z0.6675 F2.0000
G1 X1.9207 Y1.3363 Z0.6669 F2.0000
G1 X1.9351 Y1.3411 Z0.6663 F2.0000
G1 X1.9489 Y1.3471 Z0.6657 F2.0000
G1 X1.9622 Y1.3543 Z0.6652 F2.0000
G1 X1.9748 Y1.3627 Z0.6646 F2.0000
G1 X1.9866 Y1.3721 Z0.6640 F2.0000
G1 X1.9974 Y1.3826 Z0.6634 F2.0000
G1 X2.0074 Y1.3940 Z0.6628 F2.0000
G1 X2.0162 Y1.4062 Z0.6622 F2.0000
G1 X2.0240 Y1.4191 Z0.6616 F2.0000
G1 X2.0305 Y1.4327 Z0.6610 F2.0000
G1 X2.0358 Y1.4468 Z0.6604 F2.0000
G1 X2.0399 Y1.4613 Z0.6598 F2.0000
G1 X2.0426 Y1.4761 Z0.6593 F2.0000
G1 X2.0440 Y1.4911 Z0.6587 F2.0000
G1 X2.0441 Y1.5062 Z0.6581 F2.0000
G1 X2.0428 Y1.5212 Z0.6575 F2.0000
G1 X2.0402 Y1.5360 Z0.6569 F2.0000
G1 X2.0363 Y1.5505 Z0.6563 F2.0000
G1 X2.0311 Y1.5647 Z0.6557 F2.0000
G1 X2.0247 Y1.5783 Z0.6551 F2.0000
G1 X2.0171 Y1.5912 Z0.6545 F2.0000
G1 X2.0084 Y1.6035 Z0.6539 F2.0000
G1 X1.9986 Y1.6149 Z0.6533 F2.0000
G1 X1.9879 Y1.6254 Z0.6528 F2.0000
G1 X1.9763 Y1.6349 Z0.6522 F2.0000
G1 X1.9639 Y1.6433 Z0.6516 F2.0000
G1 X1.9507 Y1.6506 Z0.6510 F2.0000
G1 X1.9370 Y1.6567 Z0.6504 F2.0000
G1 X1.9228 Y1.6615 Z0.6498 F2.0000
G1 X1.9083 Y1.6651 Z0.6492 F2.0000
G1 X1.8935 Y1.6673 Z0.6486 F2.0000
G1 X1.8785 Y1.6683 Z0.6480 F2.0000
G1 X1.8636 Y1.6679 Z0.6474 F2.0000
G1 X1.8487 Y1.6661 Z0.6469 F2.0000
G1 X1.8340 Y1.6631 Z0.6463 F2.0000
G1 X1.8197 Y1.6587 Z0.6457 F2.0000
G1 X1.8058 Y1.6532 Z0.6451 F2.0000
G1 X1.7925 Y1.6464 Z0.6445 F2.0000
G1 X1.7799 Y1.6384 Z0.6439 F2.0000
G1 X1.7680 Y1.6294 Z0.6433 F2.0000
G1 X1.7569 Y1.6193 Z0.6427 F2.0000
G1 X1.7468 Y1.6083 Z0.6421 F2.0000
G1 X1.7378 Y1.5964 Z0.6415 F2.0000
G1 X1.7298 Y1.5838 Z0.6409 F2.0000
G1 X1.7230 Y1.5706 Z0.6404 F2.0000
G1 X1.7173 Y1.5568 Z0.6398 F2.0000
G1 X1.7130 Y1.5425 Z0.6392 F2.0000
G1 X1.7099 Y1.5279 Z0.6386 F2.0000
G1 X1.7081 Y1.5131 Z0.6380 F2.0000
G1 X1.7076 Y1.4982 Z0.6374 F2.0000
G1 X1.7085 Y1.4834 Z0.6368 F2.0000
G1 X1.7107 Y1.4687 Z0.6362 F2.0000
G1 X1.7142 Y1.4542 Z0.6356 F2.0000
G1 X1.7189 Y1.4401 Z0.6350 F2.0000
G1 X1.7249 Y1.4265 Z0.6344 F2.0000
G1 X1.7321 Y1.4135 Z0.6339 F2.0000
G1 X1.7404 Y1.4011 Z0.6333 F2.0000
G1 X1.7498 Y1.3896 Z0.6327 F2.0000
G1 X1.7601 Y1.3789 Z0.6321 F2.0000
G1 X1.7714 Y1.3692 Z0.6315 F2.0000
G1 X1.7834 Y1.3606 Z0.6309 F2.0000
G1 X1.7962 Y1.3530 Z0.6303 F2.0000
G1 X1.8096 Y1.3467 Z0.6297 F2.0000
G1 X1.8235 Y1.3415 Z0.6291 F2.0000
G1 X1.8378 Y1.3376 Z0.6285 F2.0000
G1 X1.8524 Y1.3350 Z0.6280 F2.0000
G1 X1.8672 Y1.3337 Z0.6274 F2.0000
G1 X1.8820 Y1.3337 Z0.6268 F2.0000
G1 X1.8967 Y1.3350 Z0.6262 F2.0000
G1 X1.9113 Y1.3377 Z0.6256 F2.0000
G1 X1.9256 Y1.3416 Z0.6250 F2.0000
G1 X1.9394 Y1.3468 Z0.6244 F2.0000
G1 X1.9528 Y1.3531 Z0.6238 F2.0000
G1 X1.9655 Y1.3607 Z0.6232 F2.0000
G1 X1.9775 Y1.3693 Z0.6226 F2.0000
G1 X1.9887 Y1.3790 Z0.6220 F2.0000
G1 X1.9989 Y1.3896 Z0.6215 F2.0000
G1 X2.0082 Y1.4011 Z0.6209 F2.0000
G1 X2.0164 Y1.4133 Z0.6203 F2.0000
G1 X2.0235 Y1.4263 Z0.6197 F2.0000
G1 X2.0294 Y1.4398 Z0.6191 F2.0000
G1 X2.0341 Y1.4538 Z0.6185 F2.0000
G1 X2.0376 Y1.4681 Z0.6179 F2.0000
G1 X2.0397 Y1.4827 Z0.6173 F2.0000
G1 X2.0405 Y1.4974 Z0.6167 F2.0000
G1 X2.0401 Y1.5121 Z0.6161 F2.0000
G1 X2.0383 Y1.5267 Z0.6156 F2.0000
G1 X2.0352 Y1.5411 Z0.6150 F2.0000
G1 X2.0309 Y1.5552 Z0.6144 F2.0000
G1 X2.0253 Y1.5688 Z0.6138 F2.0000
G1 X2.0185 Y1.5819 Z0.6132 F2.0000
G1 X2.0107 Y1.5943 Z0.6126 F2.0000
G1 X2.0017 Y1.6059 Z0.6120 F2.0000
G1 X1.9917 Y1.6167 Z0.6114 F2.0000
G1 X1.9809 Y1.6266 Z0.6108 F2.0000
G1 X1.9692 Y1.6355 Z0.6102 F2.0000
G1 X1.9567 Y1.6433 Z0.6096 F2.0000
G1 X1.9436 Y1.6499 Z0.6091 F2.0000
G1 X1.9300 Y1.6554 Z0.6085 F2.0000
G1 X1.9160 Y1.6596 Z0.6079 F2.0000
G1 X1.9016 Y1.6626 Z0.6073 F2.0000
G1 X1.8871 Y1.6642 Z0.6067 F2.0000
G1 X1.8724 Y1.6646 Z0.6061 F2.0000
G1 X1.8578 Y1.6637 Z0.6055 F2.0000
G1 X1.8433 Y1.6615 Z0.6049 F2.0000
G1 X1.8291 Y1.6579 Z0.6043 F2.0000
G1 X1.8153 Y1.6532 Z0.6037 F2.0000
G1 X1.8019 Y1.6472 Z0.6031 F2.0000
G1 X1.7891 Y1.6401 Z0.6026 F2.0000
G1 X1.7771 Y1.6319 Z0.6020 F2.0000
G1 X1.7658 Y1.6226 Z0.6014 F2.0000
G1 X1.7553 Y1.6124 Z0.6008 F2.0000
G1 X1.7459 Y1.6013 Z0.6002 F2.0000
G3 X2.0041 Y1.3987 Z0.6000 I0.1291 J-0.1013 F20.0000
G3 X1.7459 Y1.6013 Z0.6000 I-0.1291 J0.1013 F20.0000
(Adaptive - depth: 15.240000)
G1 X1.8750 Y1.3177 F20.0000
G1 X1.8777 Y1.3147 F20.0000
G1 X1.8797 Y1.3113 F20.0000
G1 X1.8802 Y1.3073 F20.0000
G1 X1.8834 Y1.3000 F20.0000
G1 X1.8907 Y1.2908 F20.0000
G1 X1.9038 Y1.2817 F20.0000
G1 X1.9326 Y1.2692 F20.0000
G1 X1.9577 Y1.2645 F20.0000
G1 X1.9793 Y1.2640 F20.0000
G1 X1.9973 Y1.2655 F20.0000
G1 X2.0212 Y1.2719 F20.0000
G1 X2.0364 Y1.2771 F20.0000
G1 X2.0536 Y1.2849 F20.0000
G1 X2.0701 Y1.2950 F20.0000
G1 X2.0846 Y1.3059 F20.0000
G1 X2.0992 Y1.3179 F20.0000
G1 X2.1169 Y1.3369 F20.0000
G1 X2.1294 Y1.3529 F20.0000
G1 X2.1412 Y1.3706 F20.0000
G1 X2.1516 Y1.3903 F20.0000
G1 X2.1597 Y1.4099 F20.0000
G1 X2.1663 Y1.4304 F20.0000
G1 X2.1722 Y1.4513 F20.0000
G1 X2.1777 Y1.4823 F20.0000
G1 X2.1801 Y1.5066 F20.0000
G1 X2.1794 Y1.5322 F20.0000
G1 X2.1777 Y1.5509 F20.0000
G1 X2.1735 Y1.5731 F20.0000
G1 X2.1673 Y1.5942 F20.0000
G1 X2.1513 Y1.6341 F20.0000
G1 X2.1361 Y1.6617 F20.0000
G1 X2.1228 Y1.6826 F20.0000
G1 X2.1073 Y1.7037 F20.0000
G1 X2.0888 Y1.7249 F20.0000
G1 X2.0689 Y1.7421 F20.0000
G1 X2.0549 Y1.7530 F20.0000
G1 X2.0352 Y1.7653 F20.0000
G1 X1.9751 Y1.7879 F20.0000
G1 X1.9082 Y1.7992 F20.0000
G1 X1.8452 Y1.8012 F20.0000
G1 X1.7822 Y1.7938 F20.0000
G1 X1.7586 Y1.7869 F20.0000
G1 X1.7217 Y1.7689 F20.0000
G1 X1.7114 Y1.7623 F20.0000
G1 X1.6604 Y1.7247 F20.0000
G1 X1.6383 Y1.7020 F20.0000
G1 X1.6134 Y1.6700 F20.0000
G1 X1.6004 Y1.6469 F20.0000
G1 X1.5913 Y1.6270 F20.0000
G1 X1.5755 Y1.5844 F20.0000
G1 X1.5682 Y1.5536 F20.0000
G1 X1.5632 Y1.5271 F20.0000
G1 X1.5620 Y1.4980 F20.0000
G1 X1.5623 Y1.4796 F20.0000
G1 X1.5647 Y1.4557 F20.0000
G1 X1.5694 Y1.4333 F20.0000
G1 X1.5819 Y1.3910 F20.0000
G1 X1.5945 Y1.3620 F20.0000
G1 X1.6061 Y1.3388 F20.0000
G1 X1.6213 Y1.3155 F20.0000
G1 X1.6339 Y1.2987 F20.0000
G1 X1.6501 Y1.2803 F20.0000
G1 X1.6676 Y1.2638 F20.0000
G1 X1.6838 Y1.2473 F20.0000
G1 X1.7242 Y1.2099 F20.0000
G1 X1.7343 Y1.2037 F20.0000
G1 X1.7495 Y1.1917 F20.0000
G1 X2.1001 Y1.1934 F20.0000
G1 X2.1481 Y1.2030 F20.0000
G1 X2.1690 Y1.2121 F20.0000
G1 X2.2018 Y1.2367 F20.0000
G1 X2.2266 Y1.2616 F20.0000
G1 X2.2461 Y1.2862 F20.0000
G1 X2.2628 Y1.3115 F20.0000
G1 X2.2749 Y1.3329 F20.0000
G1 X2.2847 Y1.3541 F20.0000
G1 X2.3017 Y1.4013 F20.0000
G1 X2.3091 Y1.4318 F20.0000
G1 X2.3142 Y1.4604 F20.0000
G1 X2.3182 Y1.4902 F20.0000
G1 X2.3199 Y1.5214 F20.0000
G1 X2.3196 Y1.5517 F20.0000
G1 X2.3155 Y1.5822 F20.0000
G1 X2.3118 Y1.6014 F20.0000
G1 X2.2980 Y1.6503 F20.0000
G1 X2.2864 Y1.6796 F20.0000
G1 X2.2739 Y1.7067 F20.0000
G1 X2.2596 Y1.7345 F20.0000
G1 X2.2431 Y1.7613 F20.0000
G1 X2.2251 Y1.7872 F20.0000
G1 X2.2126 Y1.7968 F20.0000
G1 X2.1951 Y1.8063 F20.0000
G1 X2.1914 Y1.8078 F20.0000
G1 X1.6521 Y1.8068 F20.0000
G1 X1.6245 Y1.8029 F20.0000
G1 X1.5893 Y1.7918 F20.0000
G1 X1.5819 Y1.7884 F20.0000
G1 X1.5581 Y1.7726 F20.0000
G1 X1.5453 Y1.7623 F20.0000
G1 X1.5221 Y1.7406 F20.0000
G1 X1.5015 Y1.7165 F20.0000
G1 X1.4862 Y1.6956 F20.0000
G1 X1.4729 Y1.6759 F20.0000
G1 X1.4587 Y1.6494 F20.0000
G1 X1.4478 Y1.6252 F20.0000
G1 X1.4385 Y1.6004 F20.0000
G1 X1.4309 Y1.5738 F20.0000
G1 X1.4252 Y1.5475 F20.0000
G1 X1.4215 Y1.5209 F20.0000
G1 X1.4198 Y1.4938 F20.0000
G1 X1.4200 Y1.4670 F20.0000
G1 X1.4222 Y1.4402 F20.0000
G1 X1.4264 Y1.4136 F20.0000
G1 X1.4323 Y1.3873 F20.0000
G1 X1.4483 Y1.3359 F20.0000
G1 X1.4606 Y1.3068 F20.0000
G1 X1.4744 Y1.2785 F20.0000
G1 X1.4894 Y1.2507 F20.0000
G1 X1.5172 Y1.2074 F20.0000
G1 X1.5258 Y1.1993 F20.0000
G1 X1.5354 Y1.1929 F20.0000
G1 X1.5391 Y1.1917 F20.0000
G1 X1.5650 Y1.1917 F20.0000
G1 X1.5650 Y1.1917 F20.0000
G1 X1.5682 Y1.1917 F20.0000
G1 X1.5679 Y1.1919 F20.0000
G1 X1.5645 Y1.1917 F20.0000
G1 X1.5674 Y1.1914 F20.0000
G1 X1.5674 Y1.1914 F20.0000
G1 X1.6191 Y1.1917 F20.0000
G1 X1.6191 Y1.1917 F20.0000
G1 X1.6371 Y1.1934 F20.0000
G1 X1.6459 Y1.1954 F20.0000
G1 X1.6545 Y1.1981 F20.0000
G1 X1.6629 Y1.2015 F20.0000
G1 X1.6708 Y1.2057 F20.0000
G1 X1.6786 Y1.2106 F20.0000
G0 X1.6860 Y1.2160
G0 X1.7527 Y1.2724
G0 X1.7606 Y1.2773
G0 X1.7689 Y1.2810
G0 X1.7778 Y1.2830
G0 X1.7968 Y1.2847
G0 X1.9523 Y1.2844
G0 X1.9619 Y1.2840
G0 X1.9712 Y1.2827
G0 X1.9801 Y1.2798
G0 X1.9887 Y1.2758
G0 X2.0052 Y1.2653
G0 X2.0212 Y1.2534
G1 X2.0288 Y1.2475 F20.0000
G1 X2.0731 Y1.2138 F20.0000
G1 X2.0888 Y1.2045 F20.0000
G1 X2.0972 Y1.2005 F20.0000
G1 X2.1058 Y1.1976 F20.0000
G1 X2.1326 Y1.1917 F20.0000
G1 X2.1326 Y1.1917 F20.0000
G1 X2.2544 Y1.1929 F20.0000
G1 X2.2987 Y1.2013 F20.0000
G1 X2.3191 Y1.2101 F20.0000
G1 X2.3430 Y1.2281 F20.0000
G1 X2.3538 Y1.2387 F20.0000
G1 X2.3745 Y1.2623 F20.0000
G1 X2.3927 Y1.2879 F20.0000
G1 X2.4053 Y1.3083 F20.0000
G1 X2.4178 Y1.3314 F20.0000
G1 X2.4296 Y1.3588 F20.0000
G1 X2.4387 Y1.3839 F20.0000
G1 X2.4464 Y1.4104 F20.0000
G1 X2.4574 Y1.4646 F20.0000
G1 X2.4609 Y1.4958 F20.0000
G1 X2.4628 Y1.5271 F20.0000
G1 X2.4636 Y1.5583 F20.0000
G1 X2.4621 Y1.5896 F20.0000
G1 X2.4592 Y1.6208 F20.0000
G1 X2.4528 Y1.6516 F20.0000
G1 X2.4471 Y1.6750 F20.0000
G1 X2.4375 Y1.7045 F20.0000
G1 X2.4158 Y1.7581 F20.0000
G1 X2.4016 Y1.7862 F20.0000
G1 X2.3967 Y1.7923 F20.0000
G1 X2.3780 Y1.8066 F20.0000
G1 X2.3743 Y1.8083 F20.0000
G1 X2.2719 Y1.8083 F20.0000
G1 X2.2719 Y1.8083 F20.0000
G1 X2.2534 Y1.8061 F20.0000
G1 X2.2443 Y1.8041 F20.0000
G1 X2.2357 Y1.8012 F20.0000
G1 X2.2274 Y1.7977 F20.0000
G1 X2.2200 Y1.7931 F20.0000
G1 X2.2138 Y1.7874 F20.0000
G0 X2.2096 Y1.7808
G0 X2.2072 Y1.7731
G0 X2.2060 Y1.7648
G0 X2.2055 Y1.7473
G0 X2.2271 Y1.2751
G1 X2.2276 Y1.2638 F20.0000
G1 X2.2293 Y1.2421 F20.0000
G1 X2.2313 Y1.2323 F20.0000
G1 X2.2350 Y1.2234 F20.0000
G1 X2.2399 Y1.2163 F20.0000
G1 X2.2463 Y1.2101 F20.0000
G1 X2.2537 Y1.2050 F20.0000
G1 X2.2616 Y1.2008 F20.0000
G1 X2.2699 Y1.1976 F20.0000
G1 X2.2968 Y1.1917 F20.0000
G1 X2.2968 Y1.1917 F20.0000
G1 X2.4001 Y1.1932 F20.0000
G1 X2.4407 Y1.2008 F20.0000
G1 X2.4616 Y1.2094 F20.0000
G1 X2.4801 Y1.2224 F20.0000
G1 X2.4963 Y1.2384 F20.0000
G1 X2.5167 Y1.2623 F20.0000
G1 X2.5349 Y1.2879 F20.0000
G1 X2.5492 Y1.3118 F20.0000
G1 X2.5605 Y1.3327 F20.0000
G1 X2.5723 Y1.3602 F20.0000
G1 X2.5898 Y1.4109 F20.0000
G1 X2.5969 Y1.4414 F20.0000
G1 X2.6026 Y1.4722 F20.0000
G1 X2.6070 Y1.5032 F20.0000
G1 X2.6090 Y1.5344 F20.0000
G1 X2.6095 Y1.5657 F20.0000
G1 X2.6083 Y1.5969 F20.0000
G1 X2.6051 Y1.6282 F20.0000
G1 X2.6001 Y1.6592 F20.0000
G1 X2.5871 Y1.7207 F20.0000
G1 X2.5782 Y1.7510 F20.0000
G1 X2.5667 Y1.7803 F20.0000
G1 X2.5605 Y1.7904 F20.0000
G1 X2.5492 Y1.8014 F20.0000
G1 X2.5394 Y1.8081 F20.0000
G1 X2.4567 Y1.8083 F20.0000
G1 X2.4567 Y1.8083 F20.0000
G1 X2.4382 Y1.8061 F20.0000
G1 X2.4291 Y1.8041 F20.0000
G1 X2.4205 Y1.8012 F20.0000
G1 X2.4122 Y1.7977 F20.0000
G1 X2.4045 Y1.7931 F20.0000
G1 X2.3984 Y1.7874 F20.0000
G0 X2.3937 Y1.7808
G0 X2.3907 Y1.7731
G0 X2.3888 Y1.7648
G0 X2.3866 Y1.7473
G0 X2.3605 Y1.2749
G1 X2.3597 Y1.2635 F20.0000
G1 X2.3593 Y1.2419 F20.0000
G1 X2.3605 Y1.2320 F20.0000
G1 X2.3634 Y1.2234 F20.0000
G1 X2.3681 Y1.2163 F20.0000
G1 X2.3743 Y1.2101 F20.0000
G1 X2.3814 Y1.2050 F20.0000
G1 X2.3893 Y1.2008 F20.0000
G1 X2.3976 Y1.1976 F20.0000
G1 X2.4245 Y1.1917 F20.0000
G1 X2.4245 Y1.1917 F20.0000
G1 X2.5426 Y1.1929 F20.0000
G1 X2.5832 Y1.2005 F20.0000
G1 X2.6041 Y1.2089 F20.0000
G1 X2.6225 Y1.2217 F20.0000
G1 X2.6415 Y1.2397 F20.0000
G1 X2.6617 Y1.2635 F20.0000
G1 X2.6799 Y1.2891 F20.0000
G1 X2.6937 Y1.3118 F20.0000
G1 X2.7057 Y1.3344 F20.0000
G1 X2.7180 Y1.3627 F20.0000
G1 X2.7271 Y1.3885 F20.0000
G1 X2.7429 Y1.4427 F20.0000
G1 X2.7488 Y1.4734 F20.0000
G1 X2.7534 Y1.5044 F20.0000
G1 X2.7571 Y1.5357 F20.0000
G1 X2.7589 Y1.5669 F20.0000
G1 X2.7594 Y1.5982 F20.0000
G1 X2.7584 Y1.6294 F20.0000
G1 X2.7557 Y1.6607 F20.0000
G1 X2.7515 Y1.6917 F20.0000
G1 X2.7458 Y1.7227 F20.0000
G1 X2.7370 Y1.7530 F20.0000
G1 X2.7224 Y1.7874 F20.0000
G1 X2.7126 Y1.7992 F20.0000
G1 X2.7032 Y1.8063 F20.0000
G1 X2.6998 Y1.8083 F20.0000
G1 X2.6211 Y1.8083 F20.0000
G1 X2.6211 Y1.8083 F20.0000
G1 X2.6026 Y1.8061 F20.0000
G1 X2.5935 Y1.8041 F20.0000
G1 X2.5849 Y1.8012 F20.0000
G1 X2.5765 Y1.7977 F20.0000
G1 X2.5689 Y1.7931 F20.0000
G1 X2.5627 Y1.7874 F20.0000
G0 X2.5578 Y1.7808
G0 X2.5546 Y1.7731
G0 X2.5524 Y1.7648
G0 X2.5497 Y1.7473
G0 X2.5081 Y1.2749
G1 X2.5071 Y1.2635 F20.0000
G1 X2.5059 Y1.2419 F20.0000
G1 X2.5069 Y1.2320 F20.0000
G1 X2.5096 Y1.2234 F20.0000
G1 X2.5143 Y1.2163 F20.0000
G1 X2.5202 Y1.2101 F20.0000
G1 X2.5273 Y1.2050 F20.0000
G1 X2.5352 Y1.2008 F20.0000
G1 X2.5436 Y1.1976 F20.0000
G1 X2.5704 Y1.1917 F20.0000
G1 X2.5704 Y1.1917 F20.0000
G1 X2.6885 Y1.1929 F20.0000
G1 X2.7254 Y1.1998 F20.0000
G1 X2.7466 Y1.2079 F20.0000
G1 X2.7648 Y1.2207 F20.0000
G1 X2.7837 Y1.2384 F20.0000
G1 X2.8041 Y1.2623 F20.0000
G1 X2.8226 Y1.2876 F20.0000
G1 X2.8364 Y1.3093 F20.0000
G1 X2.8602 Y1.3551 F20.0000
G1 X2.8718 Y1.3841 F20.0000
G1 X2.8812 Y1.4124 F20.0000
G1 X2.8976 Y1.4729 F20.0000
G1 X2.9033 Y1.5037 F20.0000
G1 X2.9077 Y1.5347 F20.0000
G1 X2.9112 Y1.5659 F20.0000
G1 X2.9129 Y1.5972 F20.0000
G1 X2.9131 Y1.6284 F20.0000
G1 X2.9122 Y1.6597 F20.0000
G1 X2.9094 Y1.6909 F20.0000
G1 X2.9033 Y1.7217 F20.0000
G1 X2.8979 Y1.7451 F20.0000
G1 X2.8888 Y1.7751 F20.0000
G1 X2.8799 Y1.7923 F20.0000
G1 X2.8686 Y1.8029 F20.0000
G1 X2.8622 Y1.8073 F20.0000
G1 X2.8583 Y1.8083 F20.0000
G1 X2.7717 Y1.8083 F20.0000
G1 X2.7717 Y1.8083 F20.0000
G1 X2.7532 Y1.8061 F20.0000
G1 X2.7441 Y1.8041 F20.0000
G1 X2.7355 Y1.8012 F20.0000
G1 X2.7271 Y1.7977 F20.0000
G1 X2.7195 Y1.7931 F20.0000
G1 X2.7131 Y1.7874 F20.0000
G0 X2.7084 Y1.7808
G0 X2.7050 Y1.7731
G0 X2.7028 Y1.7648
G0 X2.7000 Y1.7473
G0 X2.6545 Y1.2749
G1 X2.6533 Y1.2635 F20.0000
G1 X2.6521 Y1.2419 F20.0000
G1 X2.6531 Y1.2320 F20.0000
G1 X2.6558 Y1.2234 F20.0000
G1 X2.6602 Y1.2163 F20.0000
G1 X2.6663 Y1.2101 F20.0000
G1 X2.6732 Y1.2050 F20.0000
G1 X2.6811 Y1.2008 F20.0000
G1 X2.6895 Y1.1976 F20.0000
G1 X2.7163 Y1.1917 F20.0000
G1 X2.7163 Y1.1917 F20.0000
G1 X2.8307 Y1.1929 F20.0000
G1 X2.8713 Y1.2003 F20.0000
G1 X2.8925 Y1.2087 F20.0000
G1 X2.9139 Y1.2237 F20.0000
G1 X2.9301 Y1.2397 F20.0000
G1 X2.9508 Y1.2633 F20.0000
G1 X2.9695 Y1.2884 F20.0000
G1 X2.9865 Y1.3147 F20.0000
G1 X3.0020 Y1.3403 F20.0000
G1 X3.0162 Y1.3681 F20.0000
G1 X3.0288 Y1.3967 F20.0000
G1 X3.0401 Y1.4259 F20.0000
G1 X3.0495 Y1.4557 F20.0000
G1 X3.0573 Y1.4860 F20.0000
G1 X3.0635 Y1.5167 F20.0000
G1 X3.0679 Y1.5477 F20.0000
G1 X3.0704 Y1.5790 F20.0000
G1 X3.0711 Y1.6102 F20.0000
G1 X3.0701 Y1.6415 F20.0000
G1 X3.0674 Y1.6727 F20.0000
G1 X3.0630 Y1.7037 F20.0000
G1 X3.0568 Y1.7345 F20.0000
G1 X3.0490 Y1.7650 F20.0000
G1 X3.0374 Y1.7891 F20.0000
G1 X3.0300 Y1.7982 F20.0000
G1 X3.0172 Y1.8076 F20.0000
G1 X3.0133 Y1.8083 F20.0000
G1 X2.9267 Y1.8083 F20.0000
G1 X2.9267 Y1.8083 F20.0000
G1 X2.9082 Y1.8061 F20.0000
G1 X2.8991 Y1.8041 F20.0000
G1 X2.8905 Y1.8012 F20.0000
G1 X2.8821 Y1.7977 F20.0000
G1 X2.8745 Y1.7931 F20.0000
G1 X2.8681 Y1.7874 F20.0000
G0 X2.8634 Y1.7808
G0 X2.8600 Y1.7731
G0 X2.8575 Y1.7648
G0 X2.8543 Y1.7473
G0 X2.8009 Y1.2749
G1 X2.7997 Y1.2635 F20.0000
G1 X2.7982 Y1.2419 F20.0000
G1 X2.7990 Y1.2320 F20.0000
G1 X2.8014 Y1.2234 F20.0000
G1 X2.8059 Y1.2163 F20.0000
G1 X2.8120 Y1.2101 F20.0000
G1 X2.8189 Y1.2050 F20.0000
G1 X2.8268 Y1.2008 F20.0000
G1 X2.8351 Y1.1976 F20.0000
G1 X2.8620 Y1.1917 F20.0000
G1 X2.8620 Y1.1917 F20.0000
G1 X2.9801 Y1.1929 F20.0000
G1 X3.0207 Y1.2005 F20.0000
G1 X3.0453 Y1.2104 F20.0000
G1 X3.0773 Y1.2355 F20.0000
G1 X3.1009 Y1.2613 F20.0000
G1 X3.1216 Y1.2849 F20.0000
G1 X3.1390 Y1.3108 F20.0000
G1 X3.1528 Y1.3342 F20.0000
G1 X3.1656 Y1.3575 F20.0000
G1 X3.1779 Y1.3863 F20.0000
G1 X3.1877 Y1.4134 F20.0000
G1 X3.2045 Y1.4712 F20.0000
G1 X3.2106 Y1.5020 F20.0000
G1 X3.2156 Y1.5330 F20.0000
G1 X3.2192 Y1.5642 F20.0000
G1 X3.2210 Y1.5955 F20.0000
G1 X3.2212 Y1.6267 F20.0000
G1 X3.2200 Y1.6580 F20.0000
G1 X3.2173 Y1.6892 F20.0000
G1 X3.2131 Y1.7202 F20.0000
G1 X3.2072 Y1.7510 F20.0000
G1 X3.1969 Y1.7805 F20.0000
G1 X3.1890 Y1.7938 F20.0000
G1 X3.1774 Y1.8044 F20.0000
G1 X3.1708 Y1.8083 F20.0000
G1 X3.0881 Y1.8083 F20.0000
G1 X3.0881 Y1.8083 F20.0000
G1 X3.0696 Y1.8061 F20.0000
G1 X3.0605 Y1.8041 F20.0000
G1 X3.0519 Y1.8012 F20.0000
G1 X3.0436 Y1.7977 F20.0000
G1 X3.0359 Y1.7931 F20.0000
G1 X3.0295 Y1.7874 F20.0000
G0 X3.0246 Y1.7808
G0 X3.0209 Y1.7731
G0 X3.0185 Y1.7648
G0 X3.0148 Y1.7473
G0 X2.9483 Y1.2746
G1 X2.9469 Y1.2633 F20.0000
G1 X2.9446 Y1.2419 F20.0000
G1 X2.9451 Y1.2320 F20.0000
G1 X2.9476 Y1.2234 F20.0000
G1 X2.9520 Y1.2160 F20.0000
G1 X2.9579 Y1.2101 F20.0000
G1 X2.9651 Y1.2050 F20.0000
G1 X2.9727 Y1.2008 F20.0000
G1 X2.9811 Y1.1976 F20.0000
G1 X3.0079 Y1.1917 F20.0000
G1 X3.0079 Y1.1917 F20.0000
G1 X3.1334 Y1.1932 F20.0000
G1 X3.1629 Y1.1978 F20.0000
G1 X3.1848 Y1.2045 F20.0000
G1 X3.1986 Y1.2109 F20.0000
G1 X3.2254 Y1.2313 F20.0000
G1 X3.2335 Y1.2394 F20.0000
G1 X3.2544 Y1.2625 F20.0000
G1 X3.2739 Y1.2872 F20.0000
G1 X3.3056 Y1.3364 F20.0000
G1 X3.3201 Y1.3642 F20.0000
G1 X3.3329 Y1.3927 F20.0000
G1 X3.3445 Y1.4220 F20.0000
G1 X3.3541 Y1.4518 F20.0000
G1 X3.3620 Y1.4820 F20.0000
G1 X3.3681 Y1.5128 F20.0000
G1 X3.3723 Y1.5438 F20.0000
G1 X3.3748 Y1.5750 F20.0000
G1 X3.3760 Y1.6375 F20.0000
G1 X3.3743 Y1.6688 F20.0000
G1 X3.3713 Y1.7000 F20.0000
G1 X3.3654 Y1.7308 F20.0000
G1 X3.3595 Y1.7574 F20.0000
G1 X3.3465 Y1.7901 F20.0000
G1 X3.3383 Y1.7987 F20.0000
G1 X3.3290 Y1.8061 F20.0000
G1 X3.3255 Y1.8081 F20.0000
G1 X3.2507 Y1.8083 F20.0000
G1 X3.2507 Y1.8083 F20.0000
G1 X3.2323 Y1.8061 F20.0000
G1 X3.2232 Y1.8041 F20.0000
G1 X3.2146 Y1.8012 F20.0000
G1 X3.2062 Y1.7977 F20.0000
G1 X3.1986 Y1.7931 F20.0000
G1 X3.1922 Y1.7874 F20.0000
G0 X3.1873 Y1.7808
G0 X3.1836 Y1.7731
G0 X3.1811 Y1.7648
G0 X3.1774 Y1.7473
G0 X3.1125 Y1.2746
G1 X3.1110 Y1.2633 F20.0000
G1 X3.1088 Y1.2419 F20.0000
G1 X3.1093 Y1.2320 F20.0000
G1 X3.1117 Y1.2234 F20.0000
G1 X3.1161 Y1.2160 F20.0000
G1 X3.1220 Y1.2101 F20.0000
G1 X3.1292 Y1.2050 F20.0000
G1 X3.1368 Y1.2008 F20.0000
G1 X3.1452 Y1.1976 F20.0000
G1 X3.1720 Y1.1917 F20.0000
G1 X3.1720 Y1.1917 F20.0000
G1 X3.2827 Y1.1929 F20.0000
G1 X3.3270 Y1.2010 F20.0000
G1 X3.3479 Y1.2094 F20.0000
G1 X3.3720 Y1.2264 F20.0000
G1 X3.3856 Y1.2392 F20.0000
G1 X3.4065 Y1.2625 F20.0000
G1 X3.4269 Y1.2864 F20.0000
G1 X3.4446 Y1.3123 F20.0000
G1 X3.4601 Y1.3381 F20.0000
G1 X3.4734 Y1.3617 F20.0000
G1 X3.4862 Y1.3903 F20.0000
G1 X3.4970 Y1.4190 F20.0000
G1 X3.5064 Y1.4483 F20.0000
G1 X3.5138 Y1.4788 F20.0000
G1 X3.5194 Y1.5096 F20.0000
G1 X3.5273 Y1.5719 F20.0000
G1 X3.5288 Y1.6031 F20.0000
G1 X3.5290 Y1.6344 F20.0000
G1 X3.5285 Y1.6656 F20.0000
G1 X3.5261 Y1.6969 F20.0000
G1 X3.5207 Y1.7279 F20.0000
G1 X3.5138 Y1.7539 F20.0000
G1 X3.5069 Y1.7758 F20.0000
G1 X3.5000 Y1.7896 F20.0000
G1 X3.4924 Y1.7982 F20.0000
G1 X3.4796 Y1.8076 F20.0000
G1 X3.4756 Y1.8083 F20.0000
G1 X3.3812 Y1.8083 F20.0000
G1 X3.3812 Y1.8083 F20.0000
G1 X3.3627 Y1.8061 F20.0000
G1 X3.3536 Y1.8041 F20.0000
G1 X3.3450 Y1.8012 F20.0000
G1 X3.3366 Y1.7977 F20.0000
G1 X3.3290 Y1.7931 F20.0000
G1 X3.3226 Y1.7874 F20.0000
G0 X3.3179 Y1.7808
G0 X3.3145 Y1.7731
G0 X3.3120 Y1.7648
G0 X3.3091 Y1.7473
G0 X3.2569 Y1.2749
G1 X3.2557 Y1.2635 F20.0000
G1 X3.2539 Y1.2419 F20.0000
G1 X3.2549 Y1.2320 F20.0000
G1 X3.2574 Y1.2234 F20.0000
G1 X3.2618 Y1.2163 F20.0000
G1 X3.2680 Y1.2101 F20.0000
G1 X3.2749 Y1.2050 F20.0000
G1 X3.2827 Y1.2008 F20.0000
G1 X3.2911 Y1.1976 F20.0000
G1 X3.3179 Y1.1917 F20.0000
G1 X3.3179 Y1.1917 F20.0000
G1 X3.4434 Y1.1934 F20.0000
G1 X3.4803 Y1.2003 F20.0000
G1 X3.5015 Y1.2084 F20.0000
G1 X3.5315 Y1.2303 F20.0000
G1 X3.5396 Y1.2384 F20.0000
G1 X3.5812 Y1.2854 F20.0000
G1 X3.5984 Y1.3115 F20.0000
G1 X3.6107 Y1.3329 F20.0000
G1 X3.6225 Y1.3551 F20.0000
G1 X3.6444 Y1.4090 F20.0000
G1 X3.6538 Y1.4387 F20.0000
G1 X3.6614 Y1.4692 F20.0000
G1 X3.6742 Y1.5308 F20.0000
G1 X3.6784 Y1.5618 F20.0000
G1 X3.6816 Y1.5930 F20.0000
G1 X3.6841 Y1.6243 F20.0000
G1 X3.6848 Y1.6555 F20.0000
G1 X3.6823 Y1.6868 F20.0000
G1 X3.6784 Y1.7124 F20.0000
G1 X3.6735 Y1.7375 F20.0000
G1 X3.6649 Y1.7670 F20.0000
G1 X3.6535 Y1.7911 F20.0000
G1 X3.6511 Y1.7943 F20.0000
G1 X3.6422 Y1.8022 F20.0000
G1 X3.6358 Y1.8066 F20.0000
G1 X3.6321 Y1.8083 F20.0000
G1 X3.5416 Y1.8083 F20.0000
G1 X3.5416 Y1.8083 F20.0000
G1 X3.5231 Y1.8061 F20.0000
G1 X3.5140 Y1.8041 F20.0000
G1 X3.5054 Y1.8012 F20.0000
G1 X3.4970 Y1.7977 F20.0000
G1 X3.4894 Y1.7931 F20.0000
G1 X3.4830 Y1.7874 F20.0000
G0 X3.4783 Y1.7808
G0 X3.4749 Y1.7731
G0 X3.4727 Y1.7648
G0 X3.4695 Y1.7473
G0 X3.4205 Y1.2749
G1 X3.4193 Y1.2635 F20.0000
G1 X3.4178 Y1.2419 F20.0000
G1 X3.4188 Y1.2320 F20.0000
G1 X3.4215 Y1.2234 F20.0000
G1 X3.4259 Y1.2163 F20.0000
G1 X3.4321 Y1.2101 F20.0000
G1 X3.4390 Y1.2050 F20.0000
G1 X3.4469 Y1.2008 F20.0000
G1 X3.4552 Y1.1976 F20.0000
G1 X3.4820 Y1.1917 F20.0000
G1 X3.4820 Y1.1917 F20.0000
G1 X3.5891 Y1.1927 F20.0000
G1 X3.6334 Y1.2005 F20.0000
G1 X3.6545 Y1.2089 F20.0000
G1 X3.6789 Y1.2264 F20.0000
G1 X3.6924 Y1.2394 F20.0000
G1 X3.7210 Y1.2714 F20.0000
G1 X3.7325 Y1.2950 F20.0000
G1 X3.7402 Y1.3164 F20.0000
G1 X3.7397 Y1.7852 F20.0000
G1 X3.7377 Y1.8000 F20.0000
G1 X3.7365 Y1.8036 F20.0000
G1 X3.7335 Y1.8063 F20.0000
G1 X3.7298 Y1.8081 F20.0000
G1 X3.7259 Y1.8083 F20.0000
G1 X3.7259 Y1.8083 F20.0000
G1 X3.7074 Y1.8061 F20.0000
G1 X3.6986 Y1.8039 F20.0000
G1 X3.6905 Y1.8004 F20.0000
G1 X3.6836 Y1.7960 F20.0000
G0 X3.6781 Y1.7899
G0 X3.6742 Y1.7827
G0 X3.6713 Y1.7749
G0 X3.6671 Y1.7576
G0 X3.5849 Y1.2638
G1 X3.5829 Y1.2525 F20.0000
G1 X3.5802 Y1.2313 F20.0000
G1 X3.5807 Y1.2217 F20.0000
G1 X3.5832 Y1.2136 F20.0000
G1 X3.5881 Y1.2072 F20.0000
G1 X3.5945 Y1.2020 F20.0000
G1 X3.6019 Y1.1983 F20.0000
G1 X3.6102 Y1.1956 F20.0000
G1 X3.6280 Y1.1917 F20.0000
G1 X3.6280 Y1.1917 F20.0000
G1 X3.7276 Y1.1927 F20.0000
G1 X3.7313 Y1.1932 F20.0000
G1 X3.7350 Y1.1944 F20.0000
G1 X3.7377 Y1.1971 F20.0000
G1 X3.7406 Y1.2040 F20.0000
G1 X3.7406 Y1.2114 F20.0000
G1 X3.7406 Y1.2114 F20.0000
G1 X3.7384 Y1.2293 F20.0000
G1 X3.7365 Y1.2382 F20.0000
G1 X3.7335 Y1.2468 F20.0000
G1 X3.7301 Y1.2549 F20.0000
G1 X3.7254 Y1.2625 F20.0000
G1 X3.7197 Y1.2692 F20.0000
G0 X3.7133 Y1.2744
G0 X3.7057 Y1.2785
G0 X3.6892 Y1.2847
G0 X1.9528 Y1.7087
G0 X1.9331 Y1.7119
G0 X1.8169 Y1.7148
G0 X1.8073 Y1.7160
G0 X1.7982 Y1.7183
G0 X1.7891 Y1.7217
G0 X1.7630 Y1.7352
G0 X1.7283 Y1.7557
G1 X1.7192 Y1.7611 F20.0000
G1 X1.6661 Y1.7936 F20.0000
G1 X1.6577 Y1.7980 F20.0000
G1 X1.6491 Y1.8014 F20.0000
G1 X1.6405 Y1.8039 F20.0000
G1 X1.6137 Y1.8081 F20.0000
G1 X1.6137 Y1.8081 F20.0000
G1 X1.5034 Y1.8068 F20.0000
G1 X1.4641 Y1.7990 F20.0000
G1 X1.4486 Y1.7938 F20.0000
G1 X1.4375 Y1.7884 F20.0000
G1 X1.4272 Y1.7817 F20.0000
G1 X1.4048 Y1.7635 F20.0000
G1 X1.3787 Y1.7389 F20.0000
G1 X1.3583 Y1.7148 F20.0000
G1 X1.3401 Y1.6887 F20.0000
G1 X1.3280 Y1.6681 F20.0000
G1 X1.3081 Y1.6262 F20.0000
G1 X1.2977 Y1.5962 F20.0000
G1 X1.2901 Y1.5699 F20.0000
G1 X1.2832 Y1.5404 F20.0000
G1 X1.2785 Y1.5091 F20.0000
G1 X1.2758 Y1.4793 F20.0000
G1 X1.2749 Y1.4486 F20.0000
G1 X1.2761 Y1.4176 F20.0000
G1 X1.2790 Y1.3871 F20.0000
G1 X1.2840 Y1.3565 F20.0000
G1 X1.2908 Y1.3265 F20.0000
G1 X1.2997 Y1.2970 F20.0000
G1 X1.3103 Y1.2680 F20.0000
G1 X1.3228 Y1.2397 F20.0000
G1 X1.3391 Y1.2089 F20.0000
G1 X1.3467 Y1.2000 F20.0000
G1 X1.3561 Y1.1929 F20.0000
G1 X1.3597 Y1.1917 F20.0000
G1 X1.3597 Y1.1917 F20.0000
G1 X1.3777 Y1.1934 F20.0000
G1 X1.3866 Y1.1954 F20.0000
G1 X1.3952 Y1.1981 F20.0000
G1 X1.4033 Y1.2015 F20.0000
G1 X1.4109 Y1.2060 F20.0000
G1 X1.4173 Y1.2114 F20.0000
G0 X1.4225 Y1.2180
G0 X1.4264 Y1.2256
G0 X1.4316 Y1.2424
G0 X1.5244 Y1.7279
G1 X1.5263 Y1.7382 F20.0000
G1 X1.5298 Y1.7566 F20.0000
G1 X1.5308 Y1.7655 F20.0000
G1 X1.5305 Y1.7736 F20.0000
G1 X1.5281 Y1.7810 F20.0000
G1 X1.5236 Y1.7874 F20.0000
G1 X1.5177 Y1.7931 F20.0000
G1 X1.5106 Y1.7975 F20.0000
G1 X1.5027 Y1.8012 F20.0000
G1 X1.4943 Y1.8039 F20.0000
G1 X1.4766 Y1.8068 F20.0000
G1 X1.4678 Y1.8081 F20.0000
G1 X1.4678 Y1.8081 F20.0000
G1 X1.3615 Y1.8066 F20.0000
G1 X1.3260 Y1.8000 F20.0000
G1 X1.3066 Y1.7933 F20.0000
G1 X1.2918 Y1.7859 F20.0000
G1 X1.2601 Y1.7603 F20.0000
G1 X1.2372 Y1.7384 F20.0000
G1 X1.2170 Y1.7141 F20.0000
G1 X1.1993 Y1.6887 F20.0000
G1 X1.1873 Y1.6686 F20.0000
G1 X1.1661 Y1.6248 F20.0000
G1 X1.1555 Y1.5950 F20.0000
G1 X1.1476 Y1.5682 F20.0000
G1 X1.1339 Y1.5081 F20.0000
G1 X1.1297 Y1.4769 F20.0000
G1 X1.1267 Y1.4454 F20.0000
G1 X1.1267 Y1.4139 F20.0000
G1 X1.1277 Y1.3875 F20.0000
G1 X1.1309 Y1.3561 F20.0000
G1 X1.1363 Y1.3250 F20.0000
G1 X1.1432 Y1.2955 F20.0000
G1 X1.1523 Y1.2653 F20.0000
G1 X1.1735 Y1.2099 F20.0000
G1 X1.1779 Y1.2035 F20.0000
G1 X1.1895 Y1.1929 F20.0000
G1 X1.1932 Y1.1917 F20.0000
G1 X1.1932 Y1.1917 F20.0000
G1 X1.2111 Y1.1934 F20.0000
G1 X1.2200 Y1.1954 F20.0000
G1 X1.2286 Y1.1981 F20.0000
G1 X1.2367 Y1.2015 F20.0000
G1 X1.2443 Y1.2060 F20.0000
G1 X1.2510 Y1.2114 F20.0000
G0 X1.2564 Y1.2180
G0 X1.2606 Y1.2254
G0 X1.2667 Y1.2419
G0 X1.3930 Y1.7286
G1 X1.3957 Y1.7387 F20.0000
G1 X1.4003 Y1.7571 F20.0000
G1 X1.4018 Y1.7657 F20.0000
G1 X1.4018 Y1.7739 F20.0000
G1 X1.3999 Y1.7812 F20.0000
G1 X1.3957 Y1.7876 F20.0000
G1 X1.3898 Y1.7931 F20.0000
G1 X1.3829 Y1.7975 F20.0000
G1 X1.3750 Y1.8012 F20.0000
G1 X1.3666 Y1.8039 F20.0000
G1 X1.3489 Y1.8068 F20.0000
G1 X1.3401 Y1.8081 F20.0000
G1 X1.3401 Y1.8081 F20.0000
G1 X1.2298 Y1.8073 F20.0000
G1 X1.1786 Y1.7980 F20.0000
G1 X1.1634 Y1.7921 F20.0000
G1 X1.1491 Y1.7840 F20.0000
G1 X1.1208 Y1.7603 F20.0000
G1 X1.0977 Y1.7387 F20.0000
G1 X1.0770 Y1.7148 F20.0000
G1 X1.0583 Y1.6892 F20.0000
G1 X1.0453 Y1.6686 F20.0000
G1 X1.0337 Y1.6469 F20.0000
G1 X1.0128 Y1.5987 F20.0000
G1 X1.0032 Y1.5684 F20.0000
G1 X0.9953 Y1.5381 F20.0000
G1 X0.9884 Y1.5071 F20.0000
G1 X0.9840 Y1.4759 F20.0000
G1 X0.9813 Y1.4444 F20.0000
G1 X0.9801 Y1.4129 F20.0000
G1 X0.9818 Y1.3499 F20.0000
G1 X0.9850 Y1.3184 F20.0000
G1 X0.9894 Y1.2872 F20.0000
G1 X0.9966 Y1.2564 F20.0000
G1 X1.0054 Y1.2247 F20.0000
G1 X1.0116 Y1.2099 F20.0000
G1 X1.0160 Y1.2032 F20.0000
G1 X1.0276 Y1.1927 F20.0000
G1 X1.0313 Y1.1917 F20.0000
G1 X1.0313 Y1.1917 F20.0000
G1 X1.0492 Y1.1934 F20.0000
G1 X1.0581 Y1.1954 F20.0000
G1 X1.0667 Y1.1981 F20.0000
G1 X1.0748 Y1.2015 F20.0000
G1 X1.0824 Y1.2060 F20.0000
G1 X1.0891 Y1.2114 F20.0000
G0 X1.0947 Y1.2180
G0 X1.0989 Y1.2254
G0 X1.1056 Y1.2421
G0 X1.2458 Y1.7288
G1 X1.2485 Y1.7389 F20.0000
G1 X1.2537 Y1.7571 F20.0000
G1 X1.2554 Y1.7657 F20.0000
G1 X1.2557 Y1.7739 F20.0000
G1 X1.2537 Y1.7812 F20.0000
G1 X1.2498 Y1.7876 F20.0000
G1 X1.2438 Y1.7931 F20.0000
G1 X1.2370 Y1.7975 F20.0000
G1 X1.2291 Y1.8012 F20.0000
G1 X1.2207 Y1.8039 F20.0000
G1 X1.2030 Y1.8068 F20.0000
G1 X1.1941 Y1.8081 F20.0000
G1 X1.1941 Y1.8081 F20.0000
G1 X1.0878 Y1.8073 F20.0000
G1 X1.0524 Y1.8024 F20.0000
G1 X1.0288 Y1.7960 F20.0000
G1 X1.0140 Y1.7896 F20.0000
G1 X1.0005 Y1.7805 F20.0000
G1 X0.9542 Y1.7411 F20.0000
G1 X0.9336 Y1.7173 F20.0000
G1 X0.9043 Y1.6777 F20.0000
G1 X0.8885 Y1.6501 F20.0000
G1 X0.8765 Y1.6255 F20.0000
G1 X0.8654 Y1.5997 F20.0000
G1 X0.8558 Y1.5711 F20.0000
G1 X0.8413 Y1.5153 F20.0000
G1 X0.8361 Y1.4840 F20.0000
G1 X0.8324 Y1.4525 F20.0000
G1 X0.8275 Y1.3895 F20.0000
G1 X0.8273 Y1.3580 F20.0000
G1 X0.8278 Y1.3265 F20.0000
G1 X0.8312 Y1.2950 F20.0000
G1 X0.8351 Y1.2667 F20.0000
G1 X0.8482 Y1.2207 F20.0000
G1 X0.8529 Y1.2096 F20.0000
G1 X0.8573 Y1.2032 F20.0000
G1 X0.8688 Y1.1927 F20.0000
G1 X0.8725 Y1.1917 F20.0000
G1 X0.8725 Y1.1917 F20.0000
G1 X0.8905 Y1.1934 F20.0000
G1 X0.8994 Y1.1954 F20.0000
G1 X0.9080 Y1.1981 F20.0000
G1 X0.9161 Y1.2015 F20.0000
G1 X0.9240 Y1.2060 F20.0000
G1 X0.9306 Y1.2114 F20.0000
G0 X0.9360 Y1.2178
G0 X0.9405 Y1.2251
G0 X0.9473 Y1.2416
G0 X1.0989 Y1.7296
G1 X1.1019 Y1.7394 F20.0000
G1 X1.1075 Y1.7574 F20.0000
G1 X1.1095 Y1.7660 F20.0000
G1 X1.1097 Y1.7741 F20.0000
G1 X1.1080 Y1.7812 F20.0000
G1 X1.1038 Y1.7876 F20.0000
G1 X1.0982 Y1.7931 F20.0000
G1 X1.0913 Y1.7975 F20.0000
G1 X1.0834 Y1.8012 F20.0000
G1 X1.0750 Y1.8039 F20.0000
G1 X1.0573 Y1.8068 F20.0000
G1 X1.0485 Y1.8081 F20.0000
G1 X1.0485 Y1.8081 F20.0000
G1 X0.9422 Y1.8073 F20.0000
G1 X0.9107 Y1.8031 F20.0000
G1 X0.8871 Y1.7970 F20.0000
G1 X0.8718 Y1.7908 F20.0000
G1 X0.8541 Y1.7800 F20.0000
G1 X0.8317 Y1.7623 F20.0000
G1 X0.8086 Y1.7406 F20.0000
G1 X0.7876 Y1.7170 F20.0000
G1 X0.7719 Y1.6969 F20.0000
G1 X0.7576 Y1.6757 F20.0000
G1 X0.7434 Y1.6503 F20.0000
G1 X0.7205 Y1.6019 F20.0000
G1 X0.7099 Y1.5721 F20.0000
G1 X0.7008 Y1.5421 F20.0000
G1 X0.6855 Y1.4806 F20.0000
G1 X0.6804 Y1.4493 F20.0000
G1 X0.6762 Y1.4181 F20.0000
G1 X0.6727 Y1.3866 F20.0000
G1 X0.6710 Y1.3551 F20.0000
G1 X0.6740 Y1.2953 F20.0000
G1 X0.6794 Y1.2643 F20.0000
G1 X0.6848 Y1.2399 F20.0000
G1 X0.6951 Y1.2119 F20.0000
G1 X0.7015 Y1.2020 F20.0000
G1 X0.7101 Y1.1939 F20.0000
G1 X0.7133 Y1.1917 F20.0000
G1 X0.7133 Y1.1917 F20.0000
G1 X0.7313 Y1.1934 F20.0000
G1 X0.7402 Y1.1954 F20.0000
G1 X0.7488 Y1.1981 F20.0000
G1 X0.7569 Y1.2015 F20.0000
G1 X0.7648 Y1.2060 F20.0000
G1 X0.7714 Y1.2114 F20.0000
G0 X0.7771 Y1.2180
G0 X0.7815 Y1.2251
G0 X0.7889 Y1.2416
G0 X0.9518 Y1.7296
G1 X0.9550 Y1.7397 F20.0000
G1 X0.9609 Y1.7576 F20.0000
G1 X0.9631 Y1.7662 F20.0000
G1 X0.9636 Y1.7741 F20.0000
G1 X0.9619 Y1.7812 F20.0000
G1 X0.9579 Y1.7876 F20.0000
G1 X0.9523 Y1.7931 F20.0000
G1 X0.9451 Y1.7975 F20.0000
G1 X0.9375 Y1.8012 F20.0000
G1 X0.9291 Y1.8039 F20.0000
G1 X0.9114 Y1.8068 F20.0000
G1 X0.9026 Y1.8081 F20.0000
G1 X0.9026 Y1.8081 F20.0000
G1 X0.7884 Y1.8068 F20.0000
G1 X0.7648 Y1.8034 F20.0000
G1 X0.7333 Y1.7943 F20.0000
G1 X0.7188 Y1.7872 F20.0000
G1 X0.6863 Y1.7618 F20.0000
G1 X0.6629 Y1.7404 F20.0000
G1 X0.6415 Y1.7170 F20.0000
G1 X0.6225 Y1.6924 F20.0000
G1 X0.6083 Y1.6727 F20.0000
G1 X0.5920 Y1.6457 F20.0000
G1 X0.5790 Y1.6198 F20.0000
G1 X0.5674 Y1.5938 F20.0000
G1 X0.5472 Y1.5379 F20.0000
G1 X0.5391 Y1.5074 F20.0000
G1 X0.5322 Y1.4764 F20.0000
G1 X0.5263 Y1.4454 F20.0000
G1 X0.5224 Y1.4139 F20.0000
G1 X0.5197 Y1.3824 F20.0000
G1 X0.5185 Y1.3509 F20.0000
G1 X0.5187 Y1.3194 F20.0000
G1 X0.5204 Y1.2879 F20.0000
G1 X0.5266 Y1.2569 F20.0000
G1 X0.5396 Y1.2133 F20.0000
G1 X0.5458 Y1.2030 F20.0000
G1 X0.5573 Y1.1924 F20.0000
G1 X0.5610 Y1.1917 F20.0000
G1 X0.5610 Y1.1917 F20.0000
G1 X0.5790 Y1.1934 F20.0000
G1 X0.5878 Y1.1954 F20.0000
G1 X0.5965 Y1.1981 F20.0000
G1 X0.6046 Y1.2015 F20.0000
G1 X0.6125 Y1.2060 F20.0000
G1 X0.6191 Y1.2114 F20.0000
G0 X0.6248 Y1.2180
G0 X0.6294 Y1.2251
G0 X0.6368 Y1.2416
G0 X0.8051 Y1.7296
G1 X0.8086 Y1.7397 F20.0000
G1 X0.8147 Y1.7576 F20.0000
G1 X0.8169 Y1.7662 F20.0000
G1 X0.8177 Y1.7741 F20.0000
G1 X0.8159 Y1.7812 F20.0000
G1 X0.8120 Y1.7876 F20.0000
G1 X0.8063 Y1.7931 F20.0000
G1 X0.7992 Y1.7975 F20.0000
G1 X0.7916 Y1.8012 F20.0000
G1 X0.7832 Y1.8039 F20.0000
G1 X0.7655 Y1.8068 F20.0000
G1 X0.7566 Y1.8081 F20.0000
G1 X0.7566 Y1.8081 F20.0000
G1 X0.6425 Y1.8071 F20.0000
G1 X0.5992 Y1.7990 F20.0000
G1 X0.5760 Y1.7904 F20.0000
G1 X0.5618 Y1.7817 F20.0000
G1 X0.5118 Y1.7406 F20.0000
G1 X0.4906 Y1.7173 F20.0000
G1 X0.4584 Y1.6757 F20.0000
G1 X0.4419 Y1.6486 F20.0000
G1 X0.4281 Y1.6228 F20.0000
G1 X0.4156 Y1.5962 F20.0000
G1 X0.4043 Y1.5667 F20.0000
G1 X0.3863 Y1.5091 F20.0000
G1 X0.3797 Y1.4781 F20.0000
G1 X0.3743 Y1.4469 F20.0000
G1 X0.3698 Y1.4156 F20.0000
G1 X0.3674 Y1.3841 F20.0000
G1 X0.3661 Y1.3526 F20.0000
G1 X0.3664 Y1.3211 F20.0000
G1 X0.3684 Y1.2896 F20.0000
G1 X0.3738 Y1.2584 F20.0000
G1 X0.3858 Y1.2111 F20.0000
G1 X0.3898 Y1.2042 F20.0000
G1 X0.3979 Y1.1956 F20.0000
G1 X0.4008 Y1.1932 F20.0000
G1 X0.4043 Y1.1917 F20.0000
G1 X0.4043 Y1.1917 F20.0000
G1 X0.4222 Y1.1934 F20.0000
G1 X0.4311 Y1.1954 F20.0000
G1 X0.4397 Y1.1981 F20.0000
G1 X0.4478 Y1.2015 F20.0000
G1 X0.4557 Y1.2060 F20.0000
G1 X0.4624 Y1.2114 F20.0000
G0 X0.4680 Y1.2178
G0 X0.4729 Y1.2251
G0 X0.4806 Y1.2411
G0 X0.6585 Y1.7301
G1 X0.6619 Y1.7399 F20.0000
G1 X0.6683 Y1.7579 F20.0000
G1 X0.6708 Y1.7662 F20.0000
G1 X0.6715 Y1.7741 F20.0000
G1 X0.6698 Y1.7812 F20.0000
G1 X0.6661 Y1.7876 F20.0000
G1 X0.6604 Y1.7931 F20.0000
G1 X0.6533 Y1.7975 F20.0000
G1 X0.6457 Y1.8012 F20.0000
G1 X0.6373 Y1.8039 F20.0000
G1 X0.6196 Y1.8068 F20.0000
G1 X0.6107 Y1.8081 F20.0000
G1 X0.6107 Y1.8081 F20.0000
G1 X0.4887 Y1.8068 F20.0000
G1 X0.4493 Y1.7990 F20.0000
G1 X0.4299 Y1.7923 F20.0000
G1 X0.4053 Y1.7773 F20.0000
G1 X0.3617 Y1.7416 F20.0000
G1 X0.3401 Y1.7185 F20.0000
G1 X0.3078 Y1.6779 F20.0000
G1 X0.2911 Y1.6511 F20.0000
G1 X0.2771 Y1.6257 F20.0000
G1 X0.2640 Y1.5989 F20.0000
G1 X0.2525 Y1.5694 F20.0000
G1 X0.2431 Y1.5406 F20.0000
G1 X0.2274 Y1.4815 F20.0000
G1 X0.2219 Y1.4503 F20.0000
G1 X0.2175 Y1.4190 F20.0000
G1 X0.2141 Y1.3875 F20.0000
G1 X0.2126 Y1.3561 F20.0000
G1 X0.2121 Y1.3246 F20.0000
G1 X0.2131 Y1.2931 F20.0000
G1 X0.2180 Y1.2618 F20.0000
G1 X0.2234 Y1.2394 F20.0000
G1 X0.2320 Y1.2114 F20.0000
G1 X0.2360 Y1.2045 F20.0000
G1 X0.2441 Y1.1959 F20.0000
G1 X0.2470 Y1.1934 F20.0000
G1 X0.2505 Y1.1917 F20.0000
G1 X0.2505 Y1.1917 F20.0000
G1 X0.2685 Y1.1934 F20.0000
G1 X0.2773 Y1.1954 F20.0000
G1 X0.2859 Y1.1981 F20.0000
G1 X0.2940 Y1.2015 F20.0000
G1 X0.3019 Y1.2060 F20.0000
G1 X0.3086 Y1.2114 F20.0000
G0 X0.3145 Y1.2178
G0 X0.3191 Y1.2251
G0 X0.3270 Y1.2411
G0 X0.5118 Y1.7303
G1 X0.5155 Y1.7402 F20.0000
G1 X0.5221 Y1.7579 F20.0000
G1 X0.5246 Y1.7662 F20.0000
G1 X0.5253 Y1.7744 F20.0000
G1 X0.5239 Y1.7815 F20.0000
G1 X0.5202 Y1.7876 F20.0000
G1 X0.5145 Y1.7931 F20.0000
G1 X0.5074 Y1.7975 F20.0000
G1 X0.4998 Y1.8012 F20.0000
G1 X0.4914 Y1.8039 F20.0000
G1 X0.4737 Y1.8068 F20.0000
G1 X0.4648 Y1.8081 F20.0000
G1 X0.4648 Y1.8081 F20.0000
G1 X0.3428 Y1.8071 F20.0000
G1 X0.2916 Y1.7975 F20.0000
G1 X0.2724 Y1.7901 F20.0000
G1 X0.2547 Y1.7793 F20.0000
G1 X0.2323 Y1.7608 F20.0000
G1 X0.2087 Y1.7399 F20.0000
G1 X0.1870 Y1.7168 F20.0000
G1 X0.1673 Y1.6922 F20.0000
G1 X0.1523 Y1.6703 F20.0000
G1 X0.1390 Y1.6481 F20.0000
G1 X0.1147 Y1.5987 F20.0000
G1 X0.1033 Y1.5691 F20.0000
G1 X0.0935 Y1.5391 F20.0000
G1 X0.0765 Y1.4781 F20.0000
G1 X0.0704 Y1.4471 F20.0000
G1 X0.0650 Y1.4158 F20.0000
G1 X0.0605 Y1.3846 F20.0000
G1 X0.0586 Y1.3233 F20.0000
G1 X0.0613 Y1.2918 F20.0000
G1 X0.0647 Y1.2665 F20.0000
G1 X0.0706 Y1.2360 F20.0000
G1 X0.0807 Y1.2099 F20.0000
G1 X0.0851 Y1.2035 F20.0000
G1 X0.0967 Y1.1929 F20.0000
G1 X0.1004 Y1.1917 F20.0000
G1 X0.1078 Y1.1917 F20.0000
G1 X0.1078 Y1.1917 F20.0000
G1 X0.1257 Y1.1934 F20.0000
G1 X0.1346 Y1.1954 F20.0000
G1 X0.1432 Y1.1981 F20.0000
G1 X0.1513 Y1.2015 F20.0000
G1 X0.1592 Y1.2060 F20.0000
G1 X0.1658 Y1.2114 F20.0000
G0 X0.1715 Y1.2180
G0 X0.1762 Y1.2251
G0 X0.1836 Y1.2416
G0 X0.3497 Y1.7296
G1 X0.3529 Y1.7397 F20.0000
G1 X0.3590 Y1.7576 F20.0000
G1 X0.3612 Y1.7662 F20.0000
G1 X0.3617 Y1.7741 F20.0000
G1 X0.3600 Y1.7812 F20.0000
G1 X0.3561 Y1.7876 F20.0000
G1 X0.3504 Y1.7931 F20.0000
G1 X0.3433 Y1.7975 F20.0000
G1 X0.3356 Y1.8012 F20.0000
G1 X0.3273 Y1.8039 F20.0000
G1 X0.3095 Y1.8068 F20.0000
G1 X0.3007 Y1.8081 F20.0000
G1 X0.3007 Y1.8081 F20.0000
G1 X0.1865 Y1.8068 F20.0000
G1 X0.1550 Y1.8004 F20.0000
G1 X0.1356 Y1.7938 F20.0000
G1 X0.1211 Y1.7859 F20.0000
G1 X0.0655 Y1.7397 F20.0000
G1 X0.0433 Y1.7170 F20.0000
G1 X0.0273 Y1.6932 F20.0000
G1 X0.0187 Y1.6747 F20.0000
G1 X0.0098 Y1.6471 F20.0000
G1 X0.0101 Y1.2023 F20.0000
G1 X0.0113 Y1.1986 F20.0000
G1 X0.0138 Y1.1956 F20.0000
G1 X0.0170 Y1.1934 F20.0000
G1 X0.0207 Y1.1919 F20.0000
G1 X0.0207 Y1.1919 F20.0000
G1 X0.0396 Y1.1934 F20.0000
G1 X0.0502 Y1.1959 F20.0000
G1 X0.0615 Y1.2000 F20.0000
G1 X0.0719 Y1.2057 F20.0000
G0 X0.0805 Y1.2128
G0 X0.0866 Y1.2207
G0 X0.0913 Y1.2291
G0 X0.0974 Y1.2468
G0 X0.2094 Y1.7283
G1 X0.2119 Y1.7384 F20.0000
G1 X0.2160 Y1.7569 F20.0000
G1 X0.2173 Y1.7657 F20.0000
G1 X0.2173 Y1.7739 F20.0000
G1 X0.2151 Y1.7810 F20.0000
G1 X0.2106 Y1.7874 F20.0000
G1 X0.2050 Y1.7931 F20.0000
G1 X0.1978 Y1.7975 F20.0000
G1 X0.1900 Y1.8012 F20.0000
G1 X0.1816 Y1.8039 F20.0000
G1 X0.1639 Y1.8068 F20.0000
G1 X0.1550 Y1.8081 F20.0000
G1 X0.1550 Y1.8081 F20.0000
G1 X0.0566 Y1.8073 F20.0000
G1 X0.0212 Y1.8002 F20.0000
G1 X0.0175 Y1.7985 F20.0000
G1 X0.0121 Y1.7923 F20.0000
G1 X0.0098 Y1.7889 F20.0000
G1 X0.0094 Y1.7456 F20.0000
G1 X0.0094 Y1.7456 F20.0000
G1 X0.0106 Y1.7416 F20.0000
G1 X0.0125 Y1.7411 F20.0000
G1 X0.0155 Y1.7443 F20.0000
G1 X0.0305 Y1.7744 F20.0000
G1 X0.0369 Y1.7904 F20.0000
G1 X0.0376 Y1.7968 F20.0000
G1 X0.0359 Y1.8017 F20.0000
G1 X0.0320 Y1.8051 F20.0000
G1 X0.0273 Y1.8081 F20.0000
G1 X0.0273 Y1.8081 F20.0000
G1 X0.0194 Y1.8076 F20.0000
G1 X0.0155 Y1.8061 F20.0000
G1 X0.0125 Y1.8031 F20.0000
G1 X0.0106 Y1.7995 F20.0000
G1 X0.0094 Y1.7955 F20.0000
G1 X0.0094 Y1.7955 F20.0000
G1 X0.0079 Y1.7771 F20.0000
G1 X0.0081 Y1.7680 F20.0000
G1 X0.0094 Y1.7589 F20.0000
G1 X0.0113 Y1.7500 F20.0000
G1 X0.0143 Y1.7414 F20.0000
G1 X0.0180 Y1.7330 F20.0000
G0 X0.0224 Y1.7249
G0 X0.0896 Y1.6314
G0 X0.0940 Y1.6230
G0 X0.0972 Y1.6147
G0 X0.0992 Y1.6056
G0 X0.1009 Y1.5869
G0 X0.1011 Y1.3693
G0 X0.1006 Y1.3602
G0 X0.0989 Y1.3516
G0 X0.0960 Y1.3435
G0 X0.0913 Y1.3359
G0 X0.0795 Y1.3216
G0 X0.0726 Y1.3145
G1 X0.0652 Y1.3071 F20.0000
G1 X0.0251 Y1.2689 F20.0000
G1 X0.0177 Y1.2608 F20.0000
G1 X0.0113 Y1.2527 F20.0000
G1 X0.0069 Y1.2443 F20.0000
G1 X0.0042 Y1.2357 F20.0000
G1 X0.0027 Y1.2266 F20.0000
G1 X0.0025 Y1.2178 F20.0000
G1 X0.0034 Y1.2092 F20.0000
G1 X0.0064 Y1.2013 F20.0000
G1 X0.0108 Y1.1944 F20.0000
G1 X0.0226 Y1.1826 F20.0000
G1 X0.0226 Y1.1826 F20.0000
G1 X3.7293 Y1.1831 F20.0000
G1 X3.7352 Y1.1843 F20.0000
G1 X3.7389 Y1.1860 F20.0000
G1 X3.7434 Y1.1900 F20.0000
G1 X3.7461 Y1.1937 F20.0000
G1 X3.7490 Y1.1998 F20.0000
G1 X3.7500 Y1.2074 F20.0000
G1 X3.7493 Y1.7987 F20.0000
G1 X3.7473 Y1.8044 F20.0000
G1 X3.7424 Y1.8110 F20.0000
G1 X3.7379 Y1.8140 F20.0000
G1 X3.7325 Y1.8167 F20.0000
G1 X3.7227 Y1.8177 F20.0000
G1 X0.0207 Y1.8169 F20.0000
G1 X0.0138 Y1.8152 F20.0000
G1 X0.0106 Y1.8135 F20.0000
G1 X0.0064 Y1.8098 F20.0000
G1 X0.0032 Y1.8049 F20.0000
G1 X0.0012 Y1.8002 F20.0000
G1 X0.0002 Y1.7945 F20.0000
G1 X0.0007 Y1.2013 F20.0000
G1 X0.0020 Y1.1969 F20.0000
G1 X0.0047 Y1.1924 F20.0000
G1 X0.0076 Y1.1890 F20.0000
G1 X0.0121 Y1.1860 F20.0000
G1 X0.0175 Y1.1833 F20.0000
G1 X0.0226 Y1.1826 F20.0000
G1 X0.0226 Y1.1826 F20.0000
G0 Z0.9969
(Helix to depth: 12.700000)
G0 Z0.9969
G0 X1.8421 Y1.3211 Z0.9969
G0 X1.8421 Y1.3211 Z0.9181
G1 X1.8421 Y1.3211 Z0.6000 F2.0000
G1 X2.0478 Y1.5000 Z0.6000 F2.0000
G1 X2.0471 Y1.5154 Z0.5994 F2.0000
G1 X2.0450 Y1.5306 Z0.5988 F2.0000
G1 X2.0416 Y1.5456 Z0.5982 F2.0000
G1 X2.0368 Y1.5602 Z0.5976 F2.0000
G1 X2.0308 Y1.5743 Z0.5970 F2.0000
G1 X2.0235 Y1.5878 Z0.5965 F2.0000
G1 X2.0151 Y1.6007 Z0.5959 F2.0000
G1 X2.0055 Y1.6127 Z0.5953 F2.0000
G1 X1.9950 Y1.6238 Z0.5947 F2.0000
G1 X1.9835 Y1.6339 Z0.5941 F2.0000
G1 X1.9711 Y1.6430 Z0.5935 F2.0000
G1 X1.9580 Y1.6509 Z0.5929 F2.0000
G1 X1.9442 Y1.6577 Z0.5923 F2.0000
G1 X1.9299 Y1.6631 Z0.5917 F2.0000
G1 X1.9152 Y1.6673 Z0.5911 F2.0000
G1 X1.9001 Y1.6702 Z0.5906 F2.0000
G1 X1.8849 Y1.6717 Z0.5900 F2.0000
G1 X1.8696 Y1.6718 Z0.5894 F2.0000
G1 X1.8544 Y1.6706 Z0.5888 F2.0000
G1 X1.8393 Y1.6681 Z0.5882 F2.0000
G1 X1.8245 Y1.6642 Z0.5876 F2.0000
G1 X1.8101 Y1.6590 Z0.5870 F2.0000
G1 X1.7963 Y1.6525 Z0.5864 F2.0000
G1 X1.7830 Y1.6449 Z0.5858 F2.0000
G1 X1.7706 Y1.6361 Z0.5852 F2.0000
G1 X1.7589 Y1.6262 Z0.5846 F2.0000
G1 X1.7482 Y1.6154 Z0.5841 F2.0000
G1 X1.7385 Y1.6036 Z0.5835 F2.0000
G1 X1.7298 Y1.5911 Z0.5829 F2.0000
G1 X1.7224 Y1.5778 Z0.5823 F2.0000
G1 X1.7161 Y1.5639 Z0.5817 F2.0000
G1 X1.7111 Y1.5495 Z0.5811 F2.0000
G1 X1.7074 Y1.5347 Z0.5805 F2.0000
G1 X1.7050 Y1.5197 Z0.5799 F2.0000
G1 X1.7040 Y1.5045 Z0.5793 F2.0000
G1 X1.7043 Y1.4893 Z0.5787 F2.0000
G1 X1.7060 Y1.4741 Z0.5781 F2.0000
G1 X1.7090 Y1.4592 Z0.5776 F2.0000
G1 X1.7134 Y1.4447 Z0.5770 F2.0000
G1 X1.7190 Y1.4305 Z0.5764 F2.0000
G1 X1.7258 Y1.4170 Z0.5758 F2.0000
G1 X1.7338 Y1.4041 Z0.5752 F2.0000
G1 X1.7430 Y1.3919 Z0.5746 F2.0000
G1 X1.7531 Y1.3807 Z0.5740 F2.0000
G1 X1.7643 Y1.3703 Z0.5734 F2.0000
G1 X1.7762 Y1.3610 Z0.5728 F2.0000
G1 X1.7890 Y1.3529 Z0.5722 F2.0000
G1 X1.8025 Y1.3458 Z0.5717 F2.0000
G1 X1.8165 Y1.3401 Z0.5711 F2.0000
G1 X1.8309 Y1.3355 Z0.5705 F2.0000
G1 X1.8457 Y1.3323 Z0.5699 F2.0000
G1 X1.8608 Y1.3304 Z0.5693 F2.0000
G1 X1.8759 Y1.3299 Z0.5687 F2.0000
G1 X1.8910 Y1.3307 Z0.5681 F2.0000
G1 X1.9060 Y1.3328 Z0.5675 F2.0000
G1 X1.9207 Y1.3363 Z0.5669 F2.0000
G1 X1.9351 Y1.3411 Z0.5663 F2.0000
G1 X1.9489 Y1.3471 Z0.5657 F2.0000
G1 X1.9622 Y1.3543 Z0.5652 F2.0000
G1 X1.9748 Y1.3627 Z0.5646 F2.0000
G1 X1.9866 Y1.3721 Z0.5640 F2.0000
G1 X1.9974 Y1.3826 Z0.5634 F2.0000
G1 X2.0074 Y1.3940 Z0.5628 F2.0000
G1 X2.0162 Y1.4062 Z0.5622 F2.0000
G1 X2.0240 Y1.4191 Z0.5616 F2.0000
G1 X2.0305 Y1.4327 Z0.5610 F2.0000
G1 X2.0358 Y1.4468 Z0.5604 F2.0000
G1 X2.0399 Y1.4613 Z0.5598 F2.0000
G1 X2.0426 Y1.4761 Z0.5593 F2.0000
G1 X2.0440 Y1.4911 Z0.5587 F2.0000
G1 X2.0441 Y1.5062 Z0.5581 F2.0000
G1 X2.0428 Y1.5212 Z0.5575 F2.0000
G1 X2.0402 Y1.5360 Z0.5569 F2.0000
G1 X2.0363 Y1.5505 Z0.5563 F2.0000
G1 X2.0311 Y1.5647 Z0.5557 F2.0000
G1 X2.0247 Y1.5783 Z0.5551 F2.0000
G1 X2.0171 Y1.5912 Z0.5545 F2.0000
G1 X2.0084 Y1.6035 Z0.5539 F2.0000
G1 X1.9986 Y1.6149 Z0.5533 F2.0000
G1 X1.9879 Y1.6254 Z0.5528 F2.0000
G1 X1.9763 Y1.6349 Z0.5522 F2.0000
G1 X1.9639 Y1.6433 Z0.5516 F2.0000
G1 X1.9507 Y1.6506 Z0.5510 F2.0000
G1 X1.9370 Y1.6567 Z0.5504 F2.0000
G1 X1.9228 Y1.6615 Z0.5498 F2.0000
G1 X1.9083 Y1.6651 Z0.5492 F2.0000
G1 X1.8935 Y1.6673 Z0.5486 F2.0000
G1 X1.8785 Y1.6683 Z0.5480 F2.0000
G1 X1.8636 Y1.6679 Z0.5474 F2.0000
G1 X1.8487 Y1.6661 Z0.5469 F2.0000
G1 X1.8340 Y1.6631 Z0.5463 F2.0000
G1 X1.8197 Y1.6587 Z0.5457 F2.0000
G1 X1.8058 Y1.6532 Z0.5451 F2.0000
G1 X1.7925 Y1.6464 Z0.5445 F2.0000
G1 X1.7799 Y1.6384 Z0.5439 F2.0000
G1 X1.7680 Y1.6294 Z0.5433 F2.0000
G1 X1.7569 Y1.6193 Z0.5427 F2.0000
G1 X1.7468 Y1.6083 Z0.5421 F2.0000
G1 X1.7378 Y1.5964 Z0.5415 F2.0000
G1 X1.7298 Y1.5838 Z0.5409 F2.0000
G1 X1.7230 Y1.5706 Z0.5404 F2.0000
G1 X1.7173 Y1.5568 Z0.5398 F2.0000
G1 X1.7130 Y1.5425 Z0.5392 F2.0000
G1 X1.7099 Y1.5279 Z0.5386 F2.0000
G1 X1.7081 Y1.5131 Z0.5380 F2.0000
G1 X1.7076 Y1.4982 Z0.5374 F2.0000
G1 X1.7085 Y1.4834 Z0.5368 F2.0000
G1 X1.7107 Y1.4687 Z0.5362 F2.0000
G1 X1.7142 Y1.4542 Z0.5356 F2.0000
G1 X1.7189 Y1.4401 Z0.5350 F2.0000
G1 X1.7249 Y1.4265 Z0.5344 F2.0000
G1 X1.7321 Y1.4135 Z0.5339 F2.0000
G1 X1.7404 Y1.4011 Z0.5333 F2.0000
G1 X1.7498 Y1.3896 Z0.5327 F2.0000
G1 X1.7601 Y1.3789 Z0.5321 F2.0000
G1 X1.7714 Y1.3692 Z0.5315 F2.0000
G1 X1.7834 Y1.3606 Z0.5309 F2.0000
G1 X1.7962 Y1.3530 Z0.5303 F2.0000
G1 X1.8096 Y1.3467 Z0.5297 F2.0000
G1 X1.8235 Y1.3415 Z0.5291 F2.0000
G1 X1.8378 Y1.3376 Z0.5285 F2.0000
G1 X1.8524 Y1.3350 Z0.5280 F2.0000
G1 X1.8672 Y1.3337 Z0.5274 F2.0000
G1 X1.8820 Y1.3337 Z0.5268 F2.0000
G1 X1.8967 Y1.3350 Z0.5262 F2.0000
G1 X1.9113 Y1.3377 Z0.5256 F2.0000
G1 X1.9256 Y1.3416 Z0.5250 F2.0000
G1 X1.9394 Y1.3468 Z0.5244 F2.0000
G1 X1.9528 Y1.3531 Z0.5238 F2.0000
G1 X1.9655 Y1.3607 Z0.5232 F2.0000
G1 X1.9775 Y1.3693 Z0.5226 F2.0000
G1 X1.9887 Y1.3790 Z0.5220 F2.0000
G1 X1.9989 Y1.3896 Z0.5215 F2.0000
G1 X2.0082 Y1.4011 Z0.5209 F2.0000
G1 X2.0164 Y1.4133 Z0.5203 F2.0000
G1 X2.0235 Y1.4263 Z0.5197 F2.0000
G1 X2.0294 Y1.4398 Z0.5191 F2.0000
G1 X2.0341 Y1.4538 Z0.5185 F2.0000
G1 X2.0376 Y1.4681 Z0.5179 F2.0000
G1 X2.0397 Y1.4827 Z0.5173 F2.0000
G1 X2.0405 Y1.4974 Z0.5167 F2.0000
G1 X2.0401 Y1.5121 Z0.5161 F2.0000
G1 X2.0383 Y1.5267 Z0.5156 F2.0000
G1 X2.0352 Y1.5411 Z0.5150 F2.0000
G1 X2.0309 Y1.5552 Z0.5144 F2.0000
G1 X2.0253 Y1.5688 Z0.5138 F2.0000
G1 X2.0185 Y1.5819 Z0.5132 F2.0000
G1 X2.0107 Y1.5943 Z0.5126 F2.0000
G1 X2.0017 Y1.6059 Z0.5120 F2.0000
G1 X1.9917 Y1.6167 Z0.5114 F2.0000
G1 X1.9809 Y1.6266 Z0.5108 F2.0000
G1 X1.9692 Y1.6355 Z0.5102 F2.0000
G1 X1.9567 Y1.6433 Z0.5096 F2.0000
G1 X1.9436 Y1.6499 Z0.5091 F2.0000
G1 X1.9300 Y1.6554 Z0.5085 F2.0000
G1 X1.9160 Y1.6596 Z0.5079 F2.0000
G1 X1.9016 Y1.6626 Z0.5073 F2.0000
G1 X1.8871 Y1.6642 Z0.5067 F2.0000
G1 X1.8724 Y1.6646 Z0.5061 F2.0000
G1 X1.8578 Y1.6637 Z0.5055 F2.0000
G1 X1.8433 Y1.6615 Z0.5049 F2.0000
G1 X1.8291 Y1.6579 Z0.5043 F2.0000
G1 X1.8153 Y1.6532 Z0.5037 F2.0000
G1 X1.8019 Y1.6472 Z0.5031 F2.0000
G1 X1.7891 Y1.6401 Z0.5026 F2.0000
G1 X1.7771 Y1.6319 Z0.5020 F2.0000
G1 X1.7658 Y1.6226 Z0.5014 F2.0000
G1 X1.7553 Y1.6124 Z0.5008 F2.0000
G1 X1.7459 Y1.6013 Z0.5002 F2.0000
G3 X2.0041 Y1.3987 Z0.5000 I0.1291 J-0.1013 F20.0000
G3 X1.7459 Y1.6013 Z0.5000 I-0.1291 J0.1013 F20.0000
(Adaptive - depth: 12.700000)
G1 X1.8750 Y1.3177 F20.0000
G1 X1.8777 Y1.3147 F20.0000
G1 X1.8797 Y1.3113 F20.0000
G1 X1.8802 Y1.3073 F20.0000
G1 X1.8834 Y1.3000 F20.0000
G1 X1.8907 Y1.2908 F20.0000
G1 X1.9038 Y1.2817 F20.0000
G1 X1.9326 Y1.2692 F20.0000
G1 X1.9577 Y1.2645 F20.0000
G1 X1.9793 Y1.2640 F20.0000
G1 X1.9973 Y1.2655 F20.0000
G1 X2.0212 Y1.2719 F20.0000
G1 X2.0364 Y1.2771 F20.0000
G1 X2.0536 Y1.2849 F20.0000
G1 X2.0701 Y1.2950 F20.0000
G1 X2.0846 Y1.3059 F20.0000
G1 X2.0992 Y1.3179 F20.0000
G1 X2.1169 Y1.3369 F20.0000
G1 X2.1294 Y1.3529 F20.0000
G1 X2.1412 Y1.3706 F20.0000
G1 X2.1516 Y1.3903 F20.0000
G1 X2.1597 Y1.4099 F20.0000
G1 X2.1663 Y1.4304 F20.0000
G1 X2.1722 Y1.4513 F20.0000
G1 X2.1777 Y1.4823 F20.0000
G1 X2.1801 Y1.5066 F20.0000
G1 X2.1794 Y1.5322 F20.0000
G1 X2.1777 Y1.5509 F20.0000
G1 X2.1735 Y1.5731 F20.0000
G1 X2.1673 Y1.5942 F20.0000
G1 X2.1513 Y1.6341 F20.0000
G1 X2.1361 Y1.6617 F20.0000
G1 X2.1228 Y1.6826 F20.0000
G1 X2.1073 Y1.7037 F20.0000
G1 X2.0888 Y1.7249 F20.0000
G1 X2.0689 Y1.7421 F20.0000
G1 X2.0549 Y1.7530 F20.0000
G1 X2.0352 Y1.7653 F20.0000
G1 X1.9751 Y1.7879 F20.0000
G1 X1.9082 Y1.7992 F20.0000
G1 X1.8452 Y1.8012 F20.0000
G1 X1.7822 Y1.7938 F20.0000
G1 X1.7586 Y1.7869 F20.0000
G1 X1.7217 Y1.7689 F20.0000
G1 X1.7114 Y1.7623 F20.0000
G1 X1.6604 Y1.7247 F20.0000
G1 X1.6383 Y1.7020 F20.0000
G1 X1.6134 Y1.6700 F20.0000
G1 X1.6004 Y1.6469 F20.0000
G1 X1.5913 Y1.6270 F20.0000
G1 X1.5755 Y1.5844 F20.0000
G1 X1.5682 Y1.5536 F20.0000
G1 X1.5632 Y1.5271 F20.0000
G1 X1.5620 Y1.4980 F20.0000
G1 X1.5623 Y1.4796 F20.0000
G1 X1.5647 Y1.4557 F20.0000
G1 X1.5694 Y1.4333 F20.0000
G1 X1.5819 Y1.3910 F20.0000
G1 X1.5945 Y1.3620 F20.0000
G1 X1.6061 Y1.3388 F20.0000
G1 X1.6213 Y1.3155 F20.0000
G1 X1.6339 Y1.2987 F20.0000
G1 X1.6501 Y1.2803 F20.0000
G1 X1.6676 Y1.2638 F20.0000
G1 X1.6838 Y1.2473 F20.0000
G1 X1.7242 Y1.2099 F20.0000
G1 X1.7343 Y1.2037 F20.0000
G1 X1.7495 Y1.1917 F20.0000
G1 X2.1001 Y1.1934 F20.0000
G1 X2.1481 Y1.2030 F20.0000
G1 X2.1690 Y1.2121 F20.0000
G1 X2.2018 Y1.2367 F20.0000
G1 X2.2266 Y1.2616 F20.0000
G1 X2.2461 Y1.2862 F20.0000
G1 X2.2628 Y1.3115 F20.0000
G1 X2.2749 Y1.3329 F20.0000
G1 X2.2847 Y1.3541 F20.0000
G1 X2.3017 Y1.4013 F20.0000
G1 X2.3091 Y1.4318 F20.0000
G1 X2.3142 Y1.4604 F20.0000
G1 X2.3182 Y1.4902 F20.0000
G1 X2.3199 Y1.5214 F20.0000
G1 X2.3196 Y1.5517 F20.0000
G1 X2.3155 Y1.5822 F20.0000
G1 X2.3118 Y1.6014 F20.0000
G1 X2.2980 Y1.6503 F20.0000
G1 X2.2864 Y1.6796 F20.0000
G1 X2.2739 Y1.7067 F20.0000
G1 X2.2596 Y1.7345 F20.0000
G1 X2.2431 Y1.7613 F20.0000
G1 X2.2251 Y1.7872 F20.0000
G1 X2.2126 Y1.7968 F20.0000
G1 X2.1951 Y1.8063 F20.0000
G1 X2.1914 Y1.8078 F20.0000
G1 X1.6521 Y1.8068 F20.0000
G1 X1.6245 Y1.8029 F20.0000
G1 X1.5893 Y1.7918 F20.0000
G1 X1.5819 Y1.7884 F20.0000
G1 X1.5581 Y1.7726 F20.0000
G1 X1.5453 Y1.7623 F20.0000
G1 X1.5221 Y1.7406 F20.0000
G1 X1.5015 Y1.7165 F20.0000
G1 X1.4862 Y1.6956 F20.0000
G1 X1.4729 Y1.6759 F20.0000
G1 X1.4587 Y1.6494 F20.0000
G1 X1.4478 Y1.6252 F20.0000
G1 X1.4385 Y1.6004 F20.0000
G1 X1.4309 Y1.5738 F20.0000
G1 X1.4252 Y1.5475 F20.0000
G1 X1.4215 Y1.5209 F20.0000
G1 X1.4198 Y1.4938 F20.0000
G1 X1.4200 Y1.4670 F20.0000
G1 X1.4222 Y1.4402 F20.0000
G1 X1.4264 Y1.4136 F20.0000
G1 X1.4323 Y1.3873 F20.0000
G1 X1.4483 Y1.3359 F20.0000
G1 X1.4606 Y1.3068 F20.0000
G1 X1.4744 Y1.2785 F20.0000
G1 X1.4894 Y1.2507 F20.0000
G1 X1.5172 Y1.2074 F20.0000
G1 X1.5258 Y1.1993 F20.0000
G1 X1.5354 Y1.1929 F20.0000
G1 X1.5391 Y1.1917 F20.0000
G1 X1.5650 Y1.1917 F20.0000
G1 X1.5650 Y1.1917 F20.0000
G1 X1.5682 Y1.1917 F20.0000
G1 X1.5679 Y1.1919 F20.0000
G1 X1.5645 Y1.1917 F20.0000
G1 X1.5674 Y1.1914 F20.0000
G1 X1.5674 Y1.1914 F20.0000
G1 X1.6191 Y1.1917 F20.0000
G1 X1.6191 Y1.1917 F20.0000
G1 X1.6371 Y1.1934 F20.0000
G1 X1.6459 Y1.1954 F20.0000
G1 X1.6545 Y1.1981 F20.0000
G1 X1.6629 Y1.2015 F20.0000
G1 X1.6708 Y1.2057 F20.0000
G1 X1.6786 Y1.2106 F20.0000
G0 X1.6860 Y1.2160
G0 X1.7527 Y1.2724
G0 X1.7606 Y1.2773
G0 X1.7689 Y1.2810
G0 X1.7778 Y1.2830
G0 X1.7968 Y1.2847
G0 X1.9523 Y1.2844
G0 X1.9619 Y1.2840
G0 X1.9712 Y1.2827
G0 X1.9801 Y1.2798
G0 X1.9887 Y1.2758
G0 X2.0052 Y1.2653
G0 X2.0212 Y1.2534
G1 X2.0288 Y1.2475 F20.0000
G1 X2.0731 Y1.2138 F20.0000
G1 X2.0888 Y1.2045 F20.0000
G1 X2.0972 Y1.2005 F20.0000
G1 X2.1058 Y1.1976 F20.0000
G1 X2.1326 Y1.1917 F20.0000
G1 X2.1326 Y1.1917 F20.0000
G1 X2.2544 Y1.1929 F20.0000
G1 X2.2987 Y1.2013 F20.0000
G1 X2.3191 Y1.2101 F20.0000
G1 X2.3430 Y1.2281 F20.0000
G1 X2.3538 Y1.2387 F20.0000
G1 X2.3745 Y1.2623 F20.0000
G1 X2.3927 Y1.2879 F20.0000
G1 X2.4053 Y1.3083 F20.0000
G1 X2.4178 Y1.3314 F20.0000
G1 X2.4296 Y1.3588 F20.0000
G1 X2.4387 Y1.3839 F20.0000
G1 X2.4464 Y1.4104 F20.0000
G1 X2.4574 Y1.4646 F20.0000
G1 X2.4609 Y1.4958 F20.0000
G1 X2.4628 Y1.5271 F20.0000
G1 X2.4636 Y1.5583 F20.0000
G1 X2.4621 Y1.5896 F20.0000
G1 X2.4592 Y1.6208 F20.0000
G1 X2.4528 Y1.6516 F20.0000
G1 X2.4471 Y1.6750 F20.0000
G1 X2.4375 Y1.7045 F20.0000
G1 X2.4158 Y1.7581 F20.0000
G1 X2.4016 Y1.7862 F20.0000
G1 X2.3967 Y1.7923 F20.0000
G1 X2.3780 Y1.8066 F20.0000
G1 X2.3743 Y1.8083 F20.0000
G1 X2.2719 Y1.8083 F20.0000
G1 X2.2719 Y1.8083 F20.0000
G1 X2.2534 Y1.8061 F20.0000
G1 X2.2443 Y1.8041 F20.0000
G1 X2.2357 Y1.8012 F20.0000
G1 X2.2274 Y1.7977 F20.0000
G1 X2.2200 Y1.7931 F20.0000
G1 X2.2138 Y1.7874 F20.0000
G0 X2.2096 Y1.7808
G0 X2.2072 Y1.7731
G0 X2.2060 Y1.7648
G0 X2.2055 Y1.7473
G0 X2.2271 Y1.2751
G1 X2.2276 Y1.2638 F20.0000
G1 X2.2293 Y1.2421 F20.0000
G1 X2.2313 Y1.2323 F20.0000
G1 X2.2350 Y1.2234 F20.0000
G1 X2.2399 Y1.2163 F20.0000
G1 X2.2463 Y1.2101 F20.0000
G1 X2.2537 Y1.2050 F20.0000
G1 X2.2616 Y1.2008 F20.0000
G1 X2.2699 Y1.1976 F20.0000
G1 X2.2968 Y1.1917 F20.0000
G1 X2.2968 Y1.1917 F20.0000
G1 X2.4001 Y1.1932 F20.0000
G1 X2.4407 Y1.2008 F20.0000
G1 X2.4616 Y1.2094 F20.0000
G1 X2.4801 Y1.2224 F20.0000
G1 X2.4963 Y1.2384 F20.0000
G1 X2.5167 Y1.2623 F20.0000
G1 X2.5349 Y1.2879 F20.0000
G1 X2.5492 Y1.3118 F20.0000
G1 X2.5605 Y1.3327 F20.0000
G1 X2.5723 Y1.3602 F20.0000
G1 X2.5898 Y1.4109 F20.0000
G1 X2.5969 Y1.4414 F20.0000
G1 X2.6026 Y1.4722 F20.0000
G1 X2.6070 Y1.5032 F20.0000
G1 X2.6090 Y1.5344 F20.0000
G1 X2.6095 Y1.5657 F20.0000
G1 X2.6083 Y1.5969 F20.0000
G1 X2.6051 Y1.6282 F20.0000
G1 X2.6001 Y1.6592 F20.0000
G1 X2.5871 Y1.7207 F20.0000
G1 X2.5782 Y1.7510 F20.0000
G1 X2.5667 Y1.7803 F20.0000
G1 X2.5605 Y1.7904 F20.0000
G1 X2.5492 Y1.8014 F20.0000
G1 X2.5394 Y1.8081 F20.0000
G1 X2.4567 Y1.8083 F20.0000
G1 X2.4567 Y1.8083 F20.0000
G1 X2.4382 Y1.8061 F20.0000
G1 X2.4291 Y1.8041 F20.0000
G1 X2.4205 Y1.8012 F20.0000
G1 X2.4122 Y1.7977 F20.0000
G1 X2.4045 Y1.7931 F20.0000
G1 X2.3984 Y1.7874 F20.0000
G0 X2.3937 Y1.7808
G0 X2.3907 Y1.7731
G0 X2.3888 Y1.7648
G0 X2.3866 Y1.7473
G0 X2.3605 Y1.2749
G1 X2.3597 Y1.2635 F20.0000
G1 X2.3593 Y1.2419 F20.0000
G1 X2.3605 Y1.2320 F20.0000
G1 X2.3634 Y1.2234 F20.0000
G1 X2.3681 Y1.2163 F20.0000
G1 X2.3743 Y1.2101 F20.0000
G1 X2.3814 Y1.2050 F20.0000
G1 X2.3893 Y1.2008 F20.0000
G1 X2.3976 Y1.1976 F20.0000
G1 X2.4245 Y1.1917 F20.0000
G1 X2.4245 Y1.1917 F20.0000
G1 X2.5426 Y1.1929 F20.0000
G1 X2.5832 Y1.2005 F20.0000
G1 X2.6041 Y1.2089 F20.0000
G1 X2.6225 Y1.2217 F20.0000
G1 X2.6415 Y1.2397 F20.0000
G1 X2.6617 Y1.2635 F20.0000
G1 X2.6799 Y1.2891 F20.0000
G1 X2.6937 Y1.3118 F20.0000
G1 X2.7057 Y1.3344 F20.0000
G1 X2.7180 Y1.3627 F20.0000
G1 X2.7271 Y1.3885 F20.0000
G1 X2.7429 Y1.4427 F20.0000
G1 X2.7488 Y1.4734 F20.0000
G1 X2.7534 Y1.5044 F20.0000
G1 X2.7571 Y1.5357 F20.0000
G1 X2.7589 Y1.5669 F20.0000
G1 X2.7594 Y1.5982 F20.0000
G1 X2.7584 Y1.6294 F20.0000
G1 X2.7557 Y1.6607 F20.0000
G1 X2.7515 Y1.6917 F20.0000
G1 X2.7458 Y1.7227 F20.0000
G1 X2.7370 Y1.7530 F20.0000
G1 X2.7224 Y1.7874 F20.0000
G1 X2.7126 Y1.7992 F20.0000
G1 X2.7032 Y1.8063 F20.0000
G1 X2.6998 Y1.8083 F20.0000
G1 X2.6211 Y1.8083 F20.0000
G1 X2.6211 Y1.8083 F20.0000
G1 X2.6026 Y1.8061 F20.0000
G1 X2.5935 Y1.8041 F20.0000
G1 X2.5849 Y1.8012 F20.0000
G1 X2.5765 Y1.7977 F20.0000
G1 X2.5689 Y1.7931 F20.0000
G1 X2.5627 Y1.7874 F20.0000
G0 X2.5578 Y1.7808
G0 X2.5546 Y1.7731
G0 X2.5524 Y1.7648
G0 X2.5497 Y1.7473
G0 X2.5081 Y1.2749
G1 X2.5071 Y1.2635 F20.0000
G1 X2.5059 Y1.2419 F20.0000
G1 X2.5069 Y1.2320 F20.0000
G1 X2.5096 Y1.2234 F20.0000
G1 X2.5143 Y1.2163 F20.0000
G1 X2.5202 Y1.2101 F20.0000
G1 X2.5273 Y1.2050 F20.0000
G1 X2.5352 Y1.2008 F20.0000
G1 X2.5436 Y1.1976 F20.0000
G1 X2.5704 Y1.1917 F20.0000
G1 X2.5704 Y1.1917 F20.0000
G1 X2.6885 Y1.1929 F20.0000
G1 X2.7254 Y1.1998 F20.0000
G1 X2.7466 Y1.2079 F20.0000
G1 X2.7648 Y1.2207 F20.0000
G1 X2.7837 Y1.2384 F20.0000
G1 X2.8041 Y1.2623 F20.0000
G1 X2.8226 Y1.2876 F20.0000
G1 X2.8364 Y1.3093 F20.0000
G1 X2.8602 Y1.3551 F20.0000
G1 X2.8718 Y1.3841 F20.0000
G1 X2.8812 Y1.4124 F20.0000
G1 X2.8976 Y1.4729 F20.0000
G1 X2.9033 Y1.5037 F20.0000
G1 X2.9077 Y1.5347 F20.0000
G1 X2.9112 Y1.5659 F20.0000
G1 X2.9129 Y1.5972 F20.0000
G1 X2.9131 Y1.6284 F20.0000
G1 X2.9122 Y1.6597 F20.0000
G1 X2.9094 Y1.6909 F20.0000
G1 X2.9033 Y1.7217 F20.0000
G1 X2.8979 Y1.7451 F20.0000
G1 X2.8888 Y1.7751 F20.0000
G1 X2.8799 Y1.7923 F20.0000
G1 X2.8686 Y1.8029 F20.0000
G1 X2.8622 Y1.8073 F20.0000
G1 X2.8583 Y1.8083 F20.0000
G1 X2.7717 Y1.8083 F20.0000
G1 X2.7717 Y1.8083 F20.0000
G1 X2.7532 Y1.8061 F20.0000
G1 X2.7441 Y1.8041 F20.0000
G1 X2.7355 Y1.8012 F20.0000
G1 X2.7271 Y1.7977 F20.0000
G1 X2.7195 Y1.7931 F20.0000
G1 X2.7131 Y1.7874 F20.0000
G0 X2.7084 Y1.7808
G0 X2.7050 Y1.7731
G0 X2.7028 Y1.7648
G0 X2.7000 Y1.7473
G0 X2.6545 Y1.2749
G1 X2.6533 Y1.2635 F20.0000
G1 X2.6521 Y1.2419 F20.0000
G1 X2.6531 Y1.2320 F20.0000
G1 X2.6558 Y1.2234 F20.0000
G1 X2.6602 Y1.2163 F20.0000
G1 X2.6663 Y1.2101 F20.0000
G1 X2.6732 Y1.2050 F20.0000
G1 X2.6811 Y1.2008 F20.0000
G1 X2.6895 Y1.1976 F20.0000
G1 X2.7163 Y1.1917 F20.0000
G1 X2.7163 Y1.1917 F20.0000
G1 X2.8307 Y1.1929 F20.0000
G1 X2.8713 Y1.2003 F20.0000
G1 X2.8925 Y1.2087 F20.0000
G1 X2.9139 Y1.2237 F20.0000
G1 X2.9301 Y1.2397 F20.0000
G1 X2.9508 Y1.2633 F20.0000
G1 X2.9695 Y1.2884 F20.0000
G1 X2.9865 Y1.3147 F20.0000
G1 X3.0020 Y1.3403 F20.0000
G1 X3.0162 Y1.3681 F20.0000
G1 X3.0288 Y1.3967 F20.0000
G1 X3.0401 Y1.4259 F20.0000
G1 X3.0495 Y1.4557 F20.0000
G1 X3.0573 Y1.4860 F20.0000
G1 X3.0635 Y1.5167 F20.0000
G1 X3.0679 Y1.5477 F20.0000
G1 X3.0704 Y1.5790 F20.0000
G1 X3.0711 Y1.6102 F20.0000
G1 X3.0701 Y1.6415 F20.0000
G1 X3.0674 Y1.6727 F20.0000
G1 X3.0630 Y1.7037 F20.0000
G1 X3.0568 Y1.7345 F20.0000
G1 X3.0490 Y1.7650 F20.0000
G1 X3.0374 Y1.7891 F20.0000
G1 X3.0300 Y1.7982 F20.0000
G1 X3.0172 Y1.8076 F20.0000
G1 X3.0133 Y1.8083 F20.0000
G1 X2.9267 Y1.8083 F20.0000
G1 X2.9267 Y1.8083 F20.0000
G1 X2.9082 Y1.8061 F20.0000
G1 X2.8991 Y1.8041 F20.0000
G1 X2.8905 Y1.8012 F20.0000
G1 X2.8821 Y1.7977 F20.0000
G1 X2.8745 Y1.7931 F20.0000
G1 X2.8681 Y1.7874 F20.0000
G0 X2.8634 Y1.7808
G0 X2.8600 Y1.7731
G0 X2.8575 Y1.7648
G0 X2.8543 Y1.7473
G0 X2.8009 Y1.2749
G1 X2.7997 Y1.2635 F20.0000
G1 X2.7982 Y1.2419 F20.0000
G1 X2.7990 Y1.2320 F20.0000
G1 X2.8014 Y1.2234 F20.0000
G1 X2.8059 Y1.2163 F20.0000
G1 X2.8120 Y1.2101 F20.0000
G1 X2.8189 Y1.2050 F20.0000
G1 X2.8268 Y1.2008 F20.0000
G1 X2.8351 Y1.1976 F20.0000
G1 X2.8620 Y1.1917 F20.0000
G1 X2.8620 Y1.1917 F20.0000
G1 X2.9801 Y1.1929 F20.0000
G1 X3.0207 Y1.2005 F20.0000
G1 X3.0453 Y1.2104 F20.0000
G1 X3.0773 Y1.2355 F20.0000
G1 X3.1009 Y1.2613 F20.0000
G1 X3.1216 Y1.2849 F20.0000
G1 X3.1390 Y1.3108 F20.0000
G1 X3.1528 Y1.3342 F20.0000
G1 X3.1656 Y1.3575 F20.0000
G1 X3.1779 Y1.3863 F20.0000
G1 X3.1877 Y1.4134 F20.0000
G1 X3.2045 Y1.4712 F20.0000
G1 X3.2106 Y1.5020 F20.0000
G1 X3.2156 Y1.5330 F20.0000
G1 X3.2192 Y1.5642 F20.0000
G1 X3.2210 Y1.5955 F20.0000
G1 X3.2212 Y1.6267 F20.0000
G1 X3.2200 Y1.6580 F20.0000
G1 X3.2173 Y1.6892 F20.0000
G1 X3.2131 Y1.7202 F20.0000
G1 X3.2072 Y1.7510 F20.0000
G1 X3.1969 Y1.7805 F20.0000
G1 X3.1890 Y1.7938 F20.0000
G1 X3.1774 Y1.8044 F20.0000
G1 X3.1708 Y1.8083 F20.0000
G1 X3.0881 Y1.8083 F20.0000
G1 X3.0881 Y1.8083 F20.0000
G1 X3.0696 Y1.8061 F20.0000
G1 X3.0605 Y1.8041 F20.0000
G1 X3.0519 Y1.8012 F20.0000
G1 X3.0436 Y1.7977 F20.0000
G1 X3.0359 Y1.7931 F20.0000
G1 X3.0295 Y1.7874 F20.0000
G0 X3.0246 Y1.7808
G0 X3.0209 Y1.7731
G0 X3.0185 Y1.7648
G0 X3.0148 Y1.7473
G0 X2.9483 Y1.2746
G1 X2.9469 Y1.2633 F20.0000
G1 X2.9446 Y1.2419 F20.0000
G1 X2.9451 Y1.2320 F20.0000
G1 X2.9476 Y1.2234 F20.0000
G1 X2.9520 Y1.2160 F20.0000
G1 X2.9579 Y1.2101 F20.0000
G1 X2.9651 Y1.2050 F20.0000
G1 X2.9727 Y1.2008 F20.0000
G1 X2.9811 Y1.1976 F20.0000
G1 X3.0079 Y1.1917 F20.0000
G1 X3.0079 Y1.1917 F20.0000
G1 X3.1334 Y1.1932 F20.0000
G1 X3.1629 Y1.1978 F20.0000
G1 X3.1848 Y1.2045 F20.0000
G1 X3.1986 Y1.2109 F20.0000
G1 X3.2254 Y1.2313 F20.0000
G1 X3.2335 Y1.2394 F20.0000
G1 X3.2544 Y1.2625 F20.0000
G1 X3.2739 Y1.2872 F20.0000
G1 X3.3056 Y1.3364 F20.0000
G1 X3.3201 Y1.3642 F20.0000
G1 X3.3329 Y1.3927 F20.0000
G1 X3.3445 Y1.4220 F20.0000
G1 X3.3541 Y1.4518 F20.0000
G1 X3.3620 Y1.4820 F20.0000
G1 X3.3681 Y1.5128 F20.0000
G1 X3.3723 Y1.5438 F20.0000
G1 X3.3748 Y1.5750 F20.0000
G1 X3.3760 Y1.6375 F20.0000
G1 X3.3743 Y1.6688 F20.0000
G1 X3.3713 Y1.7000 F20.0000
G1 X3.3654 Y1.7308 F20.0000
G1 X3.3595 Y1.7574 F20.0000
G1 X3.3465 Y1.7901 F20.0000
G1 X3.3383 Y1.7987 F20.0000
G1 X3.3290 Y1.8061 F20.0000
G1 X3.3255 Y1.8081 F20.0000
G1 X3.2507 Y1.8083 F20.0000
G1 X3.2507 Y1.8083 F20.0000
G1 X3.2323 Y1.8061 F20.0000
G1 X3.2232 Y1.8041 F20.0000
G1 X3.2146 Y1.8012 F20.0000
G1 X3.2062 Y1.7977 F20.0000
G1 X3.1986 Y1.7931 F20.0000
G1 X3.1922 Y1.7874 F20.0000
G0 X3.1873 Y1.7808
G0 X3.1836 Y1.7731
G0 X3.1811 Y1.7648
G0 X3.1774 Y1.7473
G0 X3.1125 Y1.2746
G1 X3.1110 Y1.2633 F20.0000
G1 X3.1088 Y1.2419 F20.0000
G1 X3.1093 Y1.2320 F20.0000
G1 X3.1117 Y1.2234 F20.0000
G1 X3.1161 Y1.2160 F20.0000
G1 X3.1220 Y1.2101 F20.0000
G1 X3.1292 Y1.2050 F20.0000
