(Exported by FreeCAD)
(Post Processor: script_module)
(Output Time:2025-01-27 22:14:54.324191)
(Begin preamble)
G17 G90
G20
(Begin operation: Fixture)
(Path: Fixture)
G54
(Finish operation: Fixture)
(Begin operation: 365_endmill001)
(Path: 365_endmill001)
(365_endmill001)
(Begin toolchange)
( M6 T2 )
M3 S1000
(Finish operation: 365_endmill001)
(Begin operation: MillFace)
(Coolant On:Flood)
M8
(Path: MillFace)
(MillFace)
G0 Z0.9969
G0 X0.0000 Y0.0000
G0 X0.0161 Y0.0161
G0 X0.0161 Y0.0161 Z0.9181
G1 X0.0161 Y0.0161 Z0.7500 F2.0000
G3 X0.0681 Y-0.0036 Z0.7500 I0.0479 J0.0479 K0.0000 F20.0000
G1 X3.6819 Y-0.0036 Z0.7500 F20.0000
G3 X3.7537 Y0.0681 Z0.7500 I0.0041 J0.0677 K0.0000 F20.0000
G1 X3.7537 Y0.9945 Z0.7500 F20.0000
G3 X3.7519 Y1.0027 Z0.7500 I-0.0066 J0.0029 K0.0000 F20.0000
G3 X3.7445 Y1.0036 Z0.7500 I-0.0049 J-0.0095 K0.0000 F20.0000
G1 X0.0055 Y1.0037 Z0.7500 F20.0000
G3 X-0.0027 Y1.0019 Z0.7500 I-0.0029 J-0.0066 K0.0000 F20.0000
G3 X-0.0036 Y0.9945 Z0.7500 I0.0095 J-0.0049 K0.0000 F20.0000
G1 X-0.0036 Y0.0681 Z0.7500 F20.0000
G3 X0.0161 Y0.0161 Z0.7500 I0.0677 J-0.0041 K0.0000 F20.0000
G1 X0.1789 Y0.1789 Z0.7500 F2.0000
G1 X3.5712 Y0.1789 Z0.7500 F20.0000
G1 X3.5712 Y0.8211 Z0.7500 F20.0000
G1 X0.1789 Y0.8212 Z0.7500 F20.0000
G1 X0.1789 Y0.1789 Z0.7500 F20.0000
G1 X0.3614 Y0.3614 Z0.7500 F2.0000
G1 X3.3887 Y0.3614 Z0.7500 F20.0000
G1 X3.3887 Y0.6386 Z0.7500 F20.0000
G1 X0.3614 Y0.6387 Z0.7500 F20.0000
G1 X0.3614 Y0.3614 Z0.7500 F20.0000
G1 X0.4526 Y0.4526 Z0.7500 F2.0000
G1 X3.2974 Y0.4526 Z0.7500 F20.0000
G1 X3.2974 Y0.5474 Z0.7500 F20.0000
G1 X0.4526 Y0.5474 Z0.7500 F20.0000
G1 X0.4526 Y0.4526 Z0.7500 F20.0000
G0 Z0.9969
G0 Z0.9969
(Finish operation: MillFace)
(Coolant Off:Flood)
M9
(Begin operation: MillFace001)
(Coolant On:Flood)
M8
(Path: MillFace001)
(MillFace001)
G0 Z0.9969
G0 X0.0000 Y0.0000
G0 X0.0030 Y1.9961
G0 X0.0030 Y1.9961 Z0.9181
G1 X0.0030 Y1.9961 Z0.7500 F2.0000
G3 X0.0055 Y1.9964 Z0.7500 I0.0000 J0.0107 K0.0000 F20.0000
G1 X3.7445 Y1.9964 Z0.7500 F20.0000
G3 X3.7527 Y1.9981 Z0.7500 I0.0029 J0.0066 K0.0000 F20.0000
G3 X3.7537 Y2.0055 Z0.7500 I-0.0095 J0.0049 K0.0000 F20.0000
G1 X3.7537 Y2.9319 Z0.7500 F20.0000
G3 X3.6819 Y3.0037 Z0.7500 I-0.0677 J0.0041 K0.0000 F20.0000
G1 X0.0681 Y3.0037 Z0.7500 F20.0000
G3 X-0.0036 Y2.9319 Z0.7500 I-0.0041 J-0.0677 K0.0000 F20.0000
G1 X-0.0036 Y2.0055 Z0.7500 F20.0000
G3 X-0.0019 Y1.9973 Z0.7500 I0.0066 J-0.0029 K0.0000 F20.0000
G3 X0.0030 Y1.9961 Z0.7500 I0.0049 J0.0095 K0.0000 F20.0000
G1 X0.1789 Y2.1789 Z0.7500 F2.0000
G1 X3.5712 Y2.1789 Z0.7500 F20.0000
G1 X3.5712 Y2.8212 Z0.7500 F20.0000
G1 X0.1789 Y2.8212 Z0.7500 F20.0000
G1 X0.1789 Y2.1789 Z0.7500 F20.0000
G1 X0.3614 Y2.3614 Z0.7500 F2.0000
G1 X3.3887 Y2.3614 Z0.7500 F20.0000
G1 X3.3887 Y2.6387 Z0.7500 F20.0000
G1 X0.3614 Y2.6387 Z0.7500 F20.0000
G1 X0.3614 Y2.3614 Z0.7500 F20.0000
G1 X0.4526 Y2.4526 Z0.7500 F2.0000
G1 X3.2974 Y2.4526 Z0.7500 F20.0000
G1 X3.2974 Y2.5474 Z0.7500 F20.0000
G1 X0.4526 Y2.5474 Z0.7500 F20.0000
G1 X0.4526 Y2.4526 Z0.7500 F20.0000
G0 Z0.9969
G0 Z0.9969
(Finish operation: MillFace001)
(Coolant Off:Flood)
M9
(Begin operation: Adaptive)
(Coolant On:Flood)
M8
(Path: Adaptive)
(Adaptive)
(Helix to depth: 12.700000)
G0 Z0.9969
G0 X1.8472 Y1.3202 Z0.9969
G0 X1.8472 Y1.3202 Z0.9181
G1 X1.8472 Y1.3202 Z0.8000 F2.0000
G1 X2.0653 Y1.5000 Z0.8000 F2.0000
G1 X2.0645 Y1.5169 Z0.7994 F2.0000
G1 X2.0622 Y1.5337 Z0.7988 F2.0000
G1 X2.0585 Y1.5502 Z0.7982 F2.0000
G1 X2.0532 Y1.5663 Z0.7976 F2.0000
G1 X2.0466 Y1.5818 Z0.7970 F2.0000
G1 X2.0386 Y1.5967 Z0.7965 F2.0000
G1 X2.0293 Y1.6109 Z0.7959 F2.0000
G1 X2.0188 Y1.6241 Z0.7953 F2.0000
G1 X2.0071 Y1.6364 Z0.7947 F2.0000
G1 X1.9945 Y1.6475 Z0.7941 F2.0000
G1 X1.9808 Y1.6575 Z0.7935 F2.0000
G1 X1.9664 Y1.6663 Z0.7929 F2.0000
G1 X1.9512 Y1.6737 Z0.7923 F2.0000
G1 X1.9355 Y1.6797 Z0.7917 F2.0000
G1 X1.9193 Y1.6843 Z0.7911 F2.0000
G1 X1.9027 Y1.6875 Z0.7906 F2.0000
G1 X1.8859 Y1.6892 Z0.7900 F2.0000
G1 X1.8691 Y1.6893 Z0.7894 F2.0000
G1 X1.8523 Y1.6880 Z0.7888 F2.0000
G1 X1.8356 Y1.6852 Z0.7882 F2.0000
G1 X1.8193 Y1.6809 Z0.7876 F2.0000
G1 X1.8035 Y1.6752 Z0.7870 F2.0000
G1 X1.7882 Y1.6681 Z0.7864 F2.0000
G1 X1.7737 Y1.6597 Z0.7858 F2.0000
G1 X1.7599 Y1.6500 Z0.7852 F2.0000
G1 X1.7471 Y1.6391 Z0.7846 F2.0000
G1 X1.7352 Y1.6272 Z0.7841 F2.0000
G1 X1.7245 Y1.6142 Z0.7835 F2.0000
G1 X1.7150 Y1.6004 Z0.7829 F2.0000
G1 X1.7068 Y1.5857 Z0.7823 F2.0000
G1 X1.6999 Y1.5704 Z0.7817 F2.0000
G1 X1.6944 Y1.5545 Z0.7811 F2.0000
G1 X1.6903 Y1.5383 Z0.7805 F2.0000
G1 X1.6877 Y1.5217 Z0.7799 F2.0000
G1 X1.6865 Y1.5049 Z0.7793 F2.0000
G1 X1.6869 Y1.4882 Z0.7787 F2.0000
G1 X1.6887 Y1.4715 Z0.7781 F2.0000
G1 X1.6921 Y1.4551 Z0.7776 F2.0000
G1 X1.6968 Y1.4390 Z0.7770 F2.0000
G1 X1.7030 Y1.4234 Z0.7764 F2.0000
G1 X1.7105 Y1.4085 Z0.7758 F2.0000
G1 X1.7194 Y1.3942 Z0.7752 F2.0000
G1 X1.7294 Y1.3808 Z0.7746 F2.0000
G1 X1.7406 Y1.3684 Z0.7740 F2.0000
G1 X1.7529 Y1.3570 Z0.7734 F2.0000
G1 X1.7661 Y1.3468 Z0.7728 F2.0000
G1 X1.7802 Y1.3378 Z0.7722 F2.0000
G1 X1.7950 Y1.3300 Z0.7717 F2.0000
G1 X1.8105 Y1.3236 Z0.7711 F2.0000
G1 X1.8264 Y1.3186 Z0.7705 F2.0000
G1 X1.8427 Y1.3151 Z0.7699 F2.0000
G1 X1.8593 Y1.3130 Z0.7693 F2.0000
G1 X1.8760 Y1.3124 Z0.7687 F2.0000
G1 X1.8927 Y1.3133 Z0.7681 F2.0000
G1 X1.9092 Y1.3156 Z0.7675 F2.0000
G1 X1.9254 Y1.3195 Z0.7669 F2.0000
G1 X1.9412 Y1.3247 Z0.7663 F2.0000
G1 X1.9565 Y1.3313 Z0.7657 F2.0000
G1 X1.9712 Y1.3393 Z0.7652 F2.0000
G1 X1.9851 Y1.3485 Z0.7646 F2.0000
G1 X1.9981 Y1.3589 Z0.7640 F2.0000
G1 X2.0101 Y1.3705 Z0.7634 F2.0000
G1 X2.0210 Y1.3830 Z0.7628 F2.0000
G1 X2.0308 Y1.3965 Z0.7622 F2.0000
G1 X2.0393 Y1.4108 Z0.7616 F2.0000
G1 X2.0466 Y1.4258 Z0.7610 F2.0000
G1 X2.0524 Y1.4413 Z0.7604 F2.0000
G1 X2.0569 Y1.4573 Z0.7598 F2.0000
G1 X2.0599 Y1.4737 Z0.7593 F2.0000
G1 X2.0615 Y1.4902 Z0.7587 F2.0000
G1 X2.0616 Y1.5068 Z0.7581 F2.0000
G1 X2.0602 Y1.5234 Z0.7575 F2.0000
G1 X2.0573 Y1.5397 Z0.7569 F2.0000
G1 X2.0530 Y1.5558 Z0.7563 F2.0000
G1 X2.0473 Y1.5714 Z0.7557 F2.0000
G1 X2.0402 Y1.5864 Z0.7551 F2.0000
G1 X2.0318 Y1.6007 Z0.7545 F2.0000
G1 X2.0222 Y1.6142 Z0.7539 F2.0000
G1 X2.0114 Y1.6268 Z0.7533 F2.0000
G1 X1.9996 Y1.6384 Z0.7528 F2.0000
G1 X1.9868 Y1.6489 Z0.7522 F2.0000
G1 X1.9731 Y1.6582 Z0.7516 F2.0000
G1 X1.9586 Y1.6662 Z0.7510 F2.0000
G1 X1.9435 Y1.6729 Z0.7504 F2.0000
G1 X1.9278 Y1.6783 Z0.7498 F2.0000
G1 X1.9117 Y1.6822 Z0.7492 F2.0000
G1 X1.8954 Y1.6847 Z0.7486 F2.0000
G1 X1.8789 Y1.6858 Z0.7480 F2.0000
G1 X1.8624 Y1.6853 Z0.7474 F2.0000
G1 X1.8460 Y1.6834 Z0.7469 F2.0000
G1 X1.8298 Y1.6801 Z0.7463 F2.0000
G1 X1.8140 Y1.6753 Z0.7457 F2.0000
G1 X1.7986 Y1.6691 Z0.7451 F2.0000
G1 X1.7839 Y1.6616 Z0.7445 F2.0000
G1 X1.7700 Y1.6528 Z0.7439 F2.0000
G1 X1.7568 Y1.6428 Z0.7433 F2.0000
G1 X1.7446 Y1.6317 Z0.7427 F2.0000
G1 X1.7335 Y1.6196 Z0.7421 F2.0000
G1 X1.7235 Y1.6065 Z0.7415 F2.0000
G1 X1.7146 Y1.5926 Z0.7409 F2.0000
G1 X1.7071 Y1.5779 Z0.7404 F2.0000
G1 X1.7009 Y1.5627 Z0.7398 F2.0000
G1 X1.6960 Y1.5470 Z0.7392 F2.0000
G1 X1.6926 Y1.5308 Z0.7386 F2.0000
G1 X1.6906 Y1.5145 Z0.7380 F2.0000
G1 X1.6901 Y1.4981 Z0.7374 F2.0000
G1 X1.6911 Y1.4816 Z0.7368 F2.0000
G1 X1.6935 Y1.4654 Z0.7362 F2.0000
G1 X1.6974 Y1.4494 Z0.7356 F2.0000
G1 X1.7026 Y1.4338 Z0.7350 F2.0000
G1 X1.7092 Y1.4188 Z0.7344 F2.0000
G1 X1.7171 Y1.4044 Z0.7339 F2.0000
G1 X1.7263 Y1.3908 Z0.7333 F2.0000
G1 X1.7366 Y1.3780 Z0.7327 F2.0000
G1 X1.7481 Y1.3662 Z0.7321 F2.0000
G1 X1.7605 Y1.3555 Z0.7315 F2.0000
G1 X1.7738 Y1.3460 Z0.7309 F2.0000
G1 X1.7879 Y1.3376 Z0.7303 F2.0000
G1 X1.8027 Y1.3306 Z0.7297 F2.0000
G1 X1.8181 Y1.3249 Z0.7291 F2.0000
G1 X1.8339 Y1.3206 Z0.7285 F2.0000
G1 X1.8500 Y1.3177 Z0.7280 F2.0000
G1 X1.8663 Y1.3162 Z0.7274 F2.0000
G1 X1.8827 Y1.3162 Z0.7268 F2.0000
G1 X1.8990 Y1.3177 Z0.7262 F2.0000
G1 X1.9151 Y1.3206 Z0.7256 F2.0000
G1 X1.9309 Y1.3249 Z0.7250 F2.0000
G1 X1.9462 Y1.3306 Z0.7244 F2.0000
G1 X1.9609 Y1.3377 Z0.7238 F2.0000
G1 X1.9750 Y1.3460 Z0.7232 F2.0000
G1 X1.9883 Y1.3555 Z0.7226 F2.0000
G1 X2.0006 Y1.3662 Z0.7220 F2.0000
G1 X2.0120 Y1.3779 Z0.7215 F2.0000
G1 X2.0223 Y1.3906 Z0.7209 F2.0000
G1 X2.0313 Y1.4042 Z0.7203 F2.0000
G1 X2.0392 Y1.4185 Z0.7197 F2.0000
G1 X2.0457 Y1.4334 Z0.7191 F2.0000
G1 X2.0509 Y1.4489 Z0.7185 F2.0000
G1 X2.0547 Y1.4647 Z0.7179 F2.0000
G1 X2.0571 Y1.4809 Z0.7173 F2.0000
G1 X2.0580 Y1.4971 Z0.7167 F2.0000
G1 X2.0575 Y1.5134 Z0.7161 F2.0000
G1 X2.0556 Y1.5296 Z0.7156 F2.0000
G1 X2.0522 Y1.5455 Z0.7150 F2.0000
G1 X2.0474 Y1.5610 Z0.7144 F2.0000
G1 X2.0412 Y1.5761 Z0.7138 F2.0000
G1 X2.0337 Y1.5905 Z0.7132 F2.0000
G1 X2.0250 Y1.6043 Z0.7126 F2.0000
G1 X2.0151 Y1.6172 Z0.7120 F2.0000
G1 X2.0041 Y1.6291 Z0.7114 F2.0000
G1 X1.9921 Y1.6400 Z0.7108 F2.0000
G1 X1.9792 Y1.6499 Z0.7102 F2.0000
G1 X1.9654 Y1.6585 Z0.7096 F2.0000
G1 X1.9509 Y1.6658 Z0.7091 F2.0000
G1 X1.9359 Y1.6719 Z0.7085 F2.0000
G1 X1.9203 Y1.6766 Z0.7079 F2.0000
G1 X1.9044 Y1.6798 Z0.7073 F2.0000
G1 X1.8883 Y1.6817 Z0.7067 F2.0000
G1 X1.8721 Y1.6821 Z0.7061 F2.0000
G1 X1.8560 Y1.6811 Z0.7055 F2.0000
G1 X1.8400 Y1.6786 Z0.7049 F2.0000
G1 X1.8242 Y1.6748 Z0.7043 F2.0000
G1 X1.8089 Y1.6695 Z0.7037 F2.0000
G1 X1.7941 Y1.6629 Z0.7031 F2.0000
G1 X1.7800 Y1.6550 Z0.7026 F2.0000
G1 X1.7666 Y1.6459 Z0.7020 F2.0000
G1 X1.7541 Y1.6357 Z0.7014 F2.0000
G1 X1.7426 Y1.6244 Z0.7008 F2.0000
G1 X1.7321 Y1.6121 Z0.7002 F2.0000
G1 X1.7227 Y1.5989 Z0.6996 F2.0000
G1 X1.7146 Y1.5849 Z0.6990 F2.0000
G1 X1.7077 Y1.5703 Z0.6984 F2.0000
G1 X1.7022 Y1.5552 Z0.6978 F2.0000
G1 X1.6980 Y1.5396 Z0.6972 F2.0000
G1 X1.6952 Y1.5237 Z0.6967 F2.0000
G1 X1.6939 Y1.5076 Z0.6961 F2.0000
G1 X1.6940 Y1.4915 Z0.6955 F2.0000
G1 X1.6955 Y1.4754 Z0.6949 F2.0000
G1 X1.6985 Y1.4596 Z0.6943 F2.0000
G1 X1.7028 Y1.4441 Z0.6937 F2.0000
G1 X1.7085 Y1.4290 Z0.6931 F2.0000
G1 X1.7155 Y1.4145 Z0.6925 F2.0000
G1 X1.7238 Y1.4007 Z0.6919 F2.0000
G1 X1.7333 Y1.3877 Z0.6913 F2.0000
G1 X1.7439 Y1.3756 Z0.6907 F2.0000
G1 X1.7555 Y1.3644 Z0.6902 F2.0000
G1 X1.7680 Y1.3544 Z0.6896 F2.0000
G1 X1.7814 Y1.3455 Z0.6890 F2.0000
G1 X1.7956 Y1.3378 Z0.6884 F2.0000
G1 X1.8103 Y1.3315 Z0.6878 F2.0000
G1 X1.8256 Y1.3264 Z0.6872 F2.0000
G1 X1.8412 Y1.3228 Z0.6866 F2.0000
G1 X1.8571 Y1.3205 Z0.6860 F2.0000
G1 X1.8731 Y1.3197 Z0.6854 F2.0000
G1 X1.8891 Y1.3203 Z0.6848 F2.0000
G1 X1.9051 Y1.3223 Z0.6843 F2.0000
G1 X1.9207 Y1.3257 Z0.6837 F2.0000
G1 X1.9360 Y1.3305 Z0.6831 F2.0000
G1 X1.9508 Y1.3367 Z0.6825 F2.0000
G1 X1.9650 Y1.3441 Z0.6819 F2.0000
G1 X1.9785 Y1.3528 Z0.6813 F2.0000
G1 X1.9911 Y1.3626 Z0.6807 F2.0000
G1 X2.0028 Y1.3735 Z0.6801 F2.0000
G1 X2.0135 Y1.3854 Z0.6795 F2.0000
G1 X2.0231 Y1.3982 Z0.6789 F2.0000
G1 X2.0316 Y1.4118 Z0.6783 F2.0000
G1 X2.0387 Y1.4261 Z0.6778 F2.0000
G1 X2.0446 Y1.4409 Z0.6772 F2.0000
G1 X2.0491 Y1.4563 Z0.6766 F2.0000
G1 X2.0523 Y1.4719 Z0.6760 F2.0000
G1 X2.0540 Y1.4878 Z0.6754 F2.0000
G1 X2.0544 Y1.5038 Z0.6748 F2.0000
G1 X2.0533 Y1.5197 Z0.6742 F2.0000
G1 X2.0508 Y1.5354 Z0.6736 F2.0000
G1 X2.0469 Y1.5509 Z0.6730 F2.0000
G1 X2.0416 Y1.5660 Z0.6724 F2.0000
G1 X2.0350 Y1.5805 Z0.6719 F2.0000
G1 X2.0272 Y1.5944 Z0.6713 F2.0000
G1 X2.0182 Y1.6075 Z0.6707 F2.0000
G1 X2.0080 Y1.6198 Z0.6701 F2.0000
G1 X1.9968 Y1.6311 Z0.6695 F2.0000
G1 X1.9846 Y1.6413 Z0.6689 F2.0000
G1 X1.9716 Y1.6505 Z0.6683 F2.0000
G1 X1.9578 Y1.6584 Z0.6677 F2.0000
G1 X1.9434 Y1.6651 Z0.6671 F2.0000
G1 X1.9284 Y1.6705 Z0.6665 F2.0000
G1 X1.9131 Y1.6745 Z0.6659 F2.0000
G1 X1.8974 Y1.6772 Z0.6654 F2.0000
G1 X1.8815 Y1.6784 Z0.6648 F2.0000
G1 X1.8657 Y1.6782 Z0.6642 F2.0000
G1 X1.8499 Y1.6766 Z0.6636 F2.0000
G1 X1.8343 Y1.6736 Z0.6630 F2.0000
G1 X1.8190 Y1.6693 Z0.6624 F2.0000
G1 X1.8042 Y1.6636 Z0.6618 F2.0000
G1 X1.7900 Y1.6566 Z0.6612 F2.0000
G1 X1.7764 Y1.6484 Z0.6606 F2.0000
G1 X1.7636 Y1.6390 Z0.6600 F2.0000
G1 X1.7518 Y1.6285 Z0.6594 F2.0000
G1 X1.7409 Y1.6170 Z0.6589 F2.0000
G1 X1.7310 Y1.6046 Z0.6583 F2.0000
G1 X1.7224 Y1.5914 Z0.6577 F2.0000
G1 X1.7149 Y1.5774 Z0.6571 F2.0000
G1 X1.7087 Y1.5628 Z0.6565 F2.0000
G1 X1.7038 Y1.5478 Z0.6559 F2.0000
G1 X1.7003 Y1.5324 Z0.6553 F2.0000
G1 X1.6982 Y1.5167 Z0.6547 F2.0000
G1 X1.6974 Y1.5009 Z0.6541 F2.0000
G1 X1.6981 Y1.4851 Z0.6535 F2.0000
G1 X1.7002 Y1.4695 Z0.6530 F2.0000
G1 X1.7036 Y1.4541 Z0.6524 F2.0000
G1 X1.7084 Y1.4390 Z0.6518 F2.0000
G1 X1.7146 Y1.4245 Z0.6512 F2.0000
G1 X1.7219 Y1.4106 Z0.6506 F2.0000
G1 X1.7305 Y1.3973 Z0.6500 F2.0000
G1 X1.7403 Y1.3849 Z0.6494 F2.0000
G1 X1.7511 Y1.3735 Z0.6488 F2.0000
G1 X1.7628 Y1.3630 Z0.6482 F2.0000
G1 X1.7755 Y1.3536 Z0.6476 F2.0000
G1 X1.7889 Y1.3454 Z0.6470 F2.0000
G1 X1.8030 Y1.3384 Z0.6465 F2.0000
G1 X1.8177 Y1.3327 Z0.6459 F2.0000
G1 X1.8328 Y1.3283 Z0.6453 F2.0000
G1 X1.8483 Y1.3253 Z0.6447 F2.0000
G1 X1.8639 Y1.3236 Z0.6441 F2.0000
G1 X1.8796 Y1.3234 Z0.6435 F2.0000
G1 X1.8953 Y1.3246 Z0.6429 F2.0000
G1 X1.9108 Y1.3271 Z0.6423 F2.0000
G1 X1.9260 Y1.3310 Z0.6417 F2.0000
G1 X1.9408 Y1.3363 Z0.6411 F2.0000
G1 X1.9551 Y1.3428 Z0.6406 F2.0000
G1 X1.9687 Y1.3506 Z0.6400 F2.0000
G1 X1.9816 Y1.3596 Z0.6394 F2.0000
G1 X1.9936 Y1.3696 Z0.6388 F2.0000
G1 X2.0047 Y1.3807 Z0.6382 F2.0000
G1 X2.0147 Y1.3928 Z0.6376 F2.0000
G1 X2.0237 Y1.4056 Z0.6370 F2.0000
G1 X2.0314 Y1.4193 Z0.6364 F2.0000
G1 X2.0379 Y1.4335 Z0.6358 F2.0000
G1 X2.0432 Y1.4483 Z0.6352 F2.0000
G1 X2.0470 Y1.4634 Z0.6346 F2.0000
G1 X2.0496 Y1.4789 Z0.6341 F2.0000
G1 X2.0507 Y1.4945 Z0.6335 F2.0000
G1 X2.0504 Y1.5101 Z0.6329 F2.0000
G1 X2.0488 Y1.5257 Z0.6323 F2.0000
G1 X2.0458 Y1.5410 Z0.6317 F2.0000
G1 X2.0414 Y1.5560 Z0.6311 F2.0000
G1 X2.0357 Y1.5705 Z0.6305 F2.0000
G1 X2.0288 Y1.5845 Z0.6299 F2.0000
G1 X2.0206 Y1.5978 Z0.6293 F2.0000
G1 X2.0113 Y1.6104 Z0.6287 F2.0000
G1 X2.0009 Y1.6220 Z0.6281 F2.0000
G1 X1.9895 Y1.6327 Z0.6276 F2.0000
G1 X1.9772 Y1.6423 Z0.6270 F2.0000
G1 X1.9642 Y1.6508 Z0.6264 F2.0000
G1 X1.9504 Y1.6580 Z0.6258 F2.0000
G1 X1.9360 Y1.6641 Z0.6252 F2.0000
G1 X1.9212 Y1.6688 Z0.6246 F2.0000
G1 X1.9060 Y1.6722 Z0.6240 F2.0000
G1 X1.8905 Y1.6742 Z0.6234 F2.0000
G1 X1.8750 Y1.6748 Z0.6228 F2.0000
G1 X1.8595 Y1.6741 Z0.6222 F2.0000
G1 X1.8441 Y1.6720 Z0.6217 F2.0000
G1 X1.8289 Y1.6685 Z0.6211 F2.0000
G1 X1.8141 Y1.6637 Z0.6205 F2.0000
G1 X1.7998 Y1.6576 Z0.6199 F2.0000
G1 X1.7862 Y1.6502 Z0.6193 F2.0000
G1 X1.7732 Y1.6417 Z0.6187 F2.0000
G1 X1.7610 Y1.6320 Z0.6181 F2.0000
G1 X1.7498 Y1.6214 Z0.6175 F2.0000
G1 X1.7395 Y1.6097 Z0.6169 F2.0000
G1 X1.7303 Y1.5972 Z0.6163 F2.0000
G1 X1.7223 Y1.5839 Z0.6157 F2.0000
G1 X1.7155 Y1.5700 Z0.6152 F2.0000
G1 X1.7100 Y1.5555 Z0.6146 F2.0000
G1 X1.7057 Y1.5406 Z0.6140 F2.0000
G1 X1.7028 Y1.5254 Z0.6134 F2.0000
G1 X1.7013 Y1.5100 Z0.6128 F2.0000
G1 X1.7012 Y1.4945 Z0.6122 F2.0000
G1 X1.7024 Y1.4791 Z0.6116 F2.0000
G1 X1.7050 Y1.4639 Z0.6110 F2.0000
G1 X1.7089 Y1.4489 Z0.6104 F2.0000
G1 X1.7142 Y1.4344 Z0.6098 F2.0000
G1 X1.7207 Y1.4204 Z0.6093 F2.0000
G1 X1.7284 Y1.4070 Z0.6087 F2.0000
G1 X1.7373 Y1.3943 Z0.6081 F2.0000
G1 X1.7473 Y1.3826 Z0.6075 F2.0000
G1 X1.7583 Y1.3717 Z0.6069 F2.0000
G1 X1.7702 Y1.3619 Z0.6063 F2.0000
G1 X1.7829 Y1.3532 Z0.6057 F2.0000
G1 X1.7963 Y1.3456 Z0.6051 F2.0000
G1 X1.8104 Y1.3393 Z0.6045 F2.0000
G1 X1.8249 Y1.3342 Z0.6039 F2.0000
G1 X1.8399 Y1.3305 Z0.6033 F2.0000
G1 X1.8551 Y1.3281 Z0.6028 F2.0000
G1 X1.8705 Y1.3270 Z0.6022 F2.0000
G1 X1.8859 Y1.3274 Z0.6016 F2.0000
G1 X1.9012 Y1.3291 Z0.6010 F2.0000
G1 X1.9162 Y1.3321 Z0.6004 F2.0000
G1 X1.9310 Y1.3365 Z0.5998 F2.0000
G1 X1.9453 Y1.3422 Z0.5992 F2.0000
G1 X1.9590 Y1.3491 Z0.5986 F2.0000
G1 X1.9721 Y1.3572 Z0.5980 F2.0000
G1 X1.9843 Y1.3664 Z0.5974 F2.0000
G1 X1.9957 Y1.3767 Z0.5969 F2.0000
G1 X2.0062 Y1.3880 Z0.5963 F2.0000
G1 X2.0156 Y1.4001 Z0.5957 F2.0000
G1 X2.0239 Y1.4130 Z0.5951 F2.0000
G1 X2.0310 Y1.4266 Z0.5945 F2.0000
G1 X2.0368 Y1.4408 Z0.5939 F2.0000
G1 X2.0414 Y1.4554 Z0.5933 F2.0000
G1 X2.0446 Y1.4704 Z0.5927 F2.0000
G1 X2.0466 Y1.4856 Z0.5921 F2.0000
G1 X2.0471 Y1.5009 Z0.5915 F2.0000
G1 X2.0463 Y1.5162 Z0.5909 F2.0000
G1 X2.0441 Y1.5313 Z0.5904 F2.0000
G1 X2.0406 Y1.5462 Z0.5898 F2.0000
G1 X2.0358 Y1.5608 Z0.5892 F2.0000
G1 X2.0297 Y1.5748 Z0.5886 F2.0000
G1 X2.0224 Y1.5882 Z0.5880 F2.0000
G1 X2.0139 Y1.6009 Z0.5874 F2.0000
G1 X2.0044 Y1.6129 Z0.5868 F2.0000
G1 X1.9938 Y1.6239 Z0.5862 F2.0000
G1 X1.9823 Y1.6339 Z0.5856 F2.0000
G1 X1.9699 Y1.6429 Z0.5850 F2.0000
G1 X1.9568 Y1.6507 Z0.5844 F2.0000
G1 X1.9431 Y1.6573 Z0.5839 F2.0000
G1 X1.9288 Y1.6627 Z0.5833 F2.0000
G1 X1.9141 Y1.6668 Z0.5827 F2.0000
G1 X1.8991 Y1.6696 Z0.5821 F2.0000
G1 X1.8840 Y1.6710 Z0.5815 F2.0000
G1 X1.8687 Y1.6711 Z0.5809 F2.0000
G1 X1.8536 Y1.6698 Z0.5803 F2.0000
G1 X1.8386 Y1.6671 Z0.5797 F2.0000
G1 X1.8239 Y1.6632 Z0.5791 F2.0000
G1 X1.8096 Y1.6580 Z0.5785 F2.0000
G1 X1.7958 Y1.6515 Z0.5780 F2.0000
G1 X1.7827 Y1.6438 Z0.5774 F2.0000
G1 X1.7703 Y1.6350 Z0.5768 F2.0000
G1 X1.7588 Y1.6251 Z0.5762 F2.0000
G1 X1.7481 Y1.6142 Z0.5756 F2.0000
G1 X1.7385 Y1.6025 Z0.5750 F2.0000
G1 X1.7300 Y1.5899 Z0.5744 F2.0000
G1 X1.7226 Y1.5766 Z0.5738 F2.0000
G1 X1.7165 Y1.5628 Z0.5732 F2.0000
G1 X1.7116 Y1.5484 Z0.5726 F2.0000
G1 X1.7080 Y1.5337 Z0.5720 F2.0000
G1 X1.7057 Y1.5187 Z0.5715 F2.0000
G1 X1.7047 Y1.5036 Z0.5709 F2.0000
G1 X1.7051 Y1.4884 Z0.5703 F2.0000
G1 X1.7069 Y1.4734 Z0.5697 F2.0000
G1 X1.7100 Y1.4586 Z0.5691 F2.0000
G1 X1.7144 Y1.4441 Z0.5685 F2.0000
G1 X1.7200 Y1.4300 Z0.5679 F2.0000
G1 X1.7269 Y1.4166 Z0.5673 F2.0000
G1 X1.7349 Y1.4037 Z0.5667 F2.0000
G1 X1.7441 Y1.3917 Z0.5661 F2.0000
G1 X1.7543 Y1.3805 Z0.5656 F2.0000
G1 X1.7654 Y1.3703 Z0.5650 F2.0000
G1 X1.7774 Y1.3611 Z0.5644 F2.0000
G1 X1.7902 Y1.3531 Z0.5638 F2.0000
G1 X1.8036 Y1.3461 Z0.5632 F2.0000
G1 X1.8176 Y1.3404 Z0.5626 F2.0000
G1 X1.8320 Y1.3360 Z0.5620 F2.0000
G1 X1.8467 Y1.3329 Z0.5614 F2.0000
G1 X1.8617 Y1.3311 Z0.5608 F2.0000
G1 X1.8768 Y1.3306 Z0.5602 F2.0000
G1 X1.8918 Y1.3315 Z0.5596 F2.0000
G1 X1.9067 Y1.3337 Z0.5591 F2.0000
G1 X1.9214 Y1.3373 Z0.5585 F2.0000
G1 X1.9356 Y1.3421 Z0.5579 F2.0000
G1 X1.9494 Y1.3481 Z0.5573 F2.0000
G1 X1.9626 Y1.3554 Z0.5567 F2.0000
G1 X1.9751 Y1.3638 Z0.5561 F2.0000
G1 X1.9867 Y1.3733 Z0.5555 F2.0000
G1 X1.9975 Y1.3837 Z0.5549 F2.0000
G1 X2.0073 Y1.3951 Z0.5543 F2.0000
G1 X2.0161 Y1.4073 Z0.5537 F2.0000
G1 X2.0237 Y1.4203 Z0.5531 F2.0000
G1 X2.0302 Y1.4338 Z0.5526 F2.0000
G1 X2.0354 Y1.4479 Z0.5520 F2.0000
G1 X2.0393 Y1.4624 Z0.5514 F2.0000
G1 X2.0420 Y1.4771 Z0.5508 F2.0000
G1 X2.0433 Y1.4921 Z0.5502 F2.0000
G1 X2.0433 Y1.5071 Z0.5496 F2.0000
G1 X2.0419 Y1.5220 Z0.5490 F2.0000
G1 X2.0393 Y1.5367 Z0.5484 F2.0000
G1 X2.0353 Y1.5512 Z0.5478 F2.0000
G1 X2.0301 Y1.5652 Z0.5472 F2.0000
G1 X2.0236 Y1.5787 Z0.5467 F2.0000
G1 X2.0160 Y1.5916 Z0.5461 F2.0000
G1 X2.0073 Y1.6037 Z0.5455 F2.0000
G1 X1.9975 Y1.6150 Z0.5449 F2.0000
G1 X1.9867 Y1.6254 Z0.5443 F2.0000
G1 X1.9751 Y1.6348 Z0.5437 F2.0000
G1 X1.9627 Y1.6431 Z0.5431 F2.0000
G1 X1.9496 Y1.6503 Z0.5425 F2.0000
G1 X1.9359 Y1.6563 Z0.5419 F2.0000
G1 X1.9218 Y1.6611 Z0.5413 F2.0000
G1 X1.9073 Y1.6645 Z0.5407 F2.0000
G1 X1.8925 Y1.6667 Z0.5402 F2.0000
G1 X1.8776 Y1.6675 Z0.5396 F2.0000
G1 X1.8627 Y1.6671 Z0.5390 F2.0000
G1 X1.8479 Y1.6653 Z0.5384 F2.0000
G1 X1.8334 Y1.6621 Z0.5378 F2.0000
G1 X1.8191 Y1.6578 Z0.5372 F2.0000
G1 X1.8054 Y1.6521 Z0.5366 F2.0000
G1 X1.7921 Y1.6453 Z0.5360 F2.0000
G1 X1.7796 Y1.6373 Z0.5354 F2.0000
G1 X1.7678 Y1.6282 Z0.5348 F2.0000
G1 X1.7568 Y1.6182 Z0.5343 F2.0000
G1 X1.7468 Y1.6072 Z0.5337 F2.0000
G1 X1.7379 Y1.5953 Z0.5331 F2.0000
G1 X1.7300 Y1.5827 Z0.5325 F2.0000
G1 X1.7233 Y1.5695 Z0.5319 F2.0000
G1 X1.7177 Y1.5557 Z0.5313 F2.0000
G1 X1.7135 Y1.5415 Z0.5307 F2.0000
G1 X1.7105 Y1.5269 Z0.5301 F2.0000
G1 X1.7088 Y1.5122 Z0.5295 F2.0000
G1 X1.7084 Y1.4974 Z0.5289 F2.0000
G1 X1.7093 Y1.4826 Z0.5283 F2.0000
G1 X1.7116 Y1.4679 Z0.5278 F2.0000
G1 X1.7151 Y1.4536 Z0.5272 F2.0000
G1 X1.7199 Y1.4395 Z0.5266 F2.0000
G1 X1.7260 Y1.4260 Z0.5260 F2.0000
G1 X1.7332 Y1.4131 Z0.5254 F2.0000
G1 X1.7415 Y1.4009 Z0.5248 F2.0000
G1 X1.7509 Y1.3894 Z0.5242 F2.0000
G1 X1.7613 Y1.3789 Z0.5236 F2.0000
G1 X1.7725 Y1.3693 Z0.5230 F2.0000
G1 X1.7846 Y1.3607 Z0.5224 F2.0000
G1 X1.7973 Y1.3533 Z0.5219 F2.0000
G1 X1.8107 Y1.3470 Z0.5213 F2.0000
G1 X1.8246 Y1.3419 Z0.5207 F2.0000
G1 X1.8388 Y1.3381 Z0.5201 F2.0000
G1 X1.8534 Y1.3356 Z0.5195 F2.0000
G1 X1.8681 Y1.3344 Z0.5189 F2.0000
G1 X1.8828 Y1.3345 Z0.5183 F2.0000
G1 X1.8975 Y1.3359 Z0.5177 F2.0000
G1 X1.9120 Y1.3386 Z0.5171 F2.0000
G1 X1.9262 Y1.3426 Z0.5165 F2.0000
G1 X1.9399 Y1.3478 Z0.5159 F2.0000
G1 X1.9532 Y1.3542 Z0.5154 F2.0000
G1 X1.9658 Y1.3618 Z0.5148 F2.0000
G1 X1.9777 Y1.3704 Z0.5142 F2.0000
G1 X1.9888 Y1.3801 Z0.5136 F2.0000
G1 X1.9989 Y1.3907 Z0.5130 F2.0000
G1 X2.0081 Y1.4022 Z0.5124 F2.0000
G1 X2.0162 Y1.4145 Z0.5118 F2.0000
G1 X2.0232 Y1.4274 Z0.5112 F2.0000
G1 X2.0291 Y1.4409 Z0.5106 F2.0000
G1 X2.0337 Y1.4548 Z0.5100 F2.0000
G1 X2.0370 Y1.4691 Z0.5094 F2.0000
G1 X2.0391 Y1.4836 Z0.5089 F2.0000
G1 X2.0398 Y1.4983 Z0.5083 F2.0000
G1 X2.0393 Y1.5129 Z0.5077 F2.0000
G1 X2.0374 Y1.5275 Z0.5071 F2.0000
G1 X2.0343 Y1.5418 Z0.5065 F2.0000
G1 X2.0299 Y1.5558 Z0.5059 F2.0000
G1 X2.0243 Y1.5693 Z0.5053 F2.0000
G1 X2.0175 Y1.5823 Z0.5047 F2.0000
G1 X2.0096 Y1.5946 Z0.5041 F2.0000
G1 X2.0006 Y1.6061 Z0.5035 F2.0000
G1 X1.9906 Y1.6168 Z0.5030 F2.0000
G1 X1.9797 Y1.6266 Z0.5024 F2.0000
G1 X1.9680 Y1.6354 Z0.5018 F2.0000
G1 X1.9556 Y1.6431 Z0.5012 F2.0000
G1 X1.9426 Y1.6496 Z0.5006 F2.0000
G3 X1.8074 Y1.3504 Z0.5000 I-0.0676 J-0.1496 F20.0000
G3 X1.9426 Y1.6496 Z0.5000 I0.0676 J0.1496 F20.0000
(Adaptive - depth: 12.700000)
G1 X1.8750 Y1.3177 F20.0000
G1 X1.8777 Y1.3147 F20.0000
G1 X1.8797 Y1.3113 F20.0000
G1 X1.8802 Y1.3073 F20.0000
G1 X1.8834 Y1.3000 F20.0000
G1 X1.8907 Y1.2908 F20.0000
G1 X1.9038 Y1.2817 F20.0000
G1 X1.9326 Y1.2692 F20.0000
G1 X1.9577 Y1.2645 F20.0000
G1 X1.9793 Y1.2640 F20.0000
G1 X1.9973 Y1.2655 F20.0000
G1 X2.0212 Y1.2719 F20.0000
G1 X2.0364 Y1.2771 F20.0000
G1 X2.0536 Y1.2849 F20.0000
G1 X2.0701 Y1.2950 F20.0000
G1 X2.0846 Y1.3059 F20.0000
G1 X2.0992 Y1.3179 F20.0000
G1 X2.1169 Y1.3369 F20.0000
G1 X2.1294 Y1.3529 F20.0000
G1 X2.1412 Y1.3706 F20.0000
G1 X2.1516 Y1.3903 F20.0000
G1 X2.1597 Y1.4099 F20.0000
G1 X2.1663 Y1.4304 F20.0000
G1 X2.1722 Y1.4513 F20.0000
G1 X2.1777 Y1.4823 F20.0000
G1 X2.1801 Y1.5066 F20.0000
G1 X2.1794 Y1.5322 F20.0000
G1 X2.1777 Y1.5509 F20.0000
G1 X2.1735 Y1.5731 F20.0000
G1 X2.1673 Y1.5942 F20.0000
G1 X2.1513 Y1.6341 F20.0000
G1 X2.1361 Y1.6617 F20.0000
G1 X2.1228 Y1.6826 F20.0000
G1 X2.1073 Y1.7037 F20.0000
G1 X2.0888 Y1.7249 F20.0000
G1 X2.0689 Y1.7421 F20.0000
G1 X2.0549 Y1.7530 F20.0000
G1 X2.0352 Y1.7653 F20.0000
G1 X1.9751 Y1.7879 F20.0000
G1 X1.9082 Y1.7992 F20.0000
G1 X1.8452 Y1.8012 F20.0000
G1 X1.7822 Y1.7938 F20.0000
G1 X1.7586 Y1.7869 F20.0000
G1 X1.7217 Y1.7689 F20.0000
G1 X1.7114 Y1.7623 F20.0000
G1 X1.6604 Y1.7247 F20.0000
G1 X1.6383 Y1.7020 F20.0000
G1 X1.6134 Y1.6700 F20.0000
G1 X1.6004 Y1.6469 F20.0000
G1 X1.5913 Y1.6270 F20.0000
G1 X1.5755 Y1.5844 F20.0000
G1 X1.5682 Y1.5536 F20.0000
G1 X1.5632 Y1.5271 F20.0000
G1 X1.5620 Y1.4980 F20.0000
G1 X1.5623 Y1.4796 F20.0000
G1 X1.5647 Y1.4557 F20.0000
G1 X1.5694 Y1.4333 F20.0000
G1 X1.5819 Y1.3910 F20.0000
G1 X1.5945 Y1.3620 F20.0000
G1 X1.6061 Y1.3388 F20.0000
G1 X1.6213 Y1.3155 F20.0000
G1 X1.6339 Y1.2987 F20.0000
G1 X1.6501 Y1.2803 F20.0000
G1 X1.6676 Y1.2638 F20.0000
G1 X1.6838 Y1.2473 F20.0000
G1 X1.7242 Y1.2099 F20.0000
G1 X1.7343 Y1.2037 F20.0000
G1 X1.7495 Y1.1917 F20.0000
G1 X2.1001 Y1.1934 F20.0000
G1 X2.1481 Y1.2030 F20.0000
G1 X2.1690 Y1.2121 F20.0000
G1 X2.2018 Y1.2367 F20.0000
G1 X2.2266 Y1.2616 F20.0000
G1 X2.2461 Y1.2862 F20.0000
G1 X2.2628 Y1.3115 F20.0000
G1 X2.2749 Y1.3329 F20.0000
G1 X2.2847 Y1.3541 F20.0000
G1 X2.3017 Y1.4013 F20.0000
G1 X2.3091 Y1.4318 F20.0000
G1 X2.3142 Y1.4604 F20.0000
G1 X2.3182 Y1.4902 F20.0000
G1 X2.3199 Y1.5214 F20.0000
G1 X2.3196 Y1.5517 F20.0000
G1 X2.3155 Y1.5822 F20.0000
G1 X2.3118 Y1.6014 F20.0000
G1 X2.2980 Y1.6503 F20.0000
G1 X2.2864 Y1.6796 F20.0000
G1 X2.2739 Y1.7067 F20.0000
G1 X2.2596 Y1.7345 F20.0000
G1 X2.2431 Y1.7613 F20.0000
G1 X2.2251 Y1.7872 F20.0000
G1 X2.2126 Y1.7968 F20.0000
G1 X2.1951 Y1.8063 F20.0000
G1 X2.1914 Y1.8078 F20.0000
G1 X1.6521 Y1.8068 F20.0000
G1 X1.6245 Y1.8029 F20.0000
G1 X1.5893 Y1.7918 F20.0000
G1 X1.5819 Y1.7884 F20.0000
G1 X1.5581 Y1.7726 F20.0000
G1 X1.5453 Y1.7623 F20.0000
G1 X1.5221 Y1.7406 F20.0000
G1 X1.5015 Y1.7165 F20.0000
G1 X1.4862 Y1.6956 F20.0000
G1 X1.4729 Y1.6759 F20.0000
G1 X1.4587 Y1.6494 F20.0000
G1 X1.4478 Y1.6252 F20.0000
G1 X1.4385 Y1.6004 F20.0000
G1 X1.4309 Y1.5738 F20.0000
G1 X1.4252 Y1.5475 F20.0000
G1 X1.4215 Y1.5209 F20.0000
G1 X1.4198 Y1.4938 F20.0000
G1 X1.4200 Y1.4670 F20.0000
G1 X1.4222 Y1.4402 F20.0000
G1 X1.4264 Y1.4136 F20.0000
G1 X1.4323 Y1.3873 F20.0000
G1 X1.4483 Y1.3359 F20.0000
G1 X1.4606 Y1.3068 F20.0000
G1 X1.4744 Y1.2785 F20.0000
G1 X1.4894 Y1.2507 F20.0000
G1 X1.5172 Y1.2074 F20.0000
G1 X1.5258 Y1.1993 F20.0000
G1 X1.5354 Y1.1929 F20.0000
G1 X1.5391 Y1.1917 F20.0000
G1 X1.5650 Y1.1917 F20.0000
G1 X1.5650 Y1.1917 F20.0000
G1 X1.5672 Y1.1922 F20.0000
G1 X1.5667 Y1.1927 F20.0000
G1 X1.5652 Y1.1924 F20.0000
G1 X1.5699 Y1.1914 F20.0000
G1 X1.5699 Y1.1914 F20.0000
G1 X1.6179 Y1.1917 F20.0000
G1 X1.6179 Y1.1917 F20.0000
G1 X1.6358 Y1.1934 F20.0000
G1 X1.6447 Y1.1954 F20.0000
G1 X1.6533 Y1.1981 F20.0000
G1 X1.6617 Y1.2015 F20.0000
G1 X1.6695 Y1.2057 F20.0000
G1 X1.6774 Y1.2106 F20.0000
G0 X1.6850 Y1.2160
G0 X1.7522 Y1.2724
G0 X1.7603 Y1.2773
G0 X1.7687 Y1.2810
G0 X1.7778 Y1.2830
G0 X1.7968 Y1.2847
G0 X1.9537 Y1.2844
G0 X1.9633 Y1.2840
G0 X1.9727 Y1.2827
G0 X1.9818 Y1.2798
G0 X1.9904 Y1.2758
G0 X2.0071 Y1.2653
G0 X2.0234 Y1.2534
G1 X2.0312 Y1.2475 F20.0000
G1 X2.0755 Y1.2138 F20.0000
G1 X2.0913 Y1.2045 F20.0000
G1 X2.0997 Y1.2005 F20.0000
G1 X2.1083 Y1.1976 F20.0000
G1 X2.1351 Y1.1917 F20.0000
G1 X2.1351 Y1.1917 F20.0000
G1 X2.2606 Y1.1934 F20.0000
G1 X2.2975 Y1.2003 F20.0000
G1 X2.3187 Y1.2087 F20.0000
G1 X2.3312 Y1.2168 F20.0000
G1 X2.3561 Y1.2399 F20.0000
G1 X2.3762 Y1.2638 F20.0000
G1 X2.4075 Y1.3093 F20.0000
G1 X2.4227 Y1.3366 F20.0000
G1 X2.4360 Y1.3647 F20.0000
G1 X2.4454 Y1.3927 F20.0000
G1 X2.4510 Y1.4126 F20.0000
G1 X2.4604 Y1.4633 F20.0000
G1 X2.4631 Y1.4946 F20.0000
G1 X2.4638 Y1.5249 F20.0000
G1 X2.4633 Y1.5561 F20.0000
G1 X2.4606 Y1.5874 F20.0000
G1 X2.4562 Y1.6184 F20.0000
G1 X2.4500 Y1.6491 F20.0000
G1 X2.4419 Y1.6794 F20.0000
G1 X2.4321 Y1.7092 F20.0000
G1 X2.4205 Y1.7384 F20.0000
G1 X2.4013 Y1.7773 F20.0000
G1 X2.3898 Y1.7928 F20.0000
G1 X2.3716 Y1.8073 F20.0000
G1 X2.3676 Y1.8083 F20.0000
G1 X2.2692 Y1.8083 F20.0000
G1 X2.2692 Y1.8083 F20.0000
G1 X2.2507 Y1.8061 F20.0000
G1 X2.2416 Y1.8041 F20.0000
G1 X2.2330 Y1.8012 F20.0000
G1 X2.2247 Y1.7977 F20.0000
G1 X2.2173 Y1.7931 F20.0000
G1 X2.2111 Y1.7874 F20.0000
G0 X2.2069 Y1.7808
G0 X2.2045 Y1.7731
G0 X2.2035 Y1.7648
G0 X2.2030 Y1.7473
G0 X2.2288 Y1.2749
G1 X2.2296 Y1.2635 F20.0000
G1 X2.2315 Y1.2419 F20.0000
G1 X2.2335 Y1.2320 F20.0000
G1 X2.2372 Y1.2234 F20.0000
G1 X2.2424 Y1.2163 F20.0000
G1 X2.2488 Y1.2101 F20.0000
G1 X2.2562 Y1.2050 F20.0000
G1 X2.2640 Y1.2008 F20.0000
G1 X2.2724 Y1.1976 F20.0000
G1 X2.2992 Y1.1917 F20.0000
G1 X2.2992 Y1.1917 F20.0000
G1 X2.4026 Y1.1932 F20.0000
G1 X2.4432 Y1.2008 F20.0000
G1 X2.4574 Y1.2060 F20.0000
G1 X2.4675 Y1.2111 F20.0000
G1 X2.4938 Y1.2323 F20.0000
G1 X2.5207 Y1.2606 F20.0000
G1 X2.5389 Y1.2862 F20.0000
G1 X2.5632 Y1.3278 F20.0000
G1 X2.5758 Y1.3565 F20.0000
G1 X2.5846 Y1.3814 F20.0000
G1 X2.5923 Y1.4070 F20.0000
G1 X2.6036 Y1.4614 F20.0000
G1 X2.6073 Y1.4926 F20.0000
G1 X2.6093 Y1.5239 F20.0000
G1 X2.6102 Y1.5551 F20.0000
G1 X2.6090 Y1.5864 F20.0000
G1 X2.6063 Y1.6176 F20.0000
G1 X2.6021 Y1.6486 F20.0000
G1 X2.5962 Y1.6794 F20.0000
G1 X2.5886 Y1.7099 F20.0000
G1 X2.5795 Y1.7399 F20.0000
G1 X2.5687 Y1.7694 F20.0000
G1 X2.5593 Y1.7867 F20.0000
G1 X2.5492 Y1.7985 F20.0000
G1 X2.5401 Y1.8059 F20.0000
G1 X2.5367 Y1.8078 F20.0000
G1 X2.4461 Y1.8083 F20.0000
G1 X2.4461 Y1.8083 F20.0000
G1 X2.4277 Y1.8061 F20.0000
G1 X2.4186 Y1.8041 F20.0000
G1 X2.4099 Y1.8012 F20.0000
G1 X2.4016 Y1.7977 F20.0000
G1 X2.3939 Y1.7931 F20.0000
G1 X2.3878 Y1.7874 F20.0000
G0 X2.3834 Y1.7805
G0 X2.3804 Y1.7729
G0 X2.3784 Y1.7645
G0 X2.3767 Y1.7466
G0 X2.3615 Y1.2751
G1 X2.3612 Y1.2638 F20.0000
G1 X2.3612 Y1.2421 F20.0000
G1 X2.3627 Y1.2323 F20.0000
G1 X2.3656 Y1.2234 F20.0000
G1 X2.3706 Y1.2163 F20.0000
G1 X2.3767 Y1.2101 F20.0000
G1 X2.3839 Y1.2050 F20.0000
G1 X2.3917 Y1.2008 F20.0000
G1 X2.4001 Y1.1976 F20.0000
G1 X2.4269 Y1.1917 F20.0000
G1 X2.4269 Y1.1917 F20.0000
G1 X2.5487 Y1.1932 F20.0000
G1 X2.5856 Y1.2000 F20.0000
G1 X2.6102 Y1.2101 F20.0000
G1 X2.6282 Y1.2237 F20.0000
G1 X2.6444 Y1.2394 F20.0000
G1 X2.6646 Y1.2633 F20.0000
G1 X2.6828 Y1.2889 F20.0000
G1 X2.6961 Y1.3108 F20.0000
G1 X2.7069 Y1.3317 F20.0000
G1 X2.7274 Y1.3807 F20.0000
G1 X2.7367 Y1.4107 F20.0000
G1 X2.7443 Y1.4412 F20.0000
G1 X2.7507 Y1.4719 F20.0000
G1 X2.7549 Y1.5030 F20.0000
G1 X2.7576 Y1.5342 F20.0000
G1 X2.7586 Y1.5655 F20.0000
G1 X2.7566 Y1.6280 F20.0000
G1 X2.7534 Y1.6592 F20.0000
G1 X2.7490 Y1.6902 F20.0000
G1 X2.7436 Y1.7212 F20.0000
G1 X2.7347 Y1.7515 F20.0000
G1 X2.7229 Y1.7808 F20.0000
G1 X2.7148 Y1.7943 F20.0000
G1 X2.6996 Y1.8068 F20.0000
G1 X2.6959 Y1.8083 F20.0000
G1 X2.6132 Y1.8083 F20.0000
G1 X2.6132 Y1.8083 F20.0000
G1 X2.5947 Y1.8061 F20.0000
G1 X2.5856 Y1.8041 F20.0000
G1 X2.5770 Y1.8012 F20.0000
G1 X2.5687 Y1.7977 F20.0000
G1 X2.5610 Y1.7931 F20.0000
G1 X2.5549 Y1.7874 F20.0000
G0 X2.5502 Y1.7808
G0 X2.5470 Y1.7731
G0 X2.5448 Y1.7648
G0 X2.5426 Y1.7473
G0 X2.5094 Y1.2749
G1 X2.5086 Y1.2635 F20.0000
G1 X2.5079 Y1.2419 F20.0000
G1 X2.5091 Y1.2320 F20.0000
G1 X2.5121 Y1.2234 F20.0000
G1 X2.5167 Y1.2163 F20.0000
G1 X2.5226 Y1.2101 F20.0000
G1 X2.5298 Y1.2050 F20.0000
G1 X2.5376 Y1.2008 F20.0000
G1 X2.5460 Y1.1976 F20.0000
G1 X2.5728 Y1.1917 F20.0000
G1 X2.5728 Y1.1917 F20.0000
G1 X2.6909 Y1.1932 F20.0000
G1 X2.7315 Y1.2010 F20.0000
G1 X2.7525 Y1.2099 F20.0000
G1 X2.7704 Y1.2237 F20.0000
G1 X2.7867 Y1.2397 F20.0000
G1 X2.8081 Y1.2625 F20.0000
G1 X2.8265 Y1.2879 F20.0000
G1 X2.8538 Y1.3332 F20.0000
G1 X2.8671 Y1.3615 F20.0000
G1 X2.8777 Y1.3885 F20.0000
G1 X2.8871 Y1.4161 F20.0000
G1 X2.8947 Y1.4466 F20.0000
G1 X2.9001 Y1.4759 F20.0000
G1 X2.9080 Y1.5359 F20.0000
G1 X2.9094 Y1.5672 F20.0000
G1 X2.9097 Y1.5984 F20.0000
G1 X2.9092 Y1.6297 F20.0000
G1 X2.9067 Y1.6609 F20.0000
G1 X2.9031 Y1.6922 F20.0000
G1 X2.8981 Y1.7232 F20.0000
G1 X2.8900 Y1.7534 F20.0000
G1 X2.8809 Y1.7783 F20.0000
G1 X2.8755 Y1.7886 F20.0000
G1 X2.8681 Y1.7975 F20.0000
G1 X2.8590 Y1.8051 F20.0000
G1 X2.8556 Y1.8071 F20.0000
G1 X2.8519 Y1.8083 F20.0000
G1 X2.7731 Y1.8083 F20.0000
G1 X2.7731 Y1.8083 F20.0000
G1 X2.7547 Y1.8061 F20.0000
G1 X2.7456 Y1.8041 F20.0000
G1 X2.7370 Y1.8012 F20.0000
G1 X2.7286 Y1.7977 F20.0000
G1 X2.7210 Y1.7931 F20.0000
G1 X2.7146 Y1.7874 F20.0000
G0 X2.7099 Y1.7808
G0 X2.7067 Y1.7731
G0 X2.7042 Y1.7648
G0 X2.7015 Y1.7473
G0 X2.6567 Y1.2749
G1 X2.6558 Y1.2635 F20.0000
G1 X2.6545 Y1.2419 F20.0000
G1 X2.6555 Y1.2320 F20.0000
G1 X2.6582 Y1.2234 F20.0000
G1 X2.6626 Y1.2163 F20.0000
G1 X2.6688 Y1.2101 F20.0000
G1 X2.6757 Y1.2050 F20.0000
G1 X2.6836 Y1.2008 F20.0000
G1 X2.6919 Y1.1976 F20.0000
G1 X2.7188 Y1.1917 F20.0000
G1 X2.7188 Y1.1917 F20.0000
G1 X2.8369 Y1.1934 F20.0000
G1 X2.8775 Y1.2013 F20.0000
G1 X2.8984 Y1.2096 F20.0000
G1 X2.9198 Y1.2254 F20.0000
G1 X2.9333 Y1.2387 F20.0000
G1 X2.9540 Y1.2621 F20.0000
G1 X2.9727 Y1.2872 F20.0000
G1 X2.9865 Y1.3088 F20.0000
G1 X2.9993 Y1.3314 F20.0000
G1 X3.0118 Y1.3590 F20.0000
G1 X3.0313 Y1.4102 F20.0000
G1 X3.0394 Y1.4405 F20.0000
G1 X3.0463 Y1.4710 F20.0000
G1 X3.0571 Y1.5327 F20.0000
G1 X3.0603 Y1.5640 F20.0000
G1 X3.0625 Y1.5952 F20.0000
G1 X3.0637 Y1.6265 F20.0000
G1 X3.0632 Y1.6577 F20.0000
G1 X3.0561 Y1.7175 F20.0000
G1 X3.0485 Y1.7480 F20.0000
G1 X3.0416 Y1.7712 F20.0000
G1 X3.0308 Y1.7916 F20.0000
G1 X3.0226 Y1.8002 F20.0000
G1 X3.0130 Y1.8071 F20.0000
G1 X3.0091 Y1.8083 F20.0000
G1 X2.9146 Y1.8083 F20.0000
G1 X2.9146 Y1.8083 F20.0000
G1 X2.8962 Y1.8061 F20.0000
G1 X2.8871 Y1.8041 F20.0000
G1 X2.8784 Y1.8012 F20.0000
G1 X2.8701 Y1.7977 F20.0000
G1 X2.8625 Y1.7931 F20.0000
G1 X2.8563 Y1.7874 F20.0000
G0 X2.8514 Y1.7808
G0 X2.8482 Y1.7731
G0 X2.8460 Y1.7648
G0 X2.8433 Y1.7473
G0 X2.8019 Y1.2749
G1 X2.8009 Y1.2635 F20.0000
G1 X2.8000 Y1.2419 F20.0000
G1 X2.8009 Y1.2320 F20.0000
G1 X2.8036 Y1.2234 F20.0000
G1 X2.8083 Y1.2163 F20.0000
G1 X2.8142 Y1.2101 F20.0000
G1 X2.8214 Y1.2050 F20.0000
G1 X2.8292 Y1.2008 F20.0000
G1 X2.8376 Y1.1976 F20.0000
G1 X2.8644 Y1.1917 F20.0000
G1 X2.8644 Y1.1917 F20.0000
G1 X2.9825 Y1.1929 F20.0000
G1 X3.0231 Y1.2005 F20.0000
G1 X3.0440 Y1.2092 F20.0000
G1 X3.0738 Y1.2323 F20.0000
G1 X3.1011 Y1.2601 F20.0000
G1 X3.1198 Y1.2852 F20.0000
G1 X3.1339 Y1.3068 F20.0000
G1 X3.1469 Y1.3282 F20.0000
G1 X3.1604 Y1.3565 F20.0000
G1 X3.1708 Y1.3824 F20.0000
G1 X3.1897 Y1.4377 F20.0000
G1 X3.1971 Y1.4683 F20.0000
G1 X3.2035 Y1.4990 F20.0000
G1 X3.2089 Y1.5300 F20.0000
G1 X3.2124 Y1.5613 F20.0000
G1 X3.2146 Y1.5925 F20.0000
G1 X3.2153 Y1.6238 F20.0000
G1 X3.2146 Y1.6550 F20.0000
G1 X3.2124 Y1.6863 F20.0000
G1 X3.2087 Y1.7175 F20.0000
G1 X3.2015 Y1.7480 F20.0000
G1 X3.1924 Y1.7751 F20.0000
G1 X3.1858 Y1.7889 F20.0000
G1 X3.1781 Y1.7980 F20.0000
G1 X3.1656 Y1.8076 F20.0000
G1 X3.1617 Y1.8083 F20.0000
G1 X3.0869 Y1.8083 F20.0000
G1 X3.0869 Y1.8083 F20.0000
G1 X3.0684 Y1.8061 F20.0000
G1 X3.0593 Y1.8041 F20.0000
G1 X3.0507 Y1.8012 F20.0000
G1 X3.0423 Y1.7977 F20.0000
G1 X3.0347 Y1.7931 F20.0000
G1 X3.0283 Y1.7874 F20.0000
G0 X3.0234 Y1.7808
G0 X3.0199 Y1.7731
G0 X3.0172 Y1.7648
G0 X3.0138 Y1.7473
G0 X2.9505 Y1.2746
G1 X2.9491 Y1.2633 F20.0000
G1 X2.9471 Y1.2419 F20.0000
G1 X2.9476 Y1.2320 F20.0000
G1 X2.9500 Y1.2234 F20.0000
G1 X2.9545 Y1.2160 F20.0000
G1 X2.9604 Y1.2101 F20.0000
G1 X2.9675 Y1.2050 F20.0000
G1 X2.9751 Y1.2008 F20.0000
G1 X2.9835 Y1.1976 F20.0000
G1 X3.0103 Y1.1917 F20.0000
G1 X3.0103 Y1.1917 F20.0000
G1 X3.1321 Y1.1929 F20.0000
G1 X3.1727 Y1.2008 F20.0000
G1 X3.1939 Y1.2092 F20.0000
G1 X3.2094 Y1.2192 F20.0000
G1 X3.2286 Y1.2375 F20.0000
G1 X3.2502 Y1.2601 F20.0000
G1 X3.2692 Y1.2852 F20.0000
G1 X3.2987 Y1.3312 F20.0000
G1 X3.3127 Y1.3593 F20.0000
G1 X3.3246 Y1.3868 F20.0000
G1 X3.3354 Y1.4154 F20.0000
G1 X3.3442 Y1.4454 F20.0000
G1 X3.3580 Y1.5062 F20.0000
G1 X3.3625 Y1.5372 F20.0000
G1 X3.3654 Y1.5684 F20.0000
G1 X3.3674 Y1.5997 F20.0000
G1 X3.3674 Y1.6309 F20.0000
G1 X3.3661 Y1.6622 F20.0000
G1 X3.3634 Y1.6934 F20.0000
G1 X3.3593 Y1.7244 F20.0000
G1 X3.3519 Y1.7549 F20.0000
G1 X3.3403 Y1.7859 F20.0000
G1 X3.3386 Y1.7894 F20.0000
G1 X3.3310 Y1.7982 F20.0000
G1 X3.3184 Y1.8078 F20.0000
G1 X3.2357 Y1.8083 F20.0000
G1 X3.2357 Y1.8083 F20.0000
G1 X3.2173 Y1.8061 F20.0000
G1 X3.2082 Y1.8041 F20.0000
G1 X3.1996 Y1.8012 F20.0000
G1 X3.1912 Y1.7977 F20.0000
G1 X3.1836 Y1.7931 F20.0000
G1 X3.1772 Y1.7874 F20.0000
G0 X3.1725 Y1.7808
G0 X3.1690 Y1.7731
G0 X3.1666 Y1.7648
G0 X3.1636 Y1.7473
G0 X3.1132 Y1.2749
G1 X3.1120 Y1.2635 F20.0000
G1 X3.1105 Y1.2419 F20.0000
G1 X3.1112 Y1.2320 F20.0000
G1 X3.1139 Y1.2234 F20.0000
G1 X3.1184 Y1.2163 F20.0000
G1 X3.1245 Y1.2101 F20.0000
G1 X3.1314 Y1.2050 F20.0000
G1 X3.1393 Y1.2008 F20.0000
G1 X3.1476 Y1.1976 F20.0000
G1 X3.1745 Y1.1917 F20.0000
G1 X3.1745 Y1.1917 F20.0000
G1 X3.2815 Y1.1932 F20.0000
G1 X3.3221 Y1.2008 F20.0000
G1 X3.3467 Y1.2106 F20.0000
G1 X3.3760 Y1.2338 F20.0000
G1 X3.4031 Y1.2618 F20.0000
G1 X3.4218 Y1.2869 F20.0000
G1 X3.4500 Y1.3314 F20.0000
G1 X3.4638 Y1.3595 F20.0000
G1 X3.4749 Y1.3861 F20.0000
G1 X3.4948 Y1.4427 F20.0000
G1 X3.5027 Y1.4729 F20.0000
G1 X3.5094 Y1.5037 F20.0000
G1 X3.5155 Y1.5381 F20.0000
G1 X3.5212 Y1.6341 F20.0000
G1 X3.5155 Y1.7005 F20.0000
G1 X3.5057 Y1.7498 F20.0000
G1 X3.4956 Y1.7795 F20.0000
G1 X3.4902 Y1.7899 F20.0000
G1 X3.4825 Y1.7987 F20.0000
G1 X3.4732 Y1.8061 F20.0000
G1 X3.4697 Y1.8081 F20.0000
G1 X3.3910 Y1.8083 F20.0000
G1 X3.3910 Y1.8083 F20.0000
G1 X3.3725 Y1.8061 F20.0000
G1 X3.3634 Y1.8041 F20.0000
G1 X3.3548 Y1.8012 F20.0000
G1 X3.3465 Y1.7977 F20.0000
G1 X3.3388 Y1.7931 F20.0000
G1 X3.3324 Y1.7874 F20.0000
G0 X3.3275 Y1.7808
G0 X3.3241 Y1.7731
G0 X3.3216 Y1.7648
G0 X3.3184 Y1.7473
G0 X3.2601 Y1.2746
G1 X3.2586 Y1.2633 F20.0000
G1 X3.2569 Y1.2419 F20.0000
G1 X3.2574 Y1.2320 F20.0000
G1 X3.2601 Y1.2234 F20.0000
G1 X3.2645 Y1.2160 F20.0000
G1 X3.2704 Y1.2101 F20.0000
G1 X3.2773 Y1.2050 F20.0000
G1 X3.2852 Y1.2008 F20.0000
G1 X3.2936 Y1.1976 F20.0000
G1 X3.3204 Y1.1917 F20.0000
G1 X3.3204 Y1.1917 F20.0000
G1 X3.4274 Y1.1927 F20.0000
G1 X3.4643 Y1.1986 F20.0000
G1 X3.4823 Y1.2040 F20.0000
G1 X3.5025 Y1.2141 F20.0000
G1 X3.5389 Y1.2473 F20.0000
G1 X3.5472 Y1.2598 F20.0000
G1 X3.5578 Y1.2840 F20.0000
G1 X3.5573 Y1.7970 F20.0000
G1 X3.5566 Y1.8007 F20.0000
G1 X3.5544 Y1.8039 F20.0000
G1 X3.5512 Y1.8063 F20.0000
G1 X3.5475 Y1.8081 F20.0000
G1 X3.5436 Y1.8083 F20.0000
G1 X3.5436 Y1.8083 F20.0000
G1 X3.5342 Y1.8073 F20.0000
G1 X3.5256 Y1.8056 F20.0000
G1 X3.5180 Y1.8022 F20.0000
G0 X3.5118 Y1.7972
G0 X3.5069 Y1.7906
G0 X3.5030 Y1.7827
G0 X3.4712 Y1.6732
G0 X3.4678 Y1.6545
G0 X3.4638 Y1.5020
G0 X3.4363 Y1.2537
G1 X3.4350 Y1.2434 F20.0000
G1 X3.4336 Y1.2224 F20.0000
G1 X3.4348 Y1.2133 F20.0000
G1 X3.4380 Y1.2060 F20.0000
G1 X3.4432 Y1.2005 F20.0000
G1 X3.4500 Y1.1966 F20.0000
G1 X3.4663 Y1.1917 F20.0000
G1 X3.4663 Y1.1917 F20.0000
G1 X3.4700 Y1.1919 F20.0000
G1 X3.5475 Y1.1922 F20.0000
G1 X3.5509 Y1.1934 F20.0000
G1 X3.5539 Y1.1956 F20.0000
G1 X3.5578 Y1.2018 F20.0000
G1 X3.5586 Y1.2055 F20.0000
G1 X3.5586 Y1.2055 F20.0000
G1 X3.5561 Y1.2237 F20.0000
G1 X3.5514 Y1.2414 F20.0000
G1 X3.5482 Y1.2498 F20.0000
G1 X3.5443 Y1.2576 F20.0000
G1 X3.5391 Y1.2645 F20.0000
G0 X3.5327 Y1.2702
G0 X3.5256 Y1.2746
G0 X3.5094 Y1.2810
G0 X3.4215 Y1.3054
G0 X1.9274 Y1.7079
G0 X1.9082 Y1.7114
G0 X1.8024 Y1.7148
G0 X1.7931 Y1.7160
G0 X1.7840 Y1.7185
G0 X1.7751 Y1.7222
G0 X1.7581 Y1.7315
G0 X1.7249 Y1.7530
G1 X1.7170 Y1.7581 F20.0000
G1 X1.6710 Y1.7891 F20.0000
G1 X1.6550 Y1.7980 F20.0000
G1 X1.6467 Y1.8014 F20.0000
G1 X1.6380 Y1.8039 F20.0000
G1 X1.6112 Y1.8081 F20.0000
G1 X1.6112 Y1.8081 F20.0000
G1 X1.5089 Y1.8071 F20.0000
G1 X1.4656 Y1.7990 F20.0000
G1 X1.4424 Y1.7904 F20.0000
G1 X1.4281 Y1.7820 F20.0000
G1 X1.4058 Y1.7638 F20.0000
G1 X1.3794 Y1.7394 F20.0000
G1 X1.3590 Y1.7153 F20.0000
G1 X1.3428 Y1.6924 F20.0000
G1 X1.3300 Y1.6718 F20.0000
G1 X1.3194 Y1.6508 F20.0000
G1 X1.3009 Y1.6051 F20.0000
G1 X1.2923 Y1.5746 F20.0000
G1 X1.2859 Y1.5460 F20.0000
G1 X1.2805 Y1.5155 F20.0000
G1 X1.2773 Y1.4840 F20.0000
G1 X1.2758 Y1.4528 F20.0000
G1 X1.2763 Y1.4213 F20.0000
G1 X1.2788 Y1.3898 F20.0000
G1 X1.2832 Y1.3585 F20.0000
G1 X1.2894 Y1.3275 F20.0000
G1 X1.2975 Y1.2970 F20.0000
G1 X1.3076 Y1.2670 F20.0000
G1 X1.3194 Y1.2377 F20.0000
G1 X1.3329 Y1.2092 F20.0000
G1 X1.3381 Y1.2030 F20.0000
G1 X1.3504 Y1.1932 F20.0000
G1 X1.3538 Y1.1917 F20.0000
G1 X1.3538 Y1.1917 F20.0000
G1 X1.3718 Y1.1934 F20.0000
G1 X1.3807 Y1.1954 F20.0000
G1 X1.3893 Y1.1981 F20.0000
G1 X1.3974 Y1.2015 F20.0000
G1 X1.4050 Y1.2060 F20.0000
G1 X1.4114 Y1.2114 F20.0000
G0 X1.4166 Y1.2180
G0 X1.4205 Y1.2256
G0 X1.4259 Y1.2424
G0 X1.5217 Y1.7279
G1 X1.5236 Y1.7382 F20.0000
G1 X1.5271 Y1.7566 F20.0000
G1 X1.5283 Y1.7655 F20.0000
G1 X1.5278 Y1.7736 F20.0000
G1 X1.5256 Y1.7810 F20.0000
G1 X1.5212 Y1.7874 F20.0000
G1 X1.5153 Y1.7931 F20.0000
G1 X1.5081 Y1.7975 F20.0000
G1 X1.5002 Y1.8012 F20.0000
G1 X1.4919 Y1.8039 F20.0000
G1 X1.4742 Y1.8068 F20.0000
G1 X1.4653 Y1.8081 F20.0000
G1 X1.4653 Y1.8081 F20.0000
G1 X1.3629 Y1.8068 F20.0000
G1 X1.3236 Y1.7990 F20.0000
G1 X1.3044 Y1.7918 F20.0000
G1 X1.2901 Y1.7837 F20.0000
G1 X1.2645 Y1.7630 F20.0000
G1 X1.2392 Y1.7377 F20.0000
G1 X1.2188 Y1.7133 F20.0000
G1 X1.2005 Y1.6875 F20.0000
G1 X1.1863 Y1.6634 F20.0000
G1 X1.1750 Y1.6420 F20.0000
G1 X1.1639 Y1.6154 F20.0000
G1 X1.1467 Y1.5650 F20.0000
G1 X1.1395 Y1.5342 F20.0000
G1 X1.1336 Y1.5032 F20.0000
G1 X1.1289 Y1.4719 F20.0000
G1 X1.1265 Y1.4405 F20.0000
G1 X1.1255 Y1.4090 F20.0000
G1 X1.1262 Y1.3775 F20.0000
G1 X1.1287 Y1.3460 F20.0000
G1 X1.1329 Y1.3147 F20.0000
G1 X1.1388 Y1.2837 F20.0000
G1 X1.1464 Y1.2530 F20.0000
G1 X1.1641 Y1.2087 F20.0000
G1 X1.1715 Y1.1998 F20.0000
G1 X1.1806 Y1.1922 F20.0000
G1 X1.1843 Y1.1917 F20.0000
G1 X1.1843 Y1.1917 F20.0000
G1 X1.2023 Y1.1934 F20.0000
G1 X1.2111 Y1.1954 F20.0000
G1 X1.2197 Y1.1981 F20.0000
G1 X1.2279 Y1.2015 F20.0000
G1 X1.2355 Y1.2060 F20.0000
G1 X1.2421 Y1.2114 F20.0000
G0 X1.2475 Y1.2180
G0 X1.2517 Y1.2254
G0 X1.2584 Y1.2421
G0 X1.3900 Y1.7288
G1 X1.3927 Y1.7389 F20.0000
G1 X1.3974 Y1.7571 F20.0000
G1 X1.3991 Y1.7657 F20.0000
G1 X1.3994 Y1.7739 F20.0000
G1 X1.3974 Y1.7812 F20.0000
G1 X1.3932 Y1.7876 F20.0000
G1 X1.3873 Y1.7931 F20.0000
G1 X1.3804 Y1.7975 F20.0000
G1 X1.3725 Y1.8012 F20.0000
G1 X1.3642 Y1.8039 F20.0000
G1 X1.3465 Y1.8068 F20.0000
G1 X1.3376 Y1.8081 F20.0000
G1 X1.3376 Y1.8081 F20.0000
G1 X1.2234 Y1.8068 F20.0000
G1 X1.1841 Y1.7995 F20.0000
G1 X1.1683 Y1.7943 F20.0000
G1 X1.1503 Y1.7847 F20.0000
G1 X1.1245 Y1.7640 F20.0000
G1 X1.0982 Y1.7397 F20.0000
G1 X1.0775 Y1.7156 F20.0000
G1 X1.0588 Y1.6900 F20.0000
G1 X1.0453 Y1.6683 F20.0000
G1 X1.0226 Y1.6240 F20.0000
G1 X1.0113 Y1.5945 F20.0000
G1 X1.0025 Y1.5672 F20.0000
G1 X0.9865 Y1.5062 F20.0000
G1 X0.9811 Y1.4749 F20.0000
G1 X0.9769 Y1.4437 F20.0000
G1 X0.9739 Y1.4122 F20.0000
G1 X0.9727 Y1.3807 F20.0000
G1 X0.9727 Y1.3492 F20.0000
G1 X0.9742 Y1.3177 F20.0000
G1 X0.9838 Y1.2625 F20.0000
G1 X0.9953 Y1.2207 F20.0000
G1 X1.0000 Y1.2096 F20.0000
G1 X1.0044 Y1.2030 F20.0000
G1 X1.0162 Y1.1924 F20.0000
G1 X1.0199 Y1.1917 F20.0000
G1 X1.0199 Y1.1917 F20.0000
G1 X1.0379 Y1.1934 F20.0000
G1 X1.0468 Y1.1954 F20.0000
G1 X1.0554 Y1.1981 F20.0000
G1 X1.0635 Y1.2015 F20.0000
G1 X1.0711 Y1.2060 F20.0000
G1 X1.0780 Y1.2114 F20.0000
G0 X1.0834 Y1.2178
G0 X1.0878 Y1.2251
G0 X1.0947 Y1.2416
G0 X1.2424 Y1.7293
G1 X1.2453 Y1.7392 F20.0000
G1 X1.2507 Y1.7574 F20.0000
G1 X1.2527 Y1.7660 F20.0000
G1 X1.2530 Y1.7741 F20.0000
G1 X1.2512 Y1.7812 F20.0000
G1 X1.2470 Y1.7876 F20.0000
G1 X1.2414 Y1.7931 F20.0000
G1 X1.2345 Y1.7975 F20.0000
G1 X1.2266 Y1.8012 F20.0000
G1 X1.2183 Y1.8039 F20.0000
G1 X1.2005 Y1.8068 F20.0000
G1 X1.1917 Y1.8081 F20.0000
G1 X1.1917 Y1.8081 F20.0000
G1 X1.0814 Y1.8071 F20.0000
G1 X1.0578 Y1.8036 F20.0000
G1 X1.0303 Y1.7963 F20.0000
G1 X1.0116 Y1.7879 F20.0000
G1 X0.9764 Y1.7603 F20.0000
G1 X0.9528 Y1.7392 F20.0000
G1 X0.9321 Y1.7153 F20.0000
G1 X0.9134 Y1.6897 F20.0000
G1 X0.9003 Y1.6693 F20.0000
G1 X0.8767 Y1.6248 F20.0000
G1 X0.8649 Y1.5955 F20.0000
G1 X0.8548 Y1.5667 F20.0000
G1 X0.8366 Y1.5062 F20.0000
G1 X0.8300 Y1.4751 F20.0000
G1 X0.8243 Y1.4439 F20.0000
G1 X0.8196 Y1.4126 F20.0000
G1 X0.8167 Y1.3812 F20.0000
G1 X0.8177 Y1.3228 F20.0000
G1 X0.8204 Y1.2913 F20.0000
G1 X0.8253 Y1.2601 F20.0000
G1 X0.8408 Y1.2109 F20.0000
G1 X0.8477 Y1.2013 F20.0000
G1 X0.8563 Y1.1932 F20.0000
G1 X0.8600 Y1.1917 F20.0000
G1 X0.8600 Y1.1917 F20.0000
G1 X0.8780 Y1.1934 F20.0000
G1 X0.8868 Y1.1954 F20.0000
G1 X0.8954 Y1.1981 F20.0000
G1 X0.9035 Y1.2015 F20.0000
G1 X0.9114 Y1.2060 F20.0000
G1 X0.9181 Y1.2114 F20.0000
G0 X0.9237 Y1.2178
G0 X0.9281 Y1.2251
G0 X0.9353 Y1.2416
G0 X1.0955 Y1.7296
G1 X1.0987 Y1.7394 F20.0000
G1 X1.1046 Y1.7574 F20.0000
G1 X1.1065 Y1.7660 F20.0000
G1 X1.1070 Y1.7741 F20.0000
G1 X1.1053 Y1.7812 F20.0000
G1 X1.1014 Y1.7876 F20.0000
G1 X1.0957 Y1.7931 F20.0000
G1 X1.0888 Y1.7975 F20.0000
G1 X1.0810 Y1.8012 F20.0000
G1 X1.0726 Y1.8039 F20.0000
G1 X1.0549 Y1.8068 F20.0000
G1 X1.0460 Y1.8081 F20.0000
G1 X1.0460 Y1.8081 F20.0000
G1 X0.9358 Y1.8071 F20.0000
G1 X0.8964 Y1.7995 F20.0000
G1 X0.8770 Y1.7928 F20.0000
G1 X0.8558 Y1.7800 F20.0000
G1 X0.8334 Y1.7625 F20.0000
G1 X0.8066 Y1.7392 F20.0000
G1 X0.7857 Y1.7153 F20.0000
G1 X0.7689 Y1.6951 F20.0000
G1 X0.7512 Y1.6688 F20.0000
G1 X0.7389 Y1.6481 F20.0000
G1 X0.7259 Y1.6228 F20.0000
G1 X0.7133 Y1.5965 F20.0000
G1 X0.7020 Y1.5669 F20.0000
G1 X0.6922 Y1.5369 F20.0000
G1 X0.6838 Y1.5064 F20.0000
G1 X0.6777 Y1.4754 F20.0000
G1 X0.6681 Y1.4129 F20.0000
G1 X0.6656 Y1.3814 F20.0000
G1 X0.6644 Y1.3499 F20.0000
G1 X0.6639 Y1.3184 F20.0000
G1 X0.6671 Y1.2869 F20.0000
G1 X0.6720 Y1.2601 F20.0000
G1 X0.6772 Y1.2372 F20.0000
G1 X0.6865 Y1.2084 F20.0000
G1 X0.6939 Y1.1991 F20.0000
G1 X0.7030 Y1.1917 F20.0000
G1 X0.7030 Y1.1917 F20.0000
G1 X0.7210 Y1.1934 F20.0000
G1 X0.7298 Y1.1954 F20.0000
G1 X0.7384 Y1.1981 F20.0000
G1 X0.7466 Y1.2015 F20.0000
G1 X0.7544 Y1.2060 F20.0000
G1 X0.7611 Y1.2114 F20.0000
G0 X0.7667 Y1.2178
G0 X0.7714 Y1.2251
G0 X0.7788 Y1.2411
G0 X0.9486 Y1.7298
G1 X0.9520 Y1.7397 F20.0000
G1 X0.9582 Y1.7576 F20.0000
G1 X0.9604 Y1.7662 F20.0000
G1 X0.9611 Y1.7741 F20.0000
G1 X0.9594 Y1.7812 F20.0000
G1 X0.9555 Y1.7876 F20.0000
G1 X0.9498 Y1.7931 F20.0000
G1 X0.9427 Y1.7975 F20.0000
G1 X0.9350 Y1.8012 F20.0000
G1 X0.9267 Y1.8039 F20.0000
G1 X0.9090 Y1.8068 F20.0000
G1 X0.9001 Y1.8081 F20.0000
G1 X0.9001 Y1.8081 F20.0000
G1 X0.7899 Y1.8068 F20.0000
G1 X0.7466 Y1.7990 F20.0000
G1 X0.7308 Y1.7938 F20.0000
G1 X0.7197 Y1.7884 F20.0000
G1 X0.7028 Y1.7768 F20.0000
G1 X0.6594 Y1.7406 F20.0000
G1 X0.6375 Y1.7178 F20.0000
G1 X0.6179 Y1.6929 F20.0000
G1 X0.6043 Y1.6735 F20.0000
G1 X0.5787 Y1.6292 F20.0000
G1 X0.5659 Y1.6001 F20.0000
G1 X0.5438 Y1.5428 F20.0000
G1 X0.5352 Y1.5123 F20.0000
G1 X0.5276 Y1.4815 F20.0000
G1 X0.5209 Y1.4505 F20.0000
G1 X0.5162 Y1.4193 F20.0000
G1 X0.5130 Y1.3878 F20.0000
G1 X0.5113 Y1.3563 F20.0000
G1 X0.5111 Y1.3248 F20.0000
G1 X0.5123 Y1.2933 F20.0000
G1 X0.5172 Y1.2621 F20.0000
G1 X0.5229 Y1.2394 F20.0000
G1 X0.5317 Y1.2111 F20.0000
G1 X0.5357 Y1.2042 F20.0000
G1 X0.5438 Y1.1956 F20.0000
G1 X0.5468 Y1.1932 F20.0000
G1 X0.5504 Y1.1917 F20.0000
G1 X0.5504 Y1.1917 F20.0000
G1 X0.5684 Y1.1934 F20.0000
G1 X0.5773 Y1.1954 F20.0000
G1 X0.5859 Y1.1981 F20.0000
G1 X0.5940 Y1.2015 F20.0000
G1 X0.6019 Y1.2060 F20.0000
G1 X0.6085 Y1.2114 F20.0000
G0 X0.6142 Y1.2178
G0 X0.6188 Y1.2251
G0 X0.6265 Y1.2411
G0 X0.8022 Y1.7301
G1 X0.8056 Y1.7399 F20.0000
G1 X0.8120 Y1.7579 F20.0000
G1 X0.8142 Y1.7662 F20.0000
G1 X0.8150 Y1.7741 F20.0000
G1 X0.8135 Y1.7812 F20.0000
G1 X0.8095 Y1.7876 F20.0000
G1 X0.8039 Y1.7931 F20.0000
G1 X0.7968 Y1.7975 F20.0000
G1 X0.7891 Y1.8012 F20.0000
G1 X0.7808 Y1.8039 F20.0000
G1 X0.7630 Y1.8068 F20.0000
G1 X0.7542 Y1.8081 F20.0000
G1 X0.7542 Y1.8081 F20.0000
G1 X0.6361 Y1.8068 F20.0000
G1 X0.5967 Y1.7990 F20.0000
G1 X0.5773 Y1.7923 F20.0000
G1 X0.5561 Y1.7795 F20.0000
G1 X0.5094 Y1.7414 F20.0000
G1 X0.4877 Y1.7183 F20.0000
G1 X0.4690 Y1.6949 F20.0000
G1 X0.4555 Y1.6759 F20.0000
G1 X0.4417 Y1.6550 F20.0000
G1 X0.4269 Y1.6270 F20.0000
G1 X0.4031 Y1.5746 F20.0000
G1 X0.3927 Y1.5445 F20.0000
G1 X0.3836 Y1.5143 F20.0000
G1 X0.3757 Y1.4835 F20.0000
G1 X0.3698 Y1.4525 F20.0000
G1 X0.3654 Y1.4213 F20.0000
G1 X0.3625 Y1.3898 F20.0000
G1 X0.3615 Y1.3583 F20.0000
G1 X0.3620 Y1.3268 F20.0000
G1 X0.3642 Y1.2953 F20.0000
G1 X0.3679 Y1.2638 F20.0000
G1 X0.3807 Y1.2136 F20.0000
G1 X0.3841 Y1.2064 F20.0000
G1 X0.3917 Y1.1973 F20.0000
G1 X0.3976 Y1.1924 F20.0000
G1 X0.4013 Y1.1917 F20.0000
G1 X0.4013 Y1.1917 F20.0000
G1 X0.4193 Y1.1934 F20.0000
G1 X0.4281 Y1.1954 F20.0000
G1 X0.4368 Y1.1981 F20.0000
G1 X0.4449 Y1.2015 F20.0000
G1 X0.4528 Y1.2060 F20.0000
G1 X0.4594 Y1.2114 F20.0000
G0 X0.4651 Y1.2178
G0 X0.4700 Y1.2251
G0 X0.4776 Y1.2411
G0 X0.6560 Y1.7301
G1 X0.6594 Y1.7399 F20.0000
G1 X0.6658 Y1.7579 F20.0000
G1 X0.6683 Y1.7662 F20.0000
G1 X0.6690 Y1.7741 F20.0000
G1 X0.6673 Y1.7812 F20.0000
G1 X0.6636 Y1.7876 F20.0000
G1 X0.6580 Y1.7931 F20.0000
G1 X0.6508 Y1.7975 F20.0000
G1 X0.6432 Y1.8012 F20.0000
G1 X0.6348 Y1.8039 F20.0000
G1 X0.6171 Y1.8068 F20.0000
G1 X0.6083 Y1.8081 F20.0000
G1 X0.6083 Y1.8081 F20.0000
G1 X0.4862 Y1.8068 F20.0000
G1 X0.4429 Y1.7987 F20.0000
G1 X0.4237 Y1.7916 F20.0000
G1 X0.4092 Y1.7835 F20.0000
G1 X0.3802 Y1.7608 F20.0000
G1 X0.3565 Y1.7399 F20.0000
G1 X0.3349 Y1.7168 F20.0000
G1 X0.3179 Y1.6961 F20.0000
G1 X0.3029 Y1.6757 F20.0000
G1 X0.2869 Y1.6494 F20.0000
G1 X0.2741 Y1.6250 F20.0000
G1 X0.2512 Y1.5736 F20.0000
G1 X0.2411 Y1.5436 F20.0000
G1 X0.2119 Y1.4225 F20.0000
G1 X0.2042 Y1.3044 F20.0000
G1 X0.2087 Y1.2532 F20.0000
G1 X0.2126 Y1.2335 F20.0000
G1 X0.2207 Y1.2109 F20.0000
G1 X0.2276 Y1.2013 F20.0000
G1 X0.2362 Y1.1934 F20.0000
G1 X0.2397 Y1.1917 F20.0000
G1 X0.2397 Y1.1917 F20.0000
G1 X0.2576 Y1.1934 F20.0000
G1 X0.2665 Y1.1954 F20.0000
G1 X0.2751 Y1.1981 F20.0000
G1 X0.2832 Y1.2015 F20.0000
G1 X0.2911 Y1.2060 F20.0000
G1 X0.2977 Y1.2114 F20.0000
G0 X0.3034 Y1.2178
G0 X0.3081 Y1.2251
G0 X0.3157 Y1.2411
G0 X0.4921 Y1.7301
G1 X0.4956 Y1.7399 F20.0000
G1 X0.5020 Y1.7579 F20.0000
G1 X0.5042 Y1.7662 F20.0000
G1 X0.5049 Y1.7741 F20.0000
G1 X0.5034 Y1.7812 F20.0000
G1 X0.4995 Y1.7876 F20.0000
G1 X0.4938 Y1.7931 F20.0000
G1 X0.4867 Y1.7975 F20.0000
G1 X0.4791 Y1.8012 F20.0000
G1 X0.4707 Y1.8039 F20.0000
G1 X0.4530 Y1.8068 F20.0000
G1 X0.4441 Y1.8081 F20.0000
G1 X0.4441 Y1.8081 F20.0000
G1 X0.3418 Y1.8073 F20.0000
G1 X0.3103 Y1.8031 F20.0000
G1 X0.2827 Y1.7958 F20.0000
G1 X0.2677 Y1.7891 F20.0000
G1 X0.2507 Y1.7776 F20.0000
G1 X0.2101 Y1.7416 F20.0000
G1 X0.2005 Y1.7283 F20.0000
G1 X0.1919 Y1.7099 F20.0000
G1 X0.1919 Y1.4422 F20.0000
G1 X0.1919 Y1.4422 F20.0000
G1 X0.1937 Y1.4237 F20.0000
G1 X0.1959 Y1.4151 F20.0000
G1 X0.1988 Y1.4075 F20.0000
G1 X0.2028 Y1.4026 F20.0000
G0 X0.2077 Y1.4011
G0 X0.2133 Y1.4026
G0 X0.2195 Y1.4065
G0 X0.2389 Y1.4245
G0 X0.2655 Y1.4520
G0 X0.2717 Y1.4592
G0 X0.2768 Y1.4668
G0 X0.2805 Y1.4749
G0 X0.2827 Y1.4835
G0 X0.2847 Y1.5020
G0 X0.2857 Y1.5694
G0 X0.2874 Y1.5881
G0 X0.2940 Y1.6156
G0 X0.3337 Y1.7409
G1 X0.3364 Y1.7500 F20.0000
G1 X0.3418 Y1.7675 F20.0000
G1 X0.3438 Y1.7758 F20.0000
G1 X0.3440 Y1.7837 F20.0000
G1 X0.3420 Y1.7904 F20.0000
G1 X0.3376 Y1.7960 F20.0000
G1 X0.3314 Y1.8002 F20.0000
G1 X0.3238 Y1.8034 F20.0000
G1 X0.3157 Y1.8054 F20.0000
G1 X0.2982 Y1.8081 F20.0000
G1 X0.2982 Y1.8081 F20.0000
G1 X0.2037 Y1.8073 F20.0000
G1 X0.1998 Y1.8068 F20.0000
G1 X0.1964 Y1.8046 F20.0000
G1 X0.1919 Y1.7977 F20.0000
G1 X0.1919 Y1.7977 F20.0000
G1 X0.1927 Y1.7790 F20.0000
G1 X0.1937 Y1.7699 F20.0000
G1 X0.1951 Y1.7608 F20.0000
G1 X0.1981 Y1.7525 F20.0000
G0 X0.2023 Y1.7446
G0 X0.2074 Y1.7375
G0 X0.2202 Y1.7239
G0 X0.2628 Y1.6860
G0 X0.2694 Y1.6794
G0 X0.2751 Y1.6725
G0 X0.2790 Y1.6646
G0 X0.2817 Y1.6563
G0 X0.2832 Y1.6474
G0 X0.2840 Y1.4690
G0 X0.2835 Y1.4599
G0 X0.2817 Y1.4510
G0 X0.2788 Y1.4429
G0 X0.2746 Y1.4350
G0 X0.2640 Y1.4205
G0 X0.2451 Y1.3989
G1 X0.2382 Y1.3912 F20.0000
G1 X0.2173 Y1.3671 F20.0000
G1 X0.2111 Y1.3590 F20.0000
G1 X0.2057 Y1.3506 F20.0000
G1 X0.2013 Y1.3423 F20.0000
G1 X0.1978 Y1.3337 F20.0000
G1 X0.1917 Y1.3073 F20.0000
G1 X0.1917 Y1.3073 F20.0000
G1 X0.1919 Y1.3034 F20.0000
G1 X0.1919 Y1.2050 F20.0000
G1 X0.1927 Y1.2010 F20.0000
G1 X0.1944 Y1.1973 F20.0000
G1 X0.1971 Y1.1946 F20.0000
G1 X0.2042 Y1.1917 F20.0000
G1 X0.2042 Y1.1917 F20.0000
G1 X0.2062 Y1.1912 F20.0000
G1 X0.2050 Y1.1909 F20.0000
G1 X0.2028 Y1.1900 F20.0000
G1 X0.2020 Y1.1880 F20.0000
G1 X0.2050 Y1.1826 F20.0000
G1 X0.2050 Y1.1826 F20.0000
G1 X3.5470 Y1.1831 F20.0000
G1 X3.5529 Y1.1843 F20.0000
G1 X3.5566 Y1.1860 F20.0000
G1 X3.5610 Y1.1900 F20.0000
G1 X3.5637 Y1.1937 F20.0000
G1 X3.5667 Y1.1998 F20.0000
G1 X3.5677 Y1.2074 F20.0000
G1 X3.5669 Y1.7987 F20.0000
G1 X3.5650 Y1.8044 F20.0000
G1 X3.5600 Y1.8110 F20.0000
G1 X3.5556 Y1.8140 F20.0000
G1 X3.5502 Y1.8167 F20.0000
G1 X3.5404 Y1.8177 F20.0000
G1 X0.2030 Y1.8169 F20.0000
G1 X0.1961 Y1.8152 F20.0000
G1 X0.1929 Y1.8135 F20.0000
G1 X0.1887 Y1.8098 F20.0000
G1 X0.1855 Y1.8049 F20.0000
G1 X0.1836 Y1.8002 F20.0000
G1 X0.1826 Y1.7945 F20.0000
G1 X0.1831 Y1.2013 F20.0000
G1 X0.1843 Y1.1969 F20.0000
G1 X0.1870 Y1.1924 F20.0000
G1 X0.1900 Y1.1890 F20.0000
G1 X0.1944 Y1.1860 F20.0000
G1 X0.1998 Y1.1833 F20.0000
G1 X0.2050 Y1.1826 F20.0000
G1 X0.2050 Y1.1826 F20.0000
G0 Z0.9969
G0 Z0.9969
(Finish operation: Adaptive)
(Coolant Off:Flood)
M9
(Begin postamble)
M5
G17 G90
M2
