(Exported by FreeCAD)
(Post Processor: script_module)
(Output Time:2025-01-27 22:03:54.978593)
(Begin preamble)
G17 G90
G20
(Begin operation: Fixture)
(Path: Fixture)
G54
(Finish operation: Fixture)
(Begin operation: 365_endmill001)
(Path: 365_endmill001)
(365_endmill001)
(Begin toolchange)
( M6 T2 )
M3 S1000
(Finish operation: 365_endmill001)
(Begin operation: MillFace)
(Coolant On:Flood)
M7
M8
(Path: MillFace)
(MillFace)
G0 Z0.9969
G0 X0.0000 Y0.0000
G0 X0.0161 Y0.0161
G0 X0.0161 Y0.0161 Z0.9181
G1 X0.0161 Y0.0161 Z0.7500 F2.0000
G3 X0.0681 Y-0.0036 Z0.7500 I0.0479 J0.0479 K0.0000 F20.0000
G1 X3.6819 Y-0.0036 Z0.7500 F20.0000
G3 X3.7537 Y0.0681 Z0.7500 I0.0041 J0.0677 K0.0000 F20.0000
G1 X3.7537 Y2.9319 Z0.7500 F20.0000
G3 X3.6819 Y3.0037 Z0.7500 I-0.0677 J0.0041 K0.0000 F20.0000
G1 X0.0681 Y3.0037 Z0.7500 F20.0000
G3 X-0.0036 Y2.9319 Z0.7500 I-0.0041 J-0.0677 K0.0000 F20.0000
G1 X-0.0036 Y0.0681 Z0.7500 F20.0000
G3 X0.0161 Y0.0161 Z0.7500 I0.0677 J-0.0041 K0.0000 F20.0000
G1 X0.1789 Y0.1789 Z0.7500 F2.0000
G1 X3.5712 Y0.1789 Z0.7500 F20.0000
G1 X3.5712 Y2.8212 Z0.7500 F20.0000
G1 X0.1789 Y2.8212 Z0.7500 F20.0000
G1 X0.1789 Y0.1789 Z0.7500 F20.0000
G1 X0.3614 Y0.3614 Z0.7500 F2.0000
G1 X3.3887 Y0.3614 Z0.7500 F20.0000
G1 X3.3887 Y2.6387 Z0.7500 F20.0000
G1 X0.3614 Y2.6387 Z0.7500 F20.0000
G1 X0.3614 Y0.3614 Z0.7500 F20.0000
G1 X0.5439 Y0.5439 Z0.7500 F2.0000
G1 X3.2062 Y0.5439 Z0.7500 F20.0000
G1 X3.2062 Y2.4562 Z0.7500 F20.0000
G1 X0.5439 Y2.4562 Z0.7500 F20.0000
G1 X0.5439 Y0.5439 Z0.7500 F20.0000
G1 X0.7264 Y0.7264 Z0.7500 F2.0000
G1 X3.0237 Y0.7264 Z0.7500 F20.0000
G1 X3.0237 Y2.2737 Z0.7500 F20.0000
G1 X0.7264 Y2.2737 Z0.7500 F20.0000
G1 X0.7264 Y0.7264 Z0.7500 F20.0000
G1 X0.9089 Y0.9089 Z0.7500 F2.0000
G1 X2.8411 Y0.9089 Z0.7500 F20.0000
G1 X2.8411 Y2.0911 Z0.7500 F20.0000
G1 X0.9089 Y2.0911 Z0.7500 F20.0000
G1 X0.9089 Y0.9089 Z0.7500 F20.0000
G1 X1.0914 Y1.0914 Z0.7500 F2.0000
G1 X2.6587 Y1.0914 Z0.7500 F20.0000
G1 X2.6587 Y1.9087 Z0.7500 F20.0000
G1 X1.0914 Y1.9087 Z0.7500 F20.0000
G1 X1.0914 Y1.0914 Z0.7500 F20.0000
G1 X1.2739 Y1.2739 Z0.7500 F2.0000
G1 X2.4762 Y1.2739 Z0.7500 F20.0000
G1 X2.4762 Y1.7262 Z0.7500 F20.0000
G1 X1.2739 Y1.7262 Z0.7500 F20.0000
G1 X1.2739 Y1.2739 Z0.7500 F20.0000
G1 X1.4564 Y1.4564 Z0.7500 F2.0000
G1 X2.2937 Y1.4564 Z0.7500 F20.0000
G1 X2.2937 Y1.5437 Z0.7500 F20.0000
G1 X1.4564 Y1.5437 Z0.7500 F20.0000
G1 X1.4564 Y1.4564 Z0.7500 F20.0000
G0 Z0.9969
G0 Z0.9969
(Finish operation: MillFace)
(Coolant Off:Flood)
M9
(Begin postamble)
M5
G17 G90
M2
