(Exported by FreeCAD)
(Post Processor: grbl_post)
(Output Time:2026-04-14 13:49:08.778577)
(Begin preamble)
G17 G90
G20
(Begin operation: Fixture)
(Path: Fixture)
G54
(Finish operation: Fixture)

(Begin operation: Adaptive002)

(Path: Adaptive002)
(Adaptive002)
(Helix to depth: 4.191000)
G0 Z0.3819
G0 X1.1088 Y1.1810 Z0.3819
G0 X1.1088 Y1.1810 Z0.3031
G1 X1.1088 Y1.1810 Z0.1850
G1 X1.1088 Y1.1810 Z0.1850
G1 X1.0866 Y1.1864 Z0.1846
G1 X1.0637 Y1.1874 Z0.1842
G1 X1.0410 Y1.1839 Z0.1838
G1 X1.0195 Y1.1761 Z0.1834
G1 X0.9999 Y1.1641 Z0.1830
G1 X0.9830 Y1.1486 Z0.1826
G1 X0.9694 Y1.1301 Z0.1822
G1 X0.9597 Y1.1093 Z0.1818
G1 X0.9543 Y1.0871 Z0.1814
G1 X0.9533 Y1.0641 Z0.1810
G1 X0.9568 Y1.0415 Z0.1806
G1 X0.9647 Y1.0199 Z0.1802
G1 X0.9766 Y1.0003 Z0.1798
G1 X0.9921 Y0.9835 Z0.1794
G1 X1.0106 Y0.9699 Z0.1790
G1 X1.0314 Y0.9602 Z0.1786
G1 X1.0537 Y0.9548 Z0.1782
G1 X1.0766 Y0.9538 Z0.1778
G1 X1.0993 Y0.9573 Z0.1774
G1 X1.1208 Y0.9652 Z0.1770
G1 X1.1404 Y0.9771 Z0.1766
G1 X1.1573 Y0.9926 Z0.1762
G1 X1.1708 Y1.0111 Z0.1757
G1 X1.1805 Y1.0319 Z0.1753
G1 X1.1859 Y1.0542 Z0.1749
G1 X1.1869 Y1.0771 Z0.1745
G1 X1.1834 Y1.0998 Z0.1741
G1 X1.1756 Y1.1213 Z0.1737
G1 X1.1636 Y1.1409 Z0.1733
G1 X1.1481 Y1.1578 Z0.1729
G1 X1.1296 Y1.1713 Z0.1725
G1 X1.1088 Y1.1810 Z0.1721
G1 X1.0866 Y1.1864 Z0.1717
G1 X1.0637 Y1.1874 Z0.1713
G1 X1.0410 Y1.1839 Z0.1709
G1 X1.0195 Y1.1761 Z0.1705
G1 X0.9999 Y1.1641 Z0.1701
G1 X0.9830 Y1.1486 Z0.1697
G1 X0.9694 Y1.1301 Z0.1693
G1 X0.9597 Y1.1093 Z0.1689
G1 X0.9543 Y1.0871 Z0.1685
G1 X0.9533 Y1.0641 Z0.1681
G1 X0.9568 Y1.0415 Z0.1677
G1 X0.9647 Y1.0199 Z0.1673
G1 X0.9766 Y1.0003 Z0.1669
G1 X0.9921 Y0.9835 Z0.1665
G1 X1.0106 Y0.9699 Z0.1661
G1 X1.0314 Y0.9602 Z0.1657
G1 X1.0537 Y0.9548 Z0.1653
G1 X1.0701 Y0.9536 Z0.1650
G1 X1.0929 Y0.9559 Z0.1650
G1 X1.1149 Y0.9625 Z0.1650
G1 X1.1351 Y0.9734 Z0.1650
G1 X1.1528 Y0.9879 Z0.1650
G1 X1.1674 Y1.0056 Z0.1650
G1 X1.1782 Y1.0259 Z0.1650
G1 X1.1849 Y1.0478 Z0.1650
G1 X1.1871 Y1.0706 Z0.1650
G1 X1.1849 Y1.0934 Z0.1650
G1 X1.1782 Y1.1154 Z0.1650
G1 X1.1674 Y1.1356 Z0.1650
G1 X1.1528 Y1.1533 Z0.1650
G1 X1.1351 Y1.1679 Z0.1650
G1 X1.1149 Y1.1787 Z0.1650
G1 X1.0929 Y1.1854 Z0.1650
G1 X1.0701 Y1.1876 Z0.1650
G1 X1.0473 Y1.1854 Z0.1650
G1 X1.0254 Y1.1787 Z0.1650
G1 X1.0051 Y1.1679 Z0.1650
G1 X0.9874 Y1.1533 Z0.1650
G1 X0.9729 Y1.1356 Z0.1650
G1 X0.9621 Y1.1154 Z0.1650
G1 X0.9554 Y1.0934 Z0.1650
G1 X0.9531 Y1.0706 Z0.1650
G1 X0.9554 Y1.0478 Z0.1650
G1 X0.9621 Y1.0259 Z0.1650
G1 X0.9729 Y1.0056 Z0.1650
G1 X0.9874 Y0.9879 Z0.1650
G1 X1.0051 Y0.9734 Z0.1650
G1 X1.0254 Y0.9625 Z0.1650
G1 X1.0473 Y0.9559 Z0.1650
G1 X1.0701 Y0.9536 Z0.1650
(Adaptive - depth: 4.191000)
G1 X1.0701 Y0.9532
G1 X1.0728 Y0.9503
G1 X1.0748 Y0.9469
G1 X1.0810 Y0.9422
G1 X1.0913 Y0.9373
G1 X1.1024 Y0.9343
G1 X1.1061 Y0.9338
G1 X1.1373 Y0.9368
G1 X1.1508 Y0.9412
G1 X1.1599 Y0.9451
G1 X1.1705 Y0.9510
G1 X1.1843 Y0.9609
G1 X1.1981 Y0.9742
G1 X1.2082 Y0.9857
G1 X1.2178 Y1.0000
G1 X1.2254 Y1.0153
G1 X1.2311 Y1.0305
G1 X1.2350 Y1.0468
G1 X1.2370 Y1.0635
G1 X1.2370 Y1.0800
G1 X1.2350 Y1.0967
G1 X1.2318 Y1.1132
G1 X1.2256 Y1.1319
G1 X1.2183 Y1.1479
G1 X1.2092 Y1.1634
G1 X1.1981 Y1.1781
G1 X1.1858 Y1.1912
G1 X1.1720 Y1.2032
G1 X1.1570 Y1.2136
G1 X1.1410 Y1.2224
G1 X1.1240 Y1.2293
G1 X1.1065 Y1.2345
G1 X1.0886 Y1.2377
G1 X1.0704 Y1.2389
G1 X1.0522 Y1.2382
G1 X1.0342 Y1.2350
G1 X1.0194 Y1.2308
G1 X1.0030 Y1.2251
G1 X0.9833 Y1.2148
G1 X0.9683 Y1.2052
G1 X0.9535 Y1.1937
G1 X0.9402 Y1.1791
G1 X0.9306 Y1.1671
G1 X0.9213 Y1.1518
G1 X0.9141 Y1.1358
G1 X0.9082 Y1.1203
G1 X0.9035 Y1.0999
G1 X0.9013 Y1.0819
G1 X0.9008 Y1.0635
G1 X0.9023 Y1.0445
G1 X0.9058 Y1.0263
G1 X0.9112 Y1.0084
G1 X0.9183 Y0.9911
G1 X0.9281 Y0.9751
G1 X0.9370 Y0.9631
G1 X0.9488 Y0.9505
G1 X0.9611 Y0.9387
G1 X0.9801 Y0.9225
G1 X1.0044 Y0.9050
G1 X1.0290 Y0.8930
G1 X1.0443 Y0.8873
G1 X1.0598 Y0.8829
G1 X1.0782 Y0.8789
G1 X1.1031 Y0.8770
G1 X1.1223 Y0.8782
G1 X1.1383 Y0.8802
G1 X1.1572 Y0.8851
G1 X1.1742 Y0.8915
G1 X1.1902 Y0.8994
G1 X1.2062 Y0.9087
G1 X1.2247 Y0.9227
G1 X1.2392 Y0.9358
G1 X1.2522 Y0.9513
G1 X1.2621 Y0.9653
G1 X1.2712 Y0.9818
G1 X1.2788 Y0.9988
G1 X1.2854 Y1.0194
G1 X1.2896 Y1.0386
G1 X1.2921 Y1.0586
G1 X1.2926 Y1.0790
G1 X1.2911 Y1.0989
G1 X1.2879 Y1.1186
G1 X1.2825 Y1.1383
G1 X1.2761 Y1.1572
G1 X1.2660 Y1.1794
G1 X1.2554 Y1.1978
G1 X1.2421 Y1.2153
G1 X1.2306 Y1.2283
G1 X1.2156 Y1.2419
G1 X1.2000 Y1.2539
G1 X1.1801 Y1.2665
G1 X1.1614 Y1.2761
G1 X1.1417 Y1.2840
G1 X1.1208 Y1.2901
G1 X1.0999 Y1.2943
G1 X1.0785 Y1.2968
G1 X1.0571 Y1.2970
G1 X1.0357 Y1.2945
G1 X1.0187 Y1.2911
G1 X0.9993 Y1.2862
G1 X0.9744 Y1.2763
G1 X0.9560 Y1.2675
G1 X0.9375 Y1.2554
G1 X0.9235 Y1.2446
G1 X0.9090 Y1.2308
G1 X0.8954 Y1.2163
G1 X0.8804 Y1.1961
G1 X0.8691 Y1.1779
G1 X0.8590 Y1.1585
G1 X0.8506 Y1.1373
G1 X0.8452 Y1.1159
G1 X0.8423 Y1.0989
G1 X0.8401 Y1.0787
G1 X0.8406 Y1.0546
G1 X0.8425 Y1.0344
G1 X0.8465 Y1.0133
G1 X0.8526 Y0.9924
G1 X0.8602 Y0.9727
G1 X0.8698 Y0.9535
G1 X0.8812 Y0.9353
G1 X0.8935 Y0.9181
G1 X0.9102 Y0.8989
G1 X0.9264 Y0.8831
G1 X0.9441 Y0.8686
G1 X0.9636 Y0.8553
G1 X0.9835 Y0.8438
G1 X1.0044 Y0.8339
G1 X1.0263 Y0.8260
G1 X1.0485 Y0.8199
G1 X1.0711 Y0.8157
G1 X1.0940 Y0.8135
G1 X1.1169 Y0.8132
G1 X1.1398 Y0.8162
G1 X1.1572 Y0.8196
G1 X1.1774 Y0.8258
G1 X1.1964 Y0.8327
G1 X1.2205 Y0.8445
G1 X1.2397 Y0.8561
G1 X1.2584 Y0.8693
G1 X1.2766 Y0.8848
G1 X1.2928 Y0.9011
G1 X1.3068 Y0.9195
G1 X1.3167 Y0.9343
G1 X1.3270 Y0.9525
G1 X1.3366 Y0.9756
G1 X1.3430 Y0.9953
G1 X1.3482 Y1.0167
G1 X1.3524 Y1.0389
G1 X1.3551 Y1.0689
G1 X1.3553 Y1.0933
G1 X1.3524 Y1.1184
G1 X1.3489 Y1.1361
G1 X1.3428 Y1.1572
G1 X1.3359 Y1.1774
G1 X1.3233 Y1.2055
G1 X1.3118 Y1.2266
G1 X1.2972 Y1.2468
G1 X1.2852 Y1.2613
G1 X1.2694 Y1.2771
G1 X1.2532 Y1.2918
G1 X1.2291 Y1.3098
G1 X1.2087 Y1.3228
G1 X1.1868 Y1.3346
G1 X1.1624 Y1.3440
G1 X1.1435 Y1.3499
G1 X1.1208 Y1.3551
G1 X1.0982 Y1.3578
G1 X1.0765 Y1.3593
G1 X1.0492 Y1.3585
G1 X1.0256 Y1.3561
G1 X1.0017 Y1.3519
G1 X0.9776 Y1.3452
G1 X0.9547 Y1.3371
G1 X0.9323 Y1.3270
G1 X0.9107 Y1.3152
G1 X0.8907 Y1.3009
G1 X0.8755 Y1.2884
G1 X0.8593 Y1.2724
G1 X0.8442 Y1.2562
G1 X0.8263 Y1.2323
G1 X0.8130 Y1.2116
G1 X0.8009 Y1.1897
G1 X0.7911 Y1.1654
G1 X0.7847 Y1.1462
G1 X0.7793 Y1.1233
G1 X0.7761 Y1.1004
G1 X0.7749 Y1.0782
G1 X0.7746 Y1.0554
G1 X0.7773 Y1.0266
G1 X0.7812 Y1.0025
G1 X0.7872 Y0.9779
G1 X0.7953 Y0.9532
G1 X0.8049 Y0.9301
G1 X0.8172 Y0.9080
G1 X0.8282 Y0.8907
G1 X0.8428 Y0.8723
G1 X0.8575 Y0.8548
G1 X0.8802 Y0.8329
G1 X0.9001 Y0.8159
G1 X0.9218 Y0.7997
G1 X0.9461 Y0.7842
G1 X0.9707 Y0.7724
G1 X0.9889 Y0.7648
G1 X1.0123 Y0.7574
G1 X1.0352 Y0.7517
G1 X1.0632 Y0.7473
G1 X1.0883 Y0.7453
G1 X1.1139 Y0.7451
G1 X1.1403 Y0.7468
G1 X1.1656 Y0.7505
G1 X1.1907 Y0.7574
G1 X1.2089 Y0.7635
G1 X1.2303 Y0.7721
G1 X1.2559 Y0.7849
G1 X1.2815 Y0.8002
G1 X1.3029 Y0.8164
G1 X1.3187 Y0.8300
G1 X1.3364 Y0.8479
G1 X1.3516 Y0.8664
G1 X1.3649 Y0.8853
G1 X1.3772 Y0.9063
G1 X1.3885 Y0.9272
G1 X1.4008 Y0.9560
G1 X1.4094 Y0.9811
G1 X1.4161 Y1.0079
G1 X1.4200 Y1.0303
G1 X1.4222 Y1.0556
G1 X1.4225 Y1.0807
G1 X1.4208 Y1.1051
G1 X1.4178 Y1.1299
G1 X1.4114 Y1.1607
G1 X1.4043 Y1.1865
G1 X1.3952 Y1.2126
G1 X1.3826 Y1.2382
G1 X1.3725 Y1.2562
G1 X1.3585 Y1.2768
G1 X1.3438 Y1.2963
G1 X1.3236 Y1.3187
G1 X1.3046 Y1.3369
G1 X1.2840 Y1.3541
G1 X1.2613 Y1.3703
G1 X1.2384 Y1.3844
G1 X1.2143 Y1.3969
G1 X1.1887 Y1.4067
G1 X1.1683 Y1.4131
G1 X1.1439 Y1.4186
G1 X1.1198 Y1.4230
G1 X1.0883 Y1.4259
G1 X1.0615 Y1.4267
G1 X1.0340 Y1.4257
G1 X1.0049 Y1.4225
G1 X0.9776 Y1.4163
G1 X0.9564 Y1.4104
G1 X0.9321 Y1.4013
G1 X0.9092 Y1.3915
G1 X0.8812 Y1.3767
G1 X0.8580 Y1.3622
G1 X0.8364 Y1.3450
G1 X0.8204 Y1.3307
G1 X0.8027 Y1.3130
G1 X0.7827 Y1.2901
G1 X0.7643 Y1.2655
G1 X0.7498 Y1.2411
G1 X0.7397 Y1.2219
G1 X0.7296 Y1.1978
G1 X0.7212 Y1.1740
G1 X0.7136 Y1.1454
G1 X0.7084 Y1.1188
G1 X0.7050 Y1.0918
G1 X0.7037 Y1.0640
G1 X0.7042 Y1.0369
G1 X0.7067 Y1.0096
G1 X0.7111 Y0.9825
G1 X0.7175 Y0.9560
G1 X0.7259 Y0.9299
G1 X0.7370 Y0.9048
G1 X0.7468 Y0.8856
G1 X0.7601 Y0.8642
G1 X0.7736 Y0.8440
G1 X0.7926 Y0.8189
G1 X0.8135 Y0.7953
G1 X0.8361 Y0.7734
G1 X0.8553 Y0.7566
G1 X0.8799 Y0.7382
G1 X0.9045 Y0.7224
G1 X0.9299 Y0.7099
G1 X0.9493 Y0.7015
G1 X0.9734 Y0.6927
G1 X1.0032 Y0.6841
G1 X1.0340 Y0.6774
G1 X1.0627 Y0.6730
G1 X1.0933 Y0.6718
G1 X1.1149 Y0.6720
G1 X1.1415 Y0.6745
G1 X1.1671 Y0.6781
G1 X1.1976 Y0.6850
G1 X1.2247 Y0.6929
G1 X1.2515 Y0.7028
G1 X1.2788 Y0.7151
G1 X1.3044 Y0.7286
G1 X1.3282 Y0.7451
G1 X1.3450 Y0.7579
G1 X1.3639 Y0.7751
G1 X1.3816 Y0.7926
G1 X1.4021 Y0.8164
G1 X1.4188 Y0.8388
G1 X1.4345 Y0.8627
G1 X1.4493 Y0.8893
G1 X1.4616 Y0.9154
G1 X1.4724 Y0.9427
G1 X1.4813 Y0.9707
G1 X1.4882 Y0.9990
G1 X1.4931 Y1.0765
G1 X1.4872 Y1.1393
G1 X1.4774 Y1.1845
G1 X1.4685 Y1.2148
G1 X1.4564 Y1.2438
G1 X1.4471 Y1.2648
G1 X1.4321 Y1.2923
G1 X1.4158 Y1.3172
G1 X1.3994 Y1.3398
G1 X1.3799 Y1.3629
G1 X1.3595 Y1.3841
G1 X1.3378 Y1.4038
G1 X1.3140 Y1.4213
G1 X1.2948 Y1.4338
G1 X1.2712 Y1.4466
G1 X1.2478 Y1.4582
G1 X1.2185 Y1.4697
G1 X1.1909 Y1.4786
G1 X1.1624 Y1.4862
G1 X1.0797 Y1.4963
G1 X1.0207 Y1.4946
G1 X0.9695 Y1.4867
G1 X0.9272 Y1.4759
G1 X0.8976 Y1.4643
G1 X0.8735 Y1.4528
G1 X0.8511 Y1.4412
G1 X0.8246 Y1.4242
G1 X0.8017 Y1.4075
G1 X0.7793 Y1.3890
G1 X0.7574 Y1.3679
G1 X0.7377 Y1.3465
G1 X0.7192 Y1.3236
G1 X0.7023 Y1.2992
G1 X0.6870 Y1.2741
G1 X0.6735 Y1.2480
G1 X0.6617 Y1.2210
G1 X0.6516 Y1.1932
G1 X0.6435 Y1.1649
G1 X0.6373 Y1.1361
G1 X0.6331 Y1.1070
G1 X0.6307 Y1.0778
G1 X0.6302 Y1.0485
G1 X0.6316 Y1.0192
G1 X0.6351 Y0.9899
G1 X0.6405 Y0.9611
G1 X0.6479 Y0.9326
G1 X0.6570 Y0.9048
G1 X0.6681 Y0.8775
G1 X0.7023 Y0.8093
G1 X0.7463 Y0.7539
G1 X0.8263 Y0.6725
G1 X0.8447 Y0.6582
G1 X0.9035 Y0.6294
G1 X0.9333 Y0.6198
G1 X0.9636 Y0.6117
G1 X0.9943 Y0.6051
G1 X1.0253 Y0.5994
G1 X1.0566 Y0.5955
G1 X1.0878 Y0.5950
G1 X1.1125 Y0.5952
G1 X1.1437 Y0.5977
G1 X1.1747 Y0.6026
G1 X1.2040 Y0.6085
G1 X1.2343 Y0.6169
G1 X1.2638 Y0.6272
G1 X1.2926 Y0.6390
G1 X1.3206 Y0.6528
G1 X1.3479 Y0.6683
G1 X1.3740 Y0.6855
G1 X1.3981 Y0.7055
G1 X1.4154 Y0.7210
G1 X1.4348 Y0.7414
G1 X1.4530 Y0.7616
G1 X1.4719 Y0.7864
G1 X1.5071 Y0.8413
G1 X1.5157 Y0.8580
G1 X1.5229 Y0.8836
G1 X1.5217 Y1.2195
G1 X1.5172 Y1.2490
G1 X1.4985 Y1.2995
G1 X1.4695 Y1.3548
G1 X1.4523 Y1.3812
G1 X1.4326 Y1.4058
G1 X1.4161 Y1.4240
G1 X1.3974 Y1.4424
G1 X1.3755 Y1.4621
G1 X1.3504 Y1.4813
G1 X1.3253 Y1.4983
G1 X1.2894 Y1.5153
G1 X1.2584 Y1.5236
G1 X0.9080 Y1.5219
G1 X0.8686 Y1.5148
G1 X0.8157 Y1.4938
G1 X0.7972 Y1.4840
G1 X0.7702 Y1.4678
G1 X0.7446 Y1.4491
G1 X0.7205 Y1.4289
G1 X0.7010 Y1.4114
G1 X0.6794 Y1.3883
G1 X0.6599 Y1.3649
G1 X0.6420 Y1.3406
G1 X0.6250 Y1.3140
G1 X0.6102 Y1.2872
G1 X0.5969 Y1.2594
G1 X0.5854 Y1.2303
G1 X0.5758 Y1.2010
G1 X0.5679 Y1.1710
G1 X0.5620 Y1.1407
G1 X0.5581 Y1.1100
G1 X0.5561 Y1.0792
G1 X0.5551 Y1.0485
G1 X0.5566 Y1.0170
G1 X0.5598 Y0.9855
G1 X0.5645 Y0.9542
G1 X0.5760 Y0.9035
G1 X0.5827 Y0.8893
G1 X0.5849 Y0.8858
G1 X0.5878 Y0.8831
G1 X0.5878 Y0.8831
G1 X0.5891 Y0.8829
G1 X0.5893 Y0.8831
G1 X0.5908 Y0.8809
G1 X0.5908 Y0.8809
G1 X0.6260 Y0.8563
G1 X0.6260 Y0.8563
G1 X0.6385 Y0.8497
G1 X0.6474 Y0.8474
G1 X0.6567 Y0.8467
G0 X0.6617 Y0.8469
G0 X0.7138 Y0.8548
G0 X0.7183 Y0.8546
G0 X0.7222 Y0.8533
G0 X0.7261 Y0.8514
G0 X0.7972 Y0.7736
G0 X0.8000 Y0.7699
G0 X0.8034 Y0.7613
G0 X0.8061 Y0.7370
G1 X0.8066 Y0.7318
G1 X0.8091 Y0.6998
G1 X0.8113 Y0.6905
G1 X0.8196 Y0.6735
G1 X0.8196 Y0.6735
G1 X0.8910 Y0.5819
G1 X0.9050 Y0.5684
G1 X0.9390 Y0.5492
G1 X0.9606 Y0.5401
G1 X0.9911 Y0.5325
G1 X1.0221 Y0.5268
G1 X1.0517 Y0.5231
G1 X1.0802 Y0.5214
G1 X1.1115 Y0.5207
G1 X1.1427 Y0.5221
G1 X1.1740 Y0.5253
G1 X1.2050 Y0.5303
G1 X1.2355 Y0.5369
G1 X1.2657 Y0.5453
G1 X1.2955 Y0.5554
G1 X1.3246 Y0.5672
G1 X1.3529 Y0.5805
G1 X1.3797 Y0.5965
G1 X1.4008 Y0.6105
G1 X1.4257 Y0.6292
G1 X1.4488 Y0.6481
G1 X1.4717 Y0.6695
G1 X1.5153 Y0.7178
G1 X1.5234 Y0.7347
G1 X1.5234 Y0.8418
G1 X1.5234 Y0.8418
G1 X1.5209 Y0.8556
G1 X1.5175 Y0.8644
G1 X1.5153 Y0.8681
G1 X1.5123 Y0.8708
G0 X1.5089 Y0.8720
G0 X1.5052 Y0.8723
G0 X1.4970 Y0.8706
G0 X0.9131 Y0.6235
G1 X0.9067 Y0.6208
G1 X0.8962 Y0.6159
G1 X0.8920 Y0.6132
G1 X0.8888 Y0.6097
G1 X0.8868 Y0.6058
G1 X0.8856 Y0.6016
G1 X0.8856 Y0.5925
G1 X0.8880 Y0.5837
G1 X0.8915 Y0.5748
G1 X0.8915 Y0.5748
G1 X0.9279 Y0.5172
G1 X0.9456 Y0.4963
G1 X0.9547 Y0.4889
G1 X0.9855 Y0.4724
G1 X0.9963 Y0.4680
G1 X1.0266 Y0.4599
G1 X1.0576 Y0.4545
G1 X1.0854 Y0.4510
G1 X1.1125 Y0.4493
G1 X1.1437 Y0.4488
G1 X1.1750 Y0.4505
G1 X1.2062 Y0.4540
G1 X1.2372 Y0.4589
G1 X1.2677 Y0.4658
G1 X1.2977 Y0.4744
G1 X1.3273 Y0.4847
G1 X1.3561 Y0.4968
G1 X1.3841 Y0.5106
G1 X1.4114 Y0.5258
G1 X1.4377 Y0.5428
G1 X1.5081 Y0.5969
G1 X1.5135 Y0.6024
G1 X1.5212 Y0.6152
G1 X1.5226 Y0.6186
G1 X1.5234 Y0.6223
G1 X1.5234 Y0.6740
G1 X1.5234 Y0.6740
G1 X1.5209 Y0.6877
G1 X1.5175 Y0.6966
G1 X1.5153 Y0.7003
G1 X1.5123 Y0.7030
G0 X1.5089 Y0.7047
G0 X1.5049 Y0.7052
G0 X1.4921 Y0.7032
G0 X0.9601 Y0.5477
G1 X0.9537 Y0.5458
G1 X0.9427 Y0.5421
G1 X0.9380 Y0.5399
G1 X0.9345 Y0.5369
G1 X0.9323 Y0.5332
G1 X0.9309 Y0.5293
G1 X0.9301 Y0.5202
G1 X0.9345 Y0.5022
G1 X0.9345 Y0.5022
G1 X0.9653 Y0.4461
G1 X0.9744 Y0.4333
G1 X0.9825 Y0.4247
G1 X1.0057 Y0.4099
G1 X1.0263 Y0.3996
G1 X1.0563 Y0.3903
G1 X1.0866 Y0.3836
G1 X1.1105 Y0.3804
G1 X1.1326 Y0.3782
G1 X1.1639 Y0.3770
G1 X1.1951 Y0.3784
G1 X1.2242 Y0.3812
G1 X1.2552 Y0.3858
G1 X1.2859 Y0.3920
G1 X1.3162 Y0.4001
G1 X1.3460 Y0.4097
G1 X1.3752 Y0.4208
G1 X1.4038 Y0.4336
G1 X1.4316 Y0.4478
G1 X1.4587 Y0.4636
G1 X1.5034 Y0.4936
G1 X1.5150 Y0.5034
G1 X1.5226 Y0.5162
G1 X1.5234 Y0.5199
G1 X1.5234 Y0.5642
G1 X1.5234 Y0.5642
G1 X1.5209 Y0.5780
G1 X1.5175 Y0.5869
G1 X1.5153 Y0.5906
G1 X1.5123 Y0.5935
G0 X1.5089 Y0.5952
G0 X1.5049 Y0.5960
G0 X1.4919 Y0.5945
G0 X0.9941 Y0.4786
G1 X0.9877 Y0.4771
G1 X0.9766 Y0.4742
G1 X0.9722 Y0.4719
G1 X0.9685 Y0.4692
G1 X0.9660 Y0.4658
G1 X0.9646 Y0.4616
G1 X0.9636 Y0.4528
G1 X0.9651 Y0.4437
G1 X0.9678 Y0.4348
G1 X0.9678 Y0.4348
G1 X0.9867 Y0.3907
G1 X0.9988 Y0.3703
G1 X1.0116 Y0.3553
G1 X1.0411 Y0.3361
G1 X1.0514 Y0.3310
G1 X1.0814 Y0.3214
G1 X1.1122 Y0.3147
G1 X1.1363 Y0.3105
G1 X1.1641 Y0.3078
G1 X1.1929 Y0.3073
G1 X1.2197 Y0.3078
G1 X1.2510 Y0.3100
G1 X1.2820 Y0.3145
G1 X1.3127 Y0.3201
G1 X1.3433 Y0.3275
G1 X1.3733 Y0.3369
G1 X1.4028 Y0.3477
G1 X1.4316 Y0.3602
G1 X1.4596 Y0.3743
G1 X1.5062 Y0.4021
G1 X1.5150 Y0.4090
G1 X1.5214 Y0.4183
G1 X1.5231 Y0.4218
G1 X1.5234 Y0.4624
G1 X1.5234 Y0.4624
G1 X1.5209 Y0.4761
G1 X1.5175 Y0.4850
G1 X1.5153 Y0.4887
G1 X1.5123 Y0.4916
G0 X1.5086 Y0.4934
G0 X1.5049 Y0.4943
G0 X1.4916 Y0.4936
G0 X1.0271 Y0.4077
G1 X1.0207 Y0.4067
G1 X1.0094 Y0.4043
G1 X1.0047 Y0.4023
G1 X1.0010 Y0.3999
G1 X0.9983 Y0.3964
G1 X0.9963 Y0.3925
G1 X0.9943 Y0.3836
G1 X0.9958 Y0.3652
G1 X0.9958 Y0.3652
G1 X1.0128 Y0.3201
G1 X1.0268 Y0.2965
G1 X1.0349 Y0.2881
G1 X1.0679 Y0.2667
G1 X1.0974 Y0.2559
G1 X1.1272 Y0.2478
G1 X1.1503 Y0.2431
G1 X1.1742 Y0.2394
G1 X1.2055 Y0.2367
G1 X1.2367 Y0.2362
G1 X1.2662 Y0.2372
G1 X1.2975 Y0.2404
G1 X1.3285 Y0.2456
G1 X1.3588 Y0.2525
G1 X1.3888 Y0.2613
G1 X1.4186 Y0.2712
G1 X1.4476 Y0.2830
G1 X1.4759 Y0.2963
G1 X1.5123 Y0.3189
G1 X1.5153 Y0.3214
G1 X1.5217 Y0.3307
G1 X1.5234 Y0.3342
G1 X1.5234 Y0.3674
G1 X1.5234 Y0.3674
G1 X1.5209 Y0.3812
G1 X1.5175 Y0.3900
G1 X1.5153 Y0.3937
G1 X1.5123 Y0.3967
G0 X1.5086 Y0.3986
G0 X1.5047 Y0.3996
G0 X1.4914 Y0.3996
G0 X1.0500 Y0.3435
G1 X1.0436 Y0.3428
G1 X1.0322 Y0.3408
G1 X1.0273 Y0.3393
G1 X1.0234 Y0.3369
G1 X1.0204 Y0.3337
G1 X1.0185 Y0.3300
G1 X1.0160 Y0.3211
G1 X1.0165 Y0.3027
G1 X1.0165 Y0.3027
G1 X1.0182 Y0.2990
G1 X1.0281 Y0.2640
G1 X1.0359 Y0.2456
G1 X1.0421 Y0.2352
G1 X1.0500 Y0.2264
G1 X1.0782 Y0.2055
G1 X1.0817 Y0.2035
G1 X1.1105 Y0.1907
G1 X1.1403 Y0.1811
G1 X1.1634 Y0.1752
G1 X1.1882 Y0.1705
G1 X1.2158 Y0.1668
G1 X1.2470 Y0.1654
G1 X1.2751 Y0.1656
G1 X1.3044 Y0.1678
G1 X1.3344 Y0.1710
G1 X1.3652 Y0.1767
G1 X1.3957 Y0.1841
G1 X1.4257 Y0.1929
G1 X1.4552 Y0.2037
G1 X1.4840 Y0.2160
G1 X1.5135 Y0.2350
G1 X1.5185 Y0.2406
G1 X1.5224 Y0.2470
G1 X1.5234 Y0.2507
G1 X1.5234 Y0.2840
G1 X1.5234 Y0.2840
G1 X1.5209 Y0.2977
G1 X1.5175 Y0.3066
G1 X1.5153 Y0.3103
G1 X1.5121 Y0.3135
G0 X1.5086 Y0.3155
G0 X1.5047 Y0.3167
G0 X1.4914 Y0.3172
G0 X1.0664 Y0.2864
G1 X1.0600 Y0.2862
G1 X1.0487 Y0.2849
G1 X1.0438 Y0.2837
G1 X1.0399 Y0.2815
G1 X1.0367 Y0.2785
G1 X1.0342 Y0.2746
G1 X1.0325 Y0.2697
G1 X1.0310 Y0.2589
G1 X1.0310 Y0.2483
G1 X1.0310 Y0.2483
G1 X1.0433 Y0.1973
G1 X1.0524 Y0.1754
G1 X1.0591 Y0.1654
G1 X1.0768 Y0.1496
G1 X1.0933 Y0.1390
G1 X1.1213 Y0.1250
G1 X1.1508 Y0.1142
G1 X1.1801 Y0.1065
G1 X1.2023 Y0.1021
G1 X1.2266 Y0.0982
G1 X1.2579 Y0.0952
G1 X1.2891 Y0.0945
G1 X1.3199 Y0.0952
G1 X1.3511 Y0.0979
G1 X1.3821 Y0.1026
G1 X1.4129 Y0.1090
G1 X1.4432 Y0.1174
G1 X1.4722 Y0.1292
G1 X1.5017 Y0.1449
G1 X1.5143 Y0.1535
G1 X1.5209 Y0.1624
G1 X1.5226 Y0.1658
G1 X1.5234 Y0.1695
G1 X1.5234 Y0.2028
G1 X1.5234 Y0.2028
G1 X1.5209 Y0.2165
G1 X1.5175 Y0.2254
G1 X1.5153 Y0.2291
G1 X1.5121 Y0.2323
G0 X1.5086 Y0.2345
G0 X1.5002 Y0.2365
G0 X1.4823 Y0.2365
G0 X1.0827 Y0.2212
G1 X1.0763 Y0.2210
G1 X1.0650 Y0.2202
G1 X1.0600 Y0.2190
G1 X1.0559 Y0.2170
G1 X1.0524 Y0.2141
G1 X1.0497 Y0.2106
G1 X1.0463 Y0.2025
G1 X1.0448 Y0.1934
G1 X1.0445 Y0.1841
G1 X1.0445 Y0.1841
G1 X1.0534 Y0.1368
G1 X1.0605 Y0.1181
G1 X1.0669 Y0.1080
G1 X1.0906 Y0.0874
G1 X1.1001 Y0.0807
G1 X1.1270 Y0.0640
G1 X1.1555 Y0.0507
G1 X1.1816 Y0.0413
G1 X1.2028 Y0.0359
G1 X1.2222 Y0.0317
G1 X1.2527 Y0.0266
G1 X1.2840 Y0.0234
G1 X1.3152 Y0.0219
G1 X1.3465 Y0.0221
G1 X1.3999 Y0.0295
G1 X1.4289 Y0.0364
G1 X1.4562 Y0.0453
G1 X1.4811 Y0.0551
G1 X1.5057 Y0.0691
G1 X1.5148 Y0.0758
G1 X1.5214 Y0.0846
G1 X1.5231 Y0.0881
G1 X1.5234 Y0.1176
G1 X1.5234 Y0.1176
G1 X1.5209 Y0.1314
G1 X1.5175 Y0.1403
G1 X1.5153 Y0.1439
G1 X1.5121 Y0.1471
G0 X1.5086 Y0.1496
G0 X1.5005 Y0.1518
G0 X1.4823 Y0.1531
G0 X1.0923 Y0.1631
G1 X1.0859 Y0.1634
G1 X1.0746 Y0.1631
G1 X1.0694 Y0.1624
G1 X1.0652 Y0.1607
G1 X1.0618 Y0.1580
G1 X1.0591 Y0.1548
G1 X1.0554 Y0.1467
G1 X1.0536 Y0.1375
G1 X1.0531 Y0.1282
G1 X1.0531 Y0.1282
G1 X1.0598 Y0.0810
G1 X1.0657 Y0.0618
G1 X1.0716 Y0.0514
G1 X1.1026 Y0.0217
G1 X1.1284 Y0.0037
G1 X1.1562 Y-0.0108
G1 X1.2020 Y-0.0293
G1 X1.2323 Y-0.0376
G1 X1.2586 Y-0.0431
G1 X1.2852 Y-0.0470
G1 X1.3137 Y-0.0487
G1 X1.3410 Y-0.0485
G1 X1.3686 Y-0.0465
G1 X1.3964 Y-0.0436
G1 X1.4272 Y-0.0376
G1 X1.4569 Y-0.0303
G1 X1.4860 Y-0.0182
G1 X1.5150 Y0.0007
G1 X1.5217 Y0.0098
G1 X1.5234 Y0.0133
G1 X1.5234 Y0.0687
G1 X1.5234 Y0.0687
G1 X1.5209 Y0.0824
G1 X1.5175 Y0.0913
G1 X1.5150 Y0.0950
G1 X1.5121 Y0.0982
G0 X1.5086 Y0.1004
G0 X1.5002 Y0.1029
G0 X1.4823 Y0.1036
G0 X1.0994 Y0.1073
G1 X1.0930 Y0.1075
G1 X1.0817 Y0.1073
G1 X1.0765 Y0.1063
G1 X1.0721 Y0.1046
G1 X1.0687 Y0.1019
G1 X1.0657 Y0.0987
G1 X1.0615 Y0.0906
G1 X1.0593 Y0.0817
G1 X1.0583 Y0.0723
G1 X1.0583 Y0.0723
G1 X1.0618 Y0.0290
G1 X1.0677 Y0.0054
G1 X1.0706 Y-0.0017
G1 X1.0891 Y-0.0253
G1 X1.0999 Y-0.0362
G1 X1.1243 Y-0.0556
G1 X1.1508 Y-0.0721
G1 X1.1703 Y-0.0819
G1 X1.1890 Y-0.0901
G1 X1.2124 Y-0.0989
G1 X1.2426 Y-0.1070
G1 X1.2672 Y-0.1120
G1 X1.2943 Y-0.1156
G1 X1.3226 Y-0.1184
G1 X1.3538 Y-0.1188
G1 X1.3841 Y-0.1176
G1 X1.4154 Y-0.1144
G1 X1.4459 Y-0.1068
G1 X1.4643 Y-0.1014
G1 X1.4884 Y-0.0910
G1 X1.5145 Y-0.0743
G1 X1.5194 Y-0.0682
G1 X1.5231 Y-0.0610
G1 X1.5236 Y-0.0020
G1 X1.5236 Y-0.0020
G1 X1.5212 Y0.0118
G1 X1.5177 Y0.0207
G1 X1.5153 Y0.0244
G1 X1.5123 Y0.0276
G0 X1.5089 Y0.0300
G0 X1.5005 Y0.0325
G0 X1.4825 Y0.0340
G0 X1.1046 Y0.0490
G1 X1.0982 Y0.0492
G1 X1.0869 Y0.0492
G1 X1.0817 Y0.0485
G1 X1.0773 Y0.0470
G1 X1.0733 Y0.0445
G1 X1.0701 Y0.0413
G1 X1.0655 Y0.0337
G1 X1.0605 Y0.0160
G1 X1.0605 Y0.0160
G1 X1.0613 Y-0.0293
G1 X1.0659 Y-0.0551
G1 X1.0704 Y-0.0657
G1 X1.0938 Y-0.0950
G1 X1.1203 Y-0.1181
G1 X1.1464 Y-0.1353
G1 X1.1636 Y-0.1449
G1 X1.1831 Y-0.1540
G1 X1.2052 Y-0.1634
G1 X1.2352 Y-0.1727
G1 X1.2603 Y-0.1789
G1 X1.2876 Y-0.1838
G1 X1.3167 Y-0.1877
G1 X1.3479 Y-0.1897
G1 X1.3792 Y-0.1900
G1 X1.4104 Y-0.1863
G1 X1.4313 Y-0.1828
G1 X1.4579 Y-0.1764
G1 X1.4828 Y-0.1678
G1 X1.5047 Y-0.1560
G1 X1.5143 Y-0.1491
G1 X1.5192 Y-0.1430
G1 X1.5231 Y-0.1361
G1 X1.5236 Y-0.0888
G1 X1.5236 Y-0.0888
G1 X1.5212 Y-0.0743
G1 X1.5177 Y-0.0655
G1 X1.5155 Y-0.0615
G1 X1.5123 Y-0.0581
G0 X1.5089 Y-0.0556
G0 X1.5007 Y-0.0527
G0 X1.4828 Y-0.0504
G0 X1.1046 Y-0.0175
G1 X1.0984 Y-0.0170
G1 X1.0871 Y-0.0162
G1 X1.0819 Y-0.0167
G1 X1.0773 Y-0.0182
G1 X1.0733 Y-0.0204
G1 X1.0701 Y-0.0236
G1 X1.0650 Y-0.0312
G1 X1.0618 Y-0.0401
G1 X1.0595 Y-0.0495
G1 X1.0595 Y-0.0495
G1 X1.0593 Y-0.1011
G1 X1.0627 Y-0.1196
G1 X1.0741 Y-0.1393
G1 X1.0906 Y-0.1592
G1 X1.1137 Y-0.1804
G1 X1.1388 Y-0.1991
G1 X1.1607 Y-0.2119
G1 X1.1774 Y-0.2207
G1 X1.2010 Y-0.2313
G1 X1.2293 Y-0.2416
G1 X1.2586 Y-0.2500
G1 X1.2867 Y-0.2562
G1 X1.3159 Y-0.2606
G1 X1.3455 Y-0.2630
G1 X1.3748 Y-0.2635
G1 X1.4043 Y-0.2608
G1 X1.4264 Y-0.2576
G1 X1.4525 Y-0.2517
G1 X1.4771 Y-0.2438
G1 X1.4993 Y-0.2325
G1 X1.5153 Y-0.2215
G1 X1.5219 Y-0.2119
G1 X1.5236 Y-0.2082
G1 X1.5236 Y-0.1609
G1 X1.5236 Y-0.1609
G1 X1.5212 Y-0.1464
G1 X1.5177 Y-0.1375
G1 X1.5155 Y-0.1336
G1 X1.5123 Y-0.1302
G0 X1.5089 Y-0.1275
G0 X1.5007 Y-0.1245
G0 X1.4828 Y-0.1216
G0 X1.1029 Y-0.0755
G1 X1.0965 Y-0.0748
G1 X1.0851 Y-0.0736
G1 X1.0800 Y-0.0741
G1 X1.0753 Y-0.0753
G1 X1.0714 Y-0.0773
G1 X1.0679 Y-0.0802
G1 X1.0623 Y-0.0876
G1 X1.0556 Y-0.1056
G1 X1.0556 Y-0.1056
G1 X1.0512 Y-0.1462
G1 X1.0527 Y-0.1720
G1 X1.0556 Y-0.1831
G1 X1.0785 Y-0.2178
G1 X1.1001 Y-0.2404
G1 X1.1225 Y-0.2594
G1 X1.1388 Y-0.2707
G1 X1.1750 Y-0.2911
G1 X1.2035 Y-0.3041
G1 X1.2330 Y-0.3150
G1 X1.2606 Y-0.3236
G1 X1.2913 Y-0.3295
G1 X1.3140 Y-0.3327
G1 X1.3413 Y-0.3344
G1 X1.3681 Y-0.3349
G1 X1.3994 Y-0.3332
G1 X1.4286 Y-0.3297
G1 X1.4579 Y-0.3221
G1 X1.4764 Y-0.3164
G1 X1.4993 Y-0.3056
G1 X1.5153 Y-0.2948
G1 X1.5202 Y-0.2884
G1 X1.5236 Y-0.2812
G1 X1.5236 Y-0.2379
G1 X1.5236 Y-0.2379
G1 X1.5212 Y-0.2234
G1 X1.5177 Y-0.2146
G1 X1.5155 Y-0.2104
G1 X1.5125 Y-0.2072
G0 X1.5089 Y-0.2045
G0 X1.5007 Y-0.2010
G0 X1.4828 Y-0.1973
G0 X1.0969 Y-0.1339
G1 X1.0908 Y-0.1329
G1 X1.0795 Y-0.1314
G1 X1.0743 Y-0.1314
G1 X1.0696 Y-0.1324
G1 X1.0655 Y-0.1344
G1 X1.0618 Y-0.1371
G1 X1.0559 Y-0.1439
G1 X1.0482 Y-0.1614
G1 X1.0482 Y-0.1614
G1 X1.0411 Y-0.2168
G1 X1.0426 Y-0.2352
G1 X1.0445 Y-0.2426
G1 X1.0571 Y-0.2657
G1 X1.0657 Y-0.2783
G1 X1.0869 Y-0.3014
G1 X1.1088 Y-0.3216
G1 X1.1275 Y-0.3356
G1 X1.1442 Y-0.3465
G1 X1.1646 Y-0.3585
G1 X1.1927 Y-0.3723
G1 X1.2217 Y-0.3841
G1 X1.2493 Y-0.3925
G1 X1.2719 Y-0.3979
G1 X1.2990 Y-0.4021
G1 X1.3253 Y-0.4053
G1 X1.3565 Y-0.4065
G1 X1.3863 Y-0.4058
G1 X1.4168 Y-0.4035
G1 X1.4476 Y-0.3971
G1 X1.4675 Y-0.3912
G1 X1.4938 Y-0.3804
G1 X1.5135 Y-0.3676
G1 X1.5165 Y-0.3649
G1 X1.5224 Y-0.3548
G1 X1.5236 Y-0.3511
G1 X1.5236 Y-0.2881
G1 X1.5236 Y-0.2881
G1 X1.5212 Y-0.2736
G1 X1.5177 Y-0.2648
G1 X1.5155 Y-0.2608
G1 X1.5125 Y-0.2574
G0 X1.5089 Y-0.2547
G0 X1.5007 Y-0.2517
G0 X1.4828 Y-0.2488
G0 X1.0876 Y-0.1986
G1 X1.0812 Y-0.1978
G1 X1.0699 Y-0.1966
G1 X1.0647 Y-0.1969
G1 X1.0598 Y-0.1978
G1 X1.0556 Y-0.1998
G1 X1.0517 Y-0.2025
G1 X1.0453 Y-0.2092
G1 X1.0364 Y-0.2261
G1 X1.0364 Y-0.2261
G1 X1.0281 Y-0.2667
G1 X1.0276 Y-0.2889
G1 X1.0298 Y-0.3000
G1 X1.0487 Y-0.3364
G1 X1.0687 Y-0.3605
G1 X1.0891 Y-0.3804
G1 X1.1046 Y-0.3935
G1 X1.1220 Y-0.4067
G1 X1.1459 Y-0.4225
G1 X1.1725 Y-0.4368
G1 X1.1964 Y-0.4478
G1 X1.2229 Y-0.4579
G1 X1.2500 Y-0.4660
G1 X1.2771 Y-0.4722
G1 X1.3049 Y-0.4764
G1 X1.3327 Y-0.4786
G1 X1.3605 Y-0.4788
G1 X1.3883 Y-0.4781
G1 X1.4195 Y-0.4749
G1 X1.4493 Y-0.4685
G1 X1.4707 Y-0.4616
G1 X1.4897 Y-0.4542
G1 X1.5128 Y-0.4397
G1 X1.5157 Y-0.4370
G1 X1.5224 Y-0.4269
G1 X1.5236 Y-0.4232
G1 X1.5236 Y-0.3602
G1 X1.5236 Y-0.3602
G1 X1.5212 Y-0.3457
G1 X1.5177 Y-0.3369
G1 X1.5155 Y-0.3327
G1 X1.5125 Y-0.3295
G0 X1.5089 Y-0.3268
G0 X1.5007 Y-0.3233
G0 X1.4825 Y-0.3199
G0 X1.0750 Y-0.2554
G1 X1.0687 Y-0.2544
G1 X1.0573 Y-0.2530
G1 X1.0519 Y-0.2530
G1 X1.0472 Y-0.2537
G1 X1.0428 Y-0.2554
G1 X1.0389 Y-0.2579
G1 X1.0322 Y-0.2643
G1 X1.0229 Y-0.2808
G1 X1.0229 Y-0.2808
G1 X1.0118 Y-0.3250
G1 X1.0103 Y-0.3435
G1 X1.0118 Y-0.3546
G1 X1.0288 Y-0.3922
G1 X1.0472 Y-0.4176
G1 X1.0682 Y-0.4409
G1 X1.0849 Y-0.4560
G1 X1.1184 Y-0.4813
G1 X1.1449 Y-0.4978
G1 X1.1727 Y-0.5123
G1 X1.1988 Y-0.5241
G1 X1.2281 Y-0.5337
G1 X1.2498 Y-0.5396
G1 X1.2763 Y-0.5445
G1 X1.3024 Y-0.5485
G1 X1.3337 Y-0.5507
G1 X1.3632 Y-0.5509
G1 X1.3937 Y-0.5495
G1 X1.4250 Y-0.5458
G1 X1.4547 Y-0.5386
G1 X1.4751 Y-0.5317
G1 X1.4938 Y-0.5239
G1 X1.5135 Y-0.5111
G1 X1.5165 Y-0.5084
G1 X1.5226 Y-0.4983
G1 X1.5236 Y-0.4943
G1 X1.5236 Y-0.4274
G1 X1.5236 Y-0.4274
G1 X1.5212 Y-0.4129
G1 X1.5177 Y-0.4040
G1 X1.5155 Y-0.3999
G1 X1.5125 Y-0.3967
G0 X1.5089 Y-0.3939
G0 X1.5007 Y-0.3905
G0 X1.4825 Y-0.3866
G0 X1.0605 Y-0.3115
G1 X1.0544 Y-0.3105
G1 X1.0428 Y-0.3088
G1 X1.0376 Y-0.3086
G1 X1.0327 Y-0.3093
G1 X1.0283 Y-0.3108
G1 X1.0204 Y-0.3159
G1 X1.0140 Y-0.3226
G1 X1.0064 Y-0.3346
G1 X1.0064 Y-0.3346
G1 X0.9914 Y-0.3863
G1 X0.9902 Y-0.4011
G1 X0.9909 Y-0.4085
G1 X1.0022 Y-0.4405
G1 X1.0057 Y-0.4473
G1 X1.0229 Y-0.4734
G1 X1.0428 Y-0.4975
G1 X1.0593 Y-0.5143
G1 X1.0743 Y-0.5278
G1 X1.0938 Y-0.5436
G1 X1.1201 Y-0.5605
G1 X1.1420 Y-0.5731
G1 X1.1666 Y-0.5851
G1 X1.1929 Y-0.5952
G1 X1.2185 Y-0.6033
G1 X1.2448 Y-0.6107
G1 X1.2756 Y-0.6166
G1 X1.3054 Y-0.6206
G1 X1.3366 Y-0.6230
G1 X1.3679 Y-0.6233
G1 X1.3991 Y-0.6216
G1 X1.4301 Y-0.6166
G1 X1.4532 Y-0.6117
G1 X1.4801 Y-0.6024
G1 X1.5074 Y-0.5878
G1 X1.5165 Y-0.5802
G1 X1.5226 Y-0.5701
G1 X1.5236 Y-0.5662
G1 X1.5236 Y-0.5032
G1 X1.5236 Y-0.5032
G1 X1.5212 Y-0.4887
G1 X1.5177 Y-0.4798
G1 X1.5155 Y-0.4756
G1 X1.5125 Y-0.4722
G0 X1.5089 Y-0.4695
G0 X1.5007 Y-0.4658
G0 X1.4825 Y-0.4611
G0 X1.0423 Y-0.3664
G1 X1.0362 Y-0.3652
G1 X1.0246 Y-0.3629
G1 X1.0194 Y-0.3625
G1 X1.0145 Y-0.3629
G1 X1.0098 Y-0.3644
G1 X1.0020 Y-0.3691
G1 X0.9951 Y-0.3755
G1 X0.9872 Y-0.3875
G1 X0.9872 Y-0.3875
G1 X0.9719 Y-0.4279
G1 X0.9665 Y-0.4537
G1 X0.9663 Y-0.4611
G1 X0.9756 Y-0.4936
G1 X0.9801 Y-0.5039
G1 X0.9966 Y-0.5305
G1 X1.0106 Y-0.5500
G1 X1.0249 Y-0.5662
G1 X1.0391 Y-0.5810
G1 X1.0605 Y-0.6001
G1 X1.0839 Y-0.6176
G1 X1.1051 Y-0.6316
G1 X1.1292 Y-0.6452
G1 X1.1540 Y-0.6565
G1 X1.1789 Y-0.6658
G1 X1.2045 Y-0.6747
G1 X1.2345 Y-0.6833
G1 X1.2653 Y-0.6900
G1 X1.2963 Y-0.6954
G1 X1.3275 Y-0.6973
G1 X1.3526 Y-0.6981
G1 X1.3839 Y-0.6969
G1 X1.4146 Y-0.6932
G1 X1.4432 Y-0.6882
G1 X1.4722 Y-0.6786
G1 X1.5027 Y-0.6631
G1 X1.5153 Y-0.6540
G1 X1.5219 Y-0.6444
G1 X1.5236 Y-0.6407
G1 X1.5236 Y-0.5738
G1 X1.5236 Y-0.5738
G1 X1.5212 Y-0.5593
G1 X1.5177 Y-0.5504
G1 X1.5155 Y-0.5463
G1 X1.5125 Y-0.5428
G0 X1.5091 Y-0.5401
G0 X1.5010 Y-0.5362
G0 X1.4823 Y-0.5310
G0 X1.0226 Y-0.4210
G1 X1.0162 Y-0.4195
G1 X1.0049 Y-0.4171
G1 X0.9995 Y-0.4166
G1 X0.9946 Y-0.4166
G1 X0.9899 Y-0.4178
G1 X0.9815 Y-0.4220
G1 X0.9742 Y-0.4281
G1 X0.9656 Y-0.4395
G1 X0.9656 Y-0.4395
G1 X0.9481 Y-0.4779
G1 X0.9412 Y-0.5037
G1 X0.9405 Y-0.5148
G1 X0.9515 Y-0.5549
G1 X0.9663 Y-0.5824
G1 X0.9813 Y-0.6046
G1 X0.9938 Y-0.6206
G1 X1.0081 Y-0.6371
G1 X1.0303 Y-0.6590
G1 X1.0524 Y-0.6777
G1 X1.0743 Y-0.6929
G1 X1.0933 Y-0.7045
G1 X1.1156 Y-0.7170
G1 X1.1439 Y-0.7306
G1 X1.1730 Y-0.7421
G1 X1.2028 Y-0.7522
G1 X1.2330 Y-0.7606
G1 X1.2638 Y-0.7670
G1 X1.2950 Y-0.7707
G1 X1.3204 Y-0.7724
G1 X1.3509 Y-0.7731
G1 X1.3821 Y-0.7714
G1 X1.4126 Y-0.7682
G1 X1.4434 Y-0.7613
G1 X1.4653 Y-0.7552
G1 X1.4911 Y-0.7441
G1 X1.5138 Y-0.7288
G1 X1.5187 Y-0.7229
G1 X1.5224 Y-0.7158
G1 X1.5236 Y-0.7121
G1 X1.5236 Y-0.6452
G1 X1.5236 Y-0.6452
G1 X1.5212 Y-0.6307
G1 X1.5177 Y-0.6218
G1 X1.5155 Y-0.6176
G1 X1.5125 Y-0.6142
G0 X1.5091 Y-0.6112
G0 X1.5010 Y-0.6073
G0 X1.4823 Y-0.6016
G0 X0.9995 Y-0.4742
G1 X0.9931 Y-0.4724
G1 X0.9818 Y-0.4697
G1 X0.9764 Y-0.4690
G1 X0.9712 Y-0.4690
G1 X0.9665 Y-0.4700
G1 X0.9579 Y-0.4737
G1 X0.9503 Y-0.4796
G1 X0.9407 Y-0.4902
G1 X0.9407 Y-0.4902
G1 X0.9193 Y-0.5315
G1 X0.9119 Y-0.5536
G1 X0.9104 Y-0.5647
G1 X0.9124 Y-0.5795
G1 X0.9195 Y-0.6053
G1 X0.9328 Y-0.6336
G1 X0.9491 Y-0.6604
G1 X0.9624 Y-0.6784
G1 X0.9754 Y-0.6939
G1 X0.9921 Y-0.7119
G1 X1.0150 Y-0.7333
G1 X1.0391 Y-0.7525
G1 X1.0625 Y-0.7689
G1 X1.0883 Y-0.7847
G1 X1.1147 Y-0.7985
G1 X1.1417 Y-0.8105
G1 X1.1700 Y-0.8209
G1 X1.1986 Y-0.8292
G1 X1.2276 Y-0.8359
G1 X1.2569 Y-0.8415
G1 X1.2881 Y-0.8450
G1 X1.3194 Y-0.8467
G1 X1.3506 Y-0.8469
G1 X1.3819 Y-0.8452
G1 X1.4131 Y-0.8418
G1 X1.4437 Y-0.8346
G1 X1.4656 Y-0.8287
G1 X1.4924 Y-0.8172
G1 X1.5150 Y-0.8014
G1 X1.5197 Y-0.7953
G1 X1.5231 Y-0.7881
G1 X1.5236 Y-0.7173
G1 X1.5236 Y-0.7173
G1 X1.5212 Y-0.7028
G1 X1.5177 Y-0.6939
G1 X1.5155 Y-0.6897
G1 X1.5125 Y-0.6863
G0 X1.5091 Y-0.6833
G0 X1.5010 Y-0.6794
G0 X1.4818 Y-0.6735
G0 X0.9680 Y-0.5332
G1 X0.9616 Y-0.5315
G1 X0.9500 Y-0.5285
G1 X0.9446 Y-0.5278
G1 X0.9395 Y-0.5278
G1 X0.9348 Y-0.5285
G1 X0.9259 Y-0.5317
G1 X0.9181 Y-0.5372
G1 X0.9082 Y-0.5472
G1 X0.9082 Y-0.5472
G1 X0.8890 Y-0.5807
G1 X0.8819 Y-0.5987
G1 X0.8794 Y-0.6097
G1 X0.8814 Y-0.6356
G1 X0.8856 Y-0.6540
G1 X0.8971 Y-0.6831
G1 X0.9122 Y-0.7106
G1 X0.9237 Y-0.7283
G1 X0.9360 Y-0.7446
G1 X0.9510 Y-0.7630
G1 X0.9724 Y-0.7857
G1 X0.9956 Y-0.8068
G1 X1.0187 Y-0.8260
G1 X1.0450 Y-0.8433
G1 X1.0647 Y-0.8548
G1 X1.1144 Y-0.8784
G1 X1.1439 Y-0.8893
G1 X1.1737 Y-0.8994
G1 X1.2040 Y-0.9077
G1 X1.2347 Y-0.9141
G1 X1.2657 Y-0.9193
G1 X1.2970 Y-0.9227
G1 X1.3282 Y-0.9247
G1 X1.3595 Y-0.9235
G1 X1.3851 Y-0.9215
G1 X1.4161 Y-0.9171
G1 X1.4469 Y-0.9104
G1 X1.4747 Y-0.9003
G1 X1.4953 Y-0.8903
G1 X1.5145 Y-0.8762
G1 X1.5194 Y-0.8698
G1 X1.5231 Y-0.8627
G1 X1.5236 Y-0.7958
G1 X1.5236 Y-0.7958
G1 X1.5212 Y-0.7812
G1 X1.5177 Y-0.7724
G1 X1.5155 Y-0.7682
G1 X1.5125 Y-0.7648
G0 X1.5091 Y-0.7618
G0 X1.5010 Y-0.7574
G0 X1.4818 Y-0.7510
G0 X0.9375 Y-0.5822
G1 X0.9311 Y-0.5802
G1 X0.9195 Y-0.5770
G1 X0.9144 Y-0.5760
G1 X0.9092 Y-0.5758
G1 X0.9043 Y-0.5763
G1 X0.8954 Y-0.5795
G1 X0.8878 Y-0.5846
G1 X0.8777 Y-0.5947
G1 X0.8777 Y-0.5947
G1 X0.8565 Y-0.6275
G1 X0.8484 Y-0.6449
G1 X0.8442 Y-0.6597
G1 X0.8445 Y-0.6781
G1 X0.8492 Y-0.7040
G1 X0.8597 Y-0.7335
G1 X0.8738 Y-0.7616
G1 X0.8844 Y-0.7800
G1 X0.8974 Y-0.7992
G1 X0.9126 Y-0.8194
G1 X0.9338 Y-0.8425
G1 X0.9528 Y-0.8610
G1 X0.9739 Y-0.8789
G1 X0.9966 Y-0.8964
G1 X1.0229 Y-0.9136
G1 X1.0490 Y-0.9286
G1 X1.0768 Y-0.9424
G1 X1.1053 Y-0.9552
G1 X1.1346 Y-0.9660
G1 X1.1646 Y-0.9754
G1 X1.1949 Y-0.9833
G1 X1.2254 Y-0.9902
G1 X1.2564 Y-0.9951
G1 X1.2876 Y-0.9988
G1 X1.3189 Y-1.0012
G1 X1.3501 Y-1.0007
G1 X1.3784 Y-0.9993
G1 X1.4094 Y-0.9946
G1 X1.4341 Y-0.9894
G1 X1.4624 Y-0.9815
G1 X1.4894 Y-0.9695
G1 X1.5150 Y-0.9515
G1 X1.5217 Y-0.9417
G1 X1.5234 Y-0.9380
G1 X1.5236 Y-0.8711
G1 X1.5236 Y-0.8711
G1 X1.5212 Y-0.8565
G1 X1.5177 Y-0.8477
G1 X1.5155 Y-0.8435
G1 X1.5125 Y-0.8401
G0 X1.5091 Y-0.8371
G0 X1.5012 Y-0.8324
G0 X1.4815 Y-0.8253
G0 X0.9060 Y-0.6302
G1 X0.8994 Y-0.6280
G1 X0.8880 Y-0.6245
G1 X0.8826 Y-0.6233
G1 X0.8777 Y-0.6230
G1 X0.8728 Y-0.6233
G1 X0.8637 Y-0.6262
G1 X0.8558 Y-0.6309
G1 X0.8452 Y-0.6405
G1 X0.8452 Y-0.6405
G1 X0.8364 Y-0.6533
G1 X0.8223 Y-0.6720
G1 X0.8130 Y-0.6892
G1 X0.8093 Y-0.7003
G1 X0.8076 Y-0.7261
G1 X0.8098 Y-0.7483
G1 X0.8187 Y-0.7783
G1 X0.8300 Y-0.8049
G1 X0.8386 Y-0.8223
G1 X0.8492 Y-0.8413
G1 X0.8661 Y-0.8664
G1 X0.8846 Y-0.8898
G1 X0.9023 Y-0.9097
G1 X0.9230 Y-0.9299
G1 X0.9446 Y-0.9481
G1 X0.9670 Y-0.9646
G1 X0.9906 Y-0.9806
G1 X1.0180 Y-0.9961
G1 X1.0450 Y-1.0106
G1 X1.0736 Y-1.0236
G1 X1.1029 Y-1.0349
G1 X1.1326 Y-1.0450
G1 X1.1626 Y-1.0544
G1 X1.1932 Y-1.0618
G1 X1.2239 Y-1.0682
G1 X1.2549 Y-1.0733
G1 X1.2862 Y-1.0770
G1 X1.3174 Y-1.0780
G1 X1.3484 Y-1.0782
G1 X1.3797 Y-1.0765
G1 X1.4107 Y-1.0714
G1 X1.4338 Y-1.0657
G1 X1.4567 Y-1.0586
G1 X1.4818 Y-1.0482
G1 X1.5039 Y-1.0372
G1 X1.5133 Y-1.0300
G1 X1.5185 Y-1.0241
G1 X1.5236 Y-1.0135
G1 X1.5236 Y-0.9466
G1 X1.5236 Y-0.9466
G1 X1.5212 Y-0.9321
G1 X1.5177 Y-0.9232
G1 X1.5125 Y-0.9154
G0 X1.5091 Y-0.9124
G0 X1.5012 Y-0.9077
G0 X1.4813 Y-0.8999
G0 X0.8723 Y-0.6777
G1 X0.8656 Y-0.6752
G1 X0.8489 Y-0.6700
G1 X0.8438 Y-0.6695
G1 X0.8342 Y-0.6705
G1 X0.8253 Y-0.6737
G1 X0.8100 Y-0.6845
G1 X0.8100 Y-0.6845
G1 X0.7785 Y-0.7244
G1 X0.7714 Y-0.7382
G1 X0.7682 Y-0.7493
G1 X0.7667 Y-0.7788
G1 X0.7675 Y-0.7899
G1 X0.7749 Y-0.8204
G1 X0.7908 Y-0.8649
G1 X0.8049 Y-0.8930
G1 X0.8182 Y-0.9146
G1 X0.8322 Y-0.9350
G1 X0.8494 Y-0.9557
G1 X0.8671 Y-0.9742
G1 X0.8856 Y-0.9921
G1 X0.9092 Y-1.0128
G1 X0.9343 Y-1.0317
G1 X0.9601 Y-1.0495
G1 X0.9870 Y-1.0657
G1 X1.0148 Y-1.0802
G1 X1.0721 Y-1.1058
G1 X1.1014 Y-1.1171
G1 X1.1312 Y-1.1270
G1 X1.1612 Y-1.1358
G1 X1.1917 Y-1.1435
G1 X1.2224 Y-1.1499
G1 X1.2537 Y-1.1535
G1 X1.2837 Y-1.1562
G1 X1.3150 Y-1.1572
G1 X1.3462 Y-1.1562
G1 X1.3775 Y-1.1540
G1 X1.4082 Y-1.1484
G1 X1.4321 Y-1.1430
G1 X1.4621 Y-1.1341
G1 X1.4899 Y-1.1218
G1 X1.5123 Y-1.1063
G1 X1.5153 Y-1.1036
G1 X1.5217 Y-1.0935
G1 X1.5234 Y-1.0898
G1 X1.5236 Y-1.0189
G1 X1.5236 Y-1.0189
G1 X1.5212 Y-1.0044
G1 X1.5177 Y-0.9956
G1 X1.5125 Y-0.9877
G0 X1.5091 Y-0.9847
G0 X1.4970 Y-0.9781
G0 X0.8351 Y-0.7222
G1 X0.8285 Y-0.7197
G1 X0.8118 Y-0.7141
G1 X0.8019 Y-0.7131
G1 X0.7926 Y-0.7148
G1 X0.7840 Y-0.7185
G1 X0.7724 Y-0.7266
G1 X0.7724 Y-0.7266
G1 X0.7434 Y-0.7581
G1 X0.7323 Y-0.7744
G1 X0.7274 Y-0.7847
G1 X0.7234 Y-0.8068
G1 X0.7227 Y-0.8327
G1 X0.7286 Y-0.8634
G1 X0.7352 Y-0.8871
G1 X0.7419 Y-0.9060
G1 X0.7507 Y-0.9269
G1 X0.7655 Y-0.9535
G1 X0.7783 Y-0.9734
G1 X0.7926 Y-0.9941
G1 X0.8120 Y-1.0187
G1 X0.8332 Y-1.0418
G1 X0.8551 Y-1.0637
G1 X0.8787 Y-1.0844
G1 X0.9035 Y-1.1036
G1 X0.9294 Y-1.1213
G1 X0.9562 Y-1.1375
G1 X1.0121 Y-1.1661
G1 X1.0406 Y-1.1791
G1 X1.0699 Y-1.1905
G1 X1.0994 Y-1.2008
G1 X1.1294 Y-1.2099
G1 X1.1597 Y-1.2178
G1 X1.1902 Y-1.2244
G1 X1.2212 Y-1.2298
G1 X1.2522 Y-1.2340
G1 X1.2835 Y-1.2355
G1 X1.3145 Y-1.2362
G1 X1.3457 Y-1.2350
G1 X1.3770 Y-1.2320
G1 X1.4080 Y-1.2276
G1 X1.4382 Y-1.2197
G1 X1.4606 Y-1.2119
G1 X1.4818 Y-1.2032
G1 X1.5054 Y-1.1907
G1 X1.5145 Y-1.1833
G1 X1.5212 Y-1.1737
G1 X1.5229 Y-1.1700
G1 X1.5236 Y-1.1661
G1 X1.5236 Y-1.0992
G1 X1.5236 Y-1.0992
G1 X1.5212 Y-1.0846
G1 X1.5177 Y-1.0758
G1 X1.5125 Y-1.0679
G0 X1.5091 Y-1.0650
G0 X1.4973 Y-1.0578
G0 X0.7975 Y-0.7657
G1 X0.7906 Y-0.7630
G1 X0.7739 Y-0.7569
G1 X0.7638 Y-0.7554
G1 X0.7542 Y-0.7564
G1 X0.7453 Y-0.7596
G1 X0.7328 Y-0.7665
G1 X0.7328 Y-0.7665
G1 X0.6988 Y-0.7997
G1 X0.6870 Y-0.8152
G1 X0.6818 Y-0.8258
G1 X0.6764 Y-0.8553
G1 X0.6757 Y-0.8701
G1 X0.6801 Y-0.9011
G1 X0.6907 Y-0.9429
G1 X0.7015 Y-0.9702
G1 X0.7111 Y-0.9916
G1 X0.7259 Y-1.0187
G1 X0.7409 Y-1.0416
G1 X0.7569 Y-1.0632
G1 X0.7746 Y-1.0854
G1 X0.7960 Y-1.1083
G1 X0.8182 Y-1.1294
G1 X0.8420 Y-1.1499
G1 X0.8666 Y-1.1693
G1 X0.9186 Y-1.2042
G1 X0.9456 Y-1.2200
G1 X0.9734 Y-1.2345
G1 X1.0017 Y-1.2480
G1 X1.0308 Y-1.2601
G1 X1.0898 Y-1.2813
G1 X1.1198 Y-1.2899
G1 X1.1503 Y-1.2975
G1 X1.1809 Y-1.3041
G1 X1.2119 Y-1.3095
G1 X1.2431 Y-1.3125
G1 X1.2744 Y-1.3147
G1 X1.3056 Y-1.3155
G1 X1.3369 Y-1.3145
G1 X1.3681 Y-1.3123
G1 X1.3991 Y-1.3068
G1 X1.4259 Y-1.3012
G1 X1.4562 Y-1.2931
G1 X1.4850 Y-1.2803
G1 X1.5108 Y-1.2633
G1 X1.5165 Y-1.2579
G1 X1.5224 Y-1.2475
G1 X1.5236 Y-1.2436
G1 X1.5236 Y-1.1727
G1 X1.5236 Y-1.1727
G1 X1.5212 Y-1.1582
G1 X1.5177 Y-1.1494
G1 X1.5125 Y-1.1415
G0 X1.5091 Y-1.1383
G0 X1.4973 Y-1.1314
G0 X0.7485 Y-0.8115
G1 X0.7416 Y-0.8086
G1 X0.7249 Y-0.8022
G1 X0.7148 Y-0.8004
G1 X0.7052 Y-0.8012
G1 X0.6964 Y-0.8039
G1 X0.6838 Y-0.8105
G1 X0.6838 Y-0.8105
G1 X0.6518 Y-0.8388
G1 X0.6395 Y-0.8541
G1 X0.6344 Y-0.8647
G1 X0.6277 Y-0.9016
G1 X0.6275 Y-0.9053
G1 X0.6302 Y-0.9365
G1 X0.6344 Y-0.9606
G1 X0.6393 Y-0.9806
G1 X0.6459 Y-1.0025
G1 X0.6570 Y-1.0313
G1 X0.6698 Y-1.0581
G1 X0.6831 Y-1.0822
G1 X0.6988 Y-1.1065
G1 X0.7160 Y-1.1294
G1 X0.7345 Y-1.1508
G1 X0.7539 Y-1.1722
G1 X0.7768 Y-1.1937
G1 X0.8002 Y-1.2146
G1 X0.8248 Y-1.2340
G1 X0.8499 Y-1.2527
G1 X0.8757 Y-1.2702
G1 X0.9023 Y-1.2867
G1 X0.9296 Y-1.3022
G1 X0.9577 Y-1.3164
G1 X0.9862 Y-1.3295
G1 X1.0153 Y-1.3413
G1 X1.0448 Y-1.3519
G1 X1.0748 Y-1.3612
G1 X1.1051 Y-1.3693
G1 X1.1663 Y-1.3829
G1 X1.1973 Y-1.3878
G1 X1.2283 Y-1.3917
G1 X1.2596 Y-1.3949
G1 X1.3221 Y-1.3949
G1 X1.3533 Y-1.3932
G1 X1.3846 Y-1.3895
G1 X1.4154 Y-1.3829
G1 X1.4400 Y-1.3767
G1 X1.4692 Y-1.3656
G1 X1.4899 Y-1.3563
G1 X1.5150 Y-1.3378
G1 X1.5217 Y-1.3280
G1 X1.5234 Y-1.3243
G1 X1.5236 Y-1.2495
G1 X1.5236 Y-1.2495
G1 X1.5212 Y-1.2350
G1 X1.5177 Y-1.2261
G1 X1.5125 Y-1.2183
G0 X1.5094 Y-1.2151
G0 X1.4934 Y-1.2057
G0 X0.7052 Y-0.8499
G1 X0.6981 Y-0.8467
G1 X0.6816 Y-0.8398
G1 X0.6715 Y-0.8378
G1 X0.6619 Y-0.8378
G1 X0.6528 Y-0.8401
G1 X0.6398 Y-0.8455
G1 X0.6398 Y-0.8455
G1 X0.6058 Y-0.8730
G1 X0.5928 Y-0.8875
G1 X0.5869 Y-0.8976
G1 X0.5785 Y-0.9309
G1 X0.5775 Y-0.9382
G1 X0.5775 Y-0.9695
G1 X0.5810 Y-1.0007
G1 X0.5898 Y-1.0381
G1 X0.5979 Y-1.0635
G1 X0.6097 Y-1.0925
G1 X0.6233 Y-1.1208
G1 X0.6380 Y-1.1471
G1 X0.6550 Y-1.1735
G1 X0.6735 Y-1.1983
G1 X0.6934 Y-1.2219
G1 X0.7151 Y-1.2443
G1 X0.7377 Y-1.2653
G1 X0.7611 Y-1.2854
G1 X0.7854 Y-1.3051
G1 X0.8110 Y-1.3231
G1 X0.8374 Y-1.3403
G1 X0.8915 Y-1.3720
G1 X0.9193 Y-1.3863
G1 X0.9476 Y-1.3996
G1 X0.9761 Y-1.4122
G1 X1.0054 Y-1.4235
G1 X1.0349 Y-1.4341
G1 X1.0647 Y-1.4437
G1 X1.0950 Y-1.4520
G1 X1.1255 Y-1.4594
G1 X1.1562 Y-1.4658
G1 X1.2185 Y-1.4732
G1 X1.2498 Y-1.4751
G1 X1.2810 Y-1.4754
G1 X1.3123 Y-1.4744
G1 X1.3435 Y-1.4719
G1 X1.3748 Y-1.4680
G1 X1.4058 Y-1.4628
G1 X1.4365 Y-1.4562
G1 X1.4660 Y-1.4454
G1 X1.4948 Y-1.4304
G1 X1.5135 Y-1.4161
G1 X1.5185 Y-1.4099
G1 X1.5236 Y-1.3994
G1 X1.5236 Y-1.3324
G1 X1.5236 Y-1.3324
G1 X1.5212 Y-1.3179
G1 X1.5177 Y-1.3091
G1 X1.5125 Y-1.3012
G0 X1.5094 Y-1.2980
G0 X1.4934 Y-1.2884
G0 X0.6594 Y-0.8841
G1 X0.6523 Y-0.8807
G1 X0.6356 Y-0.8733
G1 X0.6257 Y-0.8708
G1 X0.6161 Y-0.8711
G1 X0.6070 Y-0.8730
G1 X0.5942 Y-0.8787
G1 X0.5942 Y-0.8787
G1 X0.5556 Y-0.9065
G1 X0.5421 Y-0.9205
G1 X0.5362 Y-0.9306
G1 X0.5256 Y-0.9675
G1 X0.5241 Y-0.9988
G1 X0.5261 Y-1.0300
G1 X0.5290 Y-1.0524
G1 X0.5335 Y-1.0736
G1 X0.5396 Y-1.0972
G1 X0.5495 Y-1.1270
G1 X0.5615 Y-1.1560
G1 X0.5743 Y-1.1828
G1 X0.5896 Y-1.2101
G1 X0.6065 Y-1.2365
G1 X0.6260 Y-1.2608
G1 X0.6612 Y-1.3000
G1 X0.6833 Y-1.3221
G1 X0.7067 Y-1.3428
G1 X0.7308 Y-1.3627
G1 X0.7559 Y-1.3816
G1 X0.7817 Y-1.3994
G1 X0.8349 Y-1.4328
G1 X0.8625 Y-1.4478
G1 X0.8903 Y-1.4621
G1 X0.9186 Y-1.4756
G1 X1.0153 Y-1.5123
G1 X1.0780 Y-1.5231
G1 X1.4213 Y-1.5212
G1 X1.4619 Y-1.5133
G1 X1.4936 Y-1.4995
G1 X1.5133 Y-1.4865
G1 X1.5162 Y-1.4838
G1 X1.5224 Y-1.4737
G1 X1.5236 Y-1.4697
G1 X1.5236 Y-1.4067
G1 X1.5236 Y-1.4067
G1 X1.5212 Y-1.3922
G1 X1.5177 Y-1.3834
G1 X1.5125 Y-1.3755
G0 X1.5094 Y-1.3723
G0 X1.4936 Y-1.3622
G0 X0.6127 Y-0.9176
G1 X0.6056 Y-0.9139
G1 X0.5891 Y-0.9063
G1 X0.5790 Y-0.9033
G1 X0.5694 Y-0.9028
G1 X0.5600 Y-0.9040
G1 X0.5468 Y-0.9087
G1 X0.5468 Y-0.9087
G1 X0.5096 Y-0.9321
G1 X0.4946 Y-0.9449
G1 X0.4872 Y-0.9540
G1 X0.4744 Y-0.9862
G1 X0.4724 Y-0.9936
G1 X0.4692 Y-1.0249
G1 X0.4690 Y-1.0522
G1 X0.4695 Y-1.0728
G1 X0.4732 Y-1.1024
G1 X0.4783 Y-1.1272
G1 X0.4850 Y-1.1513
G1 X0.4931 Y-1.1764
G1 X0.5054 Y-1.2052
G1 X0.5180 Y-1.2301
G1 X0.5325 Y-1.2549
G1 X0.5482 Y-1.2803
G1 X0.5667 Y-1.3056
G1 X0.5866 Y-1.3300
G1 X0.6075 Y-1.3533
G1 X0.6289 Y-1.3762
G1 X0.6518 Y-1.3976
G1 X0.6754 Y-1.4181
G1 X0.7247 Y-1.4567
G1 X0.7505 Y-1.4744
G1 X0.8120 Y-1.5130
G1 X0.8408 Y-1.5224
G1 X1.0217 Y-1.5234
G1 X1.0217 Y-1.5234
G1 X1.0354 Y-1.5209
G1 X1.0440 Y-1.5175
G1 X1.0477 Y-1.5153
G1 X1.0502 Y-1.5125
G0 X1.0509 Y-1.5096
G0 X1.0504 Y-1.5064
G0 X1.0463 Y-1.4998
G0 X0.5556 Y-0.9567
G1 X0.5507 Y-0.9513
G1 X0.5423 Y-0.9424
G1 X0.5384 Y-0.9390
G1 X0.5340 Y-0.9360
G1 X0.5295 Y-0.9343
G1 X0.5204 Y-0.9326
G1 X0.5111 Y-0.9331
G1 X0.4975 Y-0.9365
G1 X0.4975 Y-0.9365
G1 X0.4498 Y-0.9646
G1 X0.4355 Y-0.9779
G1 X0.4262 Y-0.9948
G1 X0.4166 Y-1.0204
G1 X0.4117 Y-1.0514
G1 X0.4102 Y-1.0805
G1 X0.4104 Y-1.1004
G1 X0.4119 Y-1.1230
G1 X0.4161 Y-1.1523
G1 X0.4225 Y-1.1813
G1 X0.4299 Y-1.2072
G1 X0.4397 Y-1.2340
G1 X0.4513 Y-1.2598
G1 X0.4643 Y-1.2844
G1 X0.4783 Y-1.3091
G1 X0.4948 Y-1.3356
G1 X0.5130 Y-1.3610
G1 X0.5322 Y-1.3858
G1 X0.5527 Y-1.4097
G1 X0.5743 Y-1.4323
G1 X0.6198 Y-1.4754
G1 X0.6671 Y-1.5145
G1 X0.6806 Y-1.5212
G1 X0.6880 Y-1.5234
G1 X0.7876 Y-1.5234
G1 X0.7876 Y-1.5234
G1 X0.8014 Y-1.5209
G1 X0.8103 Y-1.5175
G1 X0.8137 Y-1.5153
G1 X0.8164 Y-1.5123
G0 X0.8174 Y-1.5091
G0 X0.8174 Y-1.5057
G0 X0.8145 Y-1.4980
G0 X0.5002 Y-0.9855
G1 X0.4968 Y-0.9796
G1 X0.4902 Y-0.9695
G1 X0.4870 Y-0.9656
G1 X0.4830 Y-0.9624
G1 X0.4791 Y-0.9601
G1 X0.4747 Y-0.9589
G1 X0.4656 Y-0.9579
G1 X0.4473 Y-0.9619
G1 X0.4473 Y-0.9619
G1 X0.4040 Y-0.9823
G1 X0.3875 Y-0.9941
G1 X0.3794 Y-1.0027
G1 X0.3664 Y-1.0268
G1 X0.3605 Y-1.0413
G1 X0.3531 Y-1.0719
G1 X0.3492 Y-1.1031
G1 X0.3487 Y-1.1228
G1 X0.3489 Y-1.1412
G1 X0.3509 Y-1.1686
G1 X0.3565 Y-1.1993
G1 X0.3622 Y-1.2237
G1 X0.3706 Y-1.2505
G1 X0.3799 Y-1.2773
G1 X0.3925 Y-1.3061
G1 X0.4067 Y-1.3342
G1 X0.4222 Y-1.3615
G1 X0.4385 Y-1.3883
G1 X0.4564 Y-1.4139
G1 X0.4756 Y-1.4387
G1 X0.4958 Y-1.4626
G1 X0.5426 Y-1.5130
G1 X0.5487 Y-1.5175
G1 X0.5591 Y-1.5224
G1 X0.5627 Y-1.5234
G1 X0.6255 Y-1.5234
G1 X0.6255 Y-1.5234
G1 X0.6393 Y-1.5209
G1 X0.6481 Y-1.5175
G1 X0.6518 Y-1.5153
G1 X0.6543 Y-1.5123
G0 X0.6558 Y-1.5089
G0 X0.6560 Y-1.5052
G0 X0.6538 Y-1.4970
G0 X0.4365 Y-1.0167
G1 X0.4338 Y-1.0108
G1 X0.4286 Y-1.0002
G1 X0.4257 Y-0.9958
G1 X0.4225 Y-0.9924
G1 X0.4186 Y-0.9897
G1 X0.4144 Y-0.9877
G1 X0.4055 Y-0.9860
G1 X0.3868 Y-0.9875
G1 X0.3868 Y-0.9875
G1 X0.3467 Y-1.0044
G1 X0.3300 Y-1.0153
G1 X0.3241 Y-1.0204
G1 X0.3093 Y-1.0433
G1 X0.3009 Y-1.0605
G1 X0.2921 Y-1.0908
G1 X0.2869 Y-1.1218
G1 X0.2852 Y-1.1604
G1 X0.2862 Y-1.1877
G1 X0.2896 Y-1.2190
G1 X0.2948 Y-1.2493
G1 X0.3017 Y-1.2783
G1 X0.3108 Y-1.3078
G1 X0.3216 Y-1.3361
G1 X0.3342 Y-1.3637
G1 X0.3487 Y-1.3907
G1 X0.3639 Y-1.4173
G1 X0.3807 Y-1.4439
G1 X0.3989 Y-1.4692
G1 X0.4350 Y-1.5143
G1 X0.4412 Y-1.5187
G1 X0.4515 Y-1.5234
G1 X0.4995 Y-1.5234
G1 X0.4995 Y-1.5234
G1 X0.5133 Y-1.5209
G1 X0.5221 Y-1.5175
G1 X0.5258 Y-1.5153
G1 X0.5285 Y-1.5123
G0 X0.5303 Y-1.5089
G0 X0.5305 Y-1.5049
G0 X0.5283 Y-1.4921
G0 X0.3802 Y-1.0379
G1 X0.3782 Y-1.0317
G1 X0.3743 Y-1.0209
G1 X0.3718 Y-1.0162
G1 X0.3688 Y-1.0125
G1 X0.3654 Y-1.0098
G1 X0.3612 Y-1.0076
G1 X0.3524 Y-1.0057
G1 X0.3433 Y-1.0057
G1 X0.3339 Y-1.0069
G1 X0.3339 Y-1.0069
G1 X0.2960 Y-1.0199
G1 X0.2783 Y-1.0293
G1 X0.2689 Y-1.0362
G1 X0.2520 Y-1.0578
G1 X0.2424 Y-1.0748
G1 X0.2325 Y-1.1046
G1 X0.2264 Y-1.1326
G1 X0.2229 Y-1.1535
G1 X0.2212 Y-1.1772
G1 X0.2202 Y-1.2013
G1 X0.2222 Y-1.2325
G1 X0.2256 Y-1.2591
G1 X0.2308 Y-1.2867
G1 X0.2375 Y-1.3152
G1 X0.2468 Y-1.3452
G1 X0.2576 Y-1.3743
G1 X0.2702 Y-1.4031
G1 X0.2837 Y-1.4313
G1 X0.2990 Y-1.4587
G1 X0.3349 Y-1.5130
G1 X0.3374 Y-1.5157
G1 X0.3504 Y-1.5234
G1 X0.3910 Y-1.5234
G1 X0.3910 Y-1.5234
G1 X0.4048 Y-1.5209
G1 X0.4136 Y-1.5175
G1 X0.4173 Y-1.5153
G1 X0.4203 Y-1.5123
G0 X0.4220 Y-1.5086
G0 X0.4227 Y-1.5049
G0 X0.4215 Y-1.4916
G0 X0.3233 Y-1.0561
G1 X0.3221 Y-1.0500
G1 X0.3191 Y-1.0386
G1 X0.3172 Y-1.0340
G1 X0.3145 Y-1.0300
G1 X0.3113 Y-1.0271
G1 X0.3073 Y-1.0249
G1 X0.2985 Y-1.0224
G1 X0.2800 Y-1.0229
G1 X0.2800 Y-1.0229
G1 X0.2372 Y-1.0354
G1 X0.2190 Y-1.0440
G1 X0.2094 Y-1.0509
G1 X0.1966 Y-1.0657
G1 X0.1838 Y-1.0851
G1 X0.1722 Y-1.1144
G1 X0.1651 Y-1.1398
G1 X0.1607 Y-1.1599
G1 X0.1570 Y-1.1826
G1 X0.1543 Y-1.2133
G1 X0.1538 Y-1.2429
G1 X0.1550 Y-1.2702
G1 X0.1585 Y-1.2995
G1 X0.1639 Y-1.3275
G1 X0.1710 Y-1.3551
G1 X0.1794 Y-1.3826
G1 X0.2025 Y-1.4407
G1 X0.2163 Y-1.4690
G1 X0.2379 Y-1.5059
G1 X0.2446 Y-1.5148
G1 X0.2539 Y-1.5214
G1 X0.2574 Y-1.5231
G1 X0.2869 Y-1.5234
G1 X0.2869 Y-1.5234
G1 X0.3007 Y-1.5209
G1 X0.3095 Y-1.5175
G1 X0.3132 Y-1.5153
G1 X0.3162 Y-1.5121
G0 X0.3182 Y-1.5086
G0 X0.3191 Y-1.5047
G0 X0.3191 Y-1.4914
G0 X0.2655 Y-1.0709
G1 X0.2648 Y-1.0647
G1 X0.2628 Y-1.0534
G1 X0.2613 Y-1.0485
G1 X0.2589 Y-1.0445
G1 X0.2559 Y-1.0413
G1 X0.2522 Y-1.0389
G1 X0.2436 Y-1.0362
G1 X0.2343 Y-1.0357
G1 X0.2251 Y-1.0364
G1 X0.2251 Y-1.0364
G1 X0.1779 Y-1.0475
G1 X0.1597 Y-1.0554
G1 X0.1501 Y-1.0620
G1 X0.1309 Y-1.0871
G1 X0.1270 Y-1.0940
G1 X0.1132 Y-1.1223
G1 X0.1026 Y-1.1518
G1 X0.0952 Y-1.1823
G1 X0.0915 Y-1.2032
G1 X0.0876 Y-1.2500
G1 X0.0874 Y-1.2813
G1 X0.0896 Y-1.3125
G1 X0.0942 Y-1.3435
G1 X0.0992 Y-1.3684
G1 X0.1075 Y-1.3984
G1 X0.1161 Y-1.4264
G1 X0.1275 Y-1.4557
G1 X0.1405 Y-1.4843
G1 X0.1594 Y-1.5140
G1 X0.1651 Y-1.5189
G1 X0.1718 Y-1.5226
G1 X0.1754 Y-1.5234
G1 X0.1976 Y-1.5234
G1 X0.1976 Y-1.5234
G1 X0.2114 Y-1.5209
G1 X0.2202 Y-1.5175
G1 X0.2239 Y-1.5150
G1 X0.2271 Y-1.5121
G0 X0.2291 Y-1.5086
G0 X0.2303 Y-1.5047
G0 X0.2311 Y-1.4911
G0 X0.2077 Y-1.0856
G1 X0.2074 Y-1.0792
G1 X0.2064 Y-1.0679
G1 X0.2052 Y-1.0630
G1 X0.2030 Y-1.0588
G1 X0.2003 Y-1.0554
G1 X0.1966 Y-1.0527
G1 X0.1885 Y-1.0490
G1 X0.1700 Y-1.0468
G1 X0.1700 Y-1.0468
G1 X0.1267 Y-1.0546
G1 X0.1080 Y-1.0615
G1 X0.0979 Y-1.0677
G1 X0.0773 Y-1.0910
G1 X0.0728 Y-1.0974
G1 X0.0568 Y-1.1245
G1 X0.0438 Y-1.1531
G1 X0.0342 Y-1.1831
G1 X0.0295 Y-1.2020
G1 X0.0253 Y-1.2229
G1 X0.0209 Y-1.2539
G1 X0.0192 Y-1.2852
G1 X0.0189 Y-1.3130
G1 X0.0209 Y-1.3440
G1 X0.0251 Y-1.3748
G1 X0.0308 Y-1.4043
G1 X0.0386 Y-1.4341
G1 X0.0482 Y-1.4631
G1 X0.0637 Y-1.4936
G1 X0.0800 Y-1.5150
G1 X0.0930 Y-1.5226
G1 X0.0967 Y-1.5234
G1 X0.1115 Y-1.5234
G1 X0.1115 Y-1.5234
G1 X0.1252 Y-1.5209
G1 X0.1341 Y-1.5175
G1 X0.1378 Y-1.5153
G1 X0.1410 Y-1.5121
G0 X0.1432 Y-1.5086
G0 X0.1454 Y-1.5005
G0 X0.1464 Y-1.4823
G0 X0.1496 Y-1.0930
G1 X0.1499 Y-1.0866
G1 X0.1494 Y-1.0753
G1 X0.1486 Y-1.0701
G1 X0.1469 Y-1.0659
G1 X0.1442 Y-1.0625
G1 X0.1407 Y-1.0598
G1 X0.1326 Y-1.0561
G1 X0.1235 Y-1.0546
G1 X0.1142 Y-1.0544
G1 X0.1142 Y-1.0544
G1 X0.0709 Y-1.0600
G1 X0.0517 Y-1.0664
G1 X0.0445 Y-1.0701
G1 X0.0273 Y-1.0864
G1 X0.0150 Y-1.1014
G1 X-0.0030 Y-1.1270
G1 X-0.0177 Y-1.1545
G1 X-0.0285 Y-1.1809
G1 X-0.0349 Y-1.2013
G1 X-0.0401 Y-1.2205
G1 X-0.0458 Y-1.2493
G1 X-0.0490 Y-1.2805
G1 X-0.0502 Y-1.3063
G1 X-0.0497 Y-1.3351
G1 X-0.0482 Y-1.3639
G1 X-0.0443 Y-1.3949
G1 X-0.0384 Y-1.4257
G1 X-0.0290 Y-1.4557
G1 X-0.0217 Y-1.4764
G1 X-0.0084 Y-1.5010
G1 X0.0039 Y-1.5157
G1 X0.0135 Y-1.5217
G1 X0.0170 Y-1.5231
G1 X0.0281 Y-1.5234
G1 X0.0281 Y-1.5234
G1 X0.0418 Y-1.5209
G1 X0.0507 Y-1.5175
G1 X0.0544 Y-1.5150
G1 X0.0576 Y-1.5121
G0 X0.0600 Y-1.5086
G0 X0.0627 Y-1.5002
G0 X0.0647 Y-1.4823
G0 X0.0910 Y-1.1001
G1 X0.0915 Y-1.0938
G1 X0.0915 Y-1.0822
G1 X0.0903 Y-1.0768
G1 X0.0881 Y-1.0719
G1 X0.0846 Y-1.0679
G1 X0.0807 Y-1.0650
G1 X0.0765 Y-1.0627
G1 X0.0674 Y-1.0600
G1 X0.0581 Y-1.0591
G1 X0.0581 Y-1.0591
G1 X0.0226 Y-1.0615
G1 X-0.0007 Y-1.0667
G1 X-0.0113 Y-1.0709
G1 X-0.0317 Y-1.0871
G1 X-0.0450 Y-1.1006
G1 X-0.0637 Y-1.1257
G1 X-0.0800 Y-1.1526
G1 X-0.0901 Y-1.1745
G1 X-0.0967 Y-1.1914
G1 X-0.1043 Y-1.2143
G1 X-0.1122 Y-1.2443
G1 X-0.1179 Y-1.2751
G1 X-0.1213 Y-1.3034
G1 X-0.1230 Y-1.3337
G1 X-0.1216 Y-1.3637
G1 X-0.1193 Y-1.3866
G1 X-0.1144 Y-1.4136
G1 X-0.1085 Y-1.4395
G1 X-0.0992 Y-1.4695
G1 X-0.0864 Y-1.4958
G1 X-0.0723 Y-1.5145
G1 X-0.0625 Y-1.5212
G1 X-0.0588 Y-1.5229
G1 X-0.0470 Y-1.5234
G1 X-0.0470 Y-1.5234
G1 X-0.0325 Y-1.5209
G1 X-0.0236 Y-1.5175
G1 X-0.0197 Y-1.5153
G1 X-0.0162 Y-1.5121
G0 X-0.0138 Y-1.5086
G0 X-0.0106 Y-1.5005
G0 X-0.0081 Y-1.4825
G0 X0.0325 Y-1.1043
G1 X0.0332 Y-1.0982
G1 X0.0340 Y-1.0869
G1 X0.0337 Y-1.0819
G1 X0.0325 Y-1.0773
G1 X0.0303 Y-1.0736
G1 X0.0271 Y-1.0704
G1 X0.0194 Y-1.0657
G1 X0.0017 Y-1.0608
G1 X0.0017 Y-1.0608
G1 X-0.0389 Y-1.0613
G1 X-0.0610 Y-1.0652
G1 X-0.0716 Y-1.0694
G1 X-0.0982 Y-1.0901
G1 X-0.1036 Y-1.0955
G1 X-0.1238 Y-1.1193
G1 X-0.1407 Y-1.1457
G1 X-0.1503 Y-1.1631
G1 X-0.1594 Y-1.1826
G1 X-0.1688 Y-1.2052
G1 X-0.1789 Y-1.2350
G1 X-0.1868 Y-1.2653
G1 X-0.1909 Y-1.2948
G1 X-0.1929 Y-1.3159
G1 X-0.1932 Y-1.3430
G1 X-0.1924 Y-1.3684
G1 X-0.1890 Y-1.3996
G1 X-0.1838 Y-1.4284
G1 X-0.1757 Y-1.4572
G1 X-0.1683 Y-1.4788
G1 X-0.1558 Y-1.5027
G1 X-0.1462 Y-1.5150
G1 X-0.1361 Y-1.5214
G1 X-0.1324 Y-1.5231
G1 X-0.1206 Y-1.5234
G1 X-0.1206 Y-1.5234
G1 X-0.1061 Y-1.5209
G1 X-0.0972 Y-1.5175
G1 X-0.0930 Y-1.5153
G1 X-0.0898 Y-1.5123
G0 X-0.0871 Y-1.5086
G0 X-0.0839 Y-1.5005
G0 X-0.0805 Y-1.4828
G0 X-0.0236 Y-1.1029
G1 X-0.0226 Y-1.0967
G1 X-0.0214 Y-1.0854
G1 X-0.0217 Y-1.0802
G1 X-0.0229 Y-1.0758
G1 X-0.0251 Y-1.0719
G1 X-0.0281 Y-1.0687
G1 X-0.0357 Y-1.0640
G1 X-0.0448 Y-1.0610
G1 X-0.0544 Y-1.0593
G1 X-0.0544 Y-1.0593
G1 X-0.1024 Y-1.0581
G1 X-0.1245 Y-1.0623
G1 X-0.1442 Y-1.0736
G1 X-0.1644 Y-1.0908
G1 X-0.1853 Y-1.1142
G1 X-0.2042 Y-1.1390
G1 X-0.2175 Y-1.1619
G1 X-0.2264 Y-1.1789
G1 X-0.2367 Y-1.2018
G1 X-0.2468 Y-1.2298
G1 X-0.2549 Y-1.2586
G1 X-0.2596 Y-1.2864
G1 X-0.2621 Y-1.3083
G1 X-0.2640 Y-1.3344
G1 X-0.2633 Y-1.3656
G1 X-0.2611 Y-1.3925
G1 X-0.2569 Y-1.4210
G1 X-0.2502 Y-1.4503
G1 X-0.2409 Y-1.4774
G1 X-0.2298 Y-1.4993
G1 X-0.2175 Y-1.5148
G1 X-0.2074 Y-1.5214
G1 X-0.2037 Y-1.5231
G1 X-0.1959 Y-1.5234
G1 X-0.1959 Y-1.5234
G1 X-0.1813 Y-1.5209
G1 X-0.1725 Y-1.5175
G1 X-0.1683 Y-1.5153
G1 X-0.1649 Y-1.5123
G0 X-0.1622 Y-1.5086
G0 X-0.1587 Y-1.5005
G0 X-0.1548 Y-1.4825
G0 X-0.0822 Y-1.1011
G1 X-0.0812 Y-1.0950
G1 X-0.0795 Y-1.0839
G1 X-0.0795 Y-1.0787
G1 X-0.0805 Y-1.0741
G1 X-0.0824 Y-1.0701
G1 X-0.0851 Y-1.0667
G1 X-0.0925 Y-1.0613
G1 X-0.1011 Y-1.0573
G1 X-0.1105 Y-1.0549
G1 X-0.1105 Y-1.0549
G1 X-0.1585 Y-1.0509
G1 X-0.1806 Y-1.0539
G1 X-0.1976 Y-1.0618
G1 X-0.2224 Y-1.0790
G1 X-0.2446 Y-1.1011
G1 X-0.2608 Y-1.1211
G1 X-0.2724 Y-1.1371
G1 X-0.2849 Y-1.1572
G1 X-0.2975 Y-1.1826
G1 X-0.3066 Y-1.2042
G1 X-0.3152 Y-1.2276
G1 X-0.3231 Y-1.2579
G1 X-0.3280 Y-1.2840
G1 X-0.3314 Y-1.3113
G1 X-0.3339 Y-1.3396
G1 X-0.3339 Y-1.3708
G1 X-0.3322 Y-1.4011
G1 X-0.3268 Y-1.4321
G1 X-0.3221 Y-1.4525
G1 X-0.3130 Y-1.4776
G1 X-0.3049 Y-1.4956
G1 X-0.2904 Y-1.5143
G1 X-0.2803 Y-1.5209
G1 X-0.2766 Y-1.5226
G1 X-0.2726 Y-1.5234
G1 X-0.2687 Y-1.5234
G1 X-0.2687 Y-1.5234
G1 X-0.2542 Y-1.5209
G1 X-0.2453 Y-1.5175
G1 X-0.2411 Y-1.5153
G1 X-0.2377 Y-1.5123
G0 X-0.2350 Y-1.5086
G0 X-0.2313 Y-1.5005
G0 X-0.2266 Y-1.4828
G0 X-0.1405 Y-1.0962
G1 X-0.1393 Y-1.0901
G1 X-0.1371 Y-1.0787
G1 X-0.1368 Y-1.0736
G1 X-0.1378 Y-1.0689
G1 X-0.1395 Y-1.0647
G1 X-0.1420 Y-1.0610
G1 X-0.1491 Y-1.0551
G1 X-0.1663 Y-1.0475
G1 X-0.1663 Y-1.0475
G1 X-0.2143 Y-1.0406
G1 X-0.2365 Y-1.0418
G1 X-0.2438 Y-1.0436
G1 X-0.2670 Y-1.0561
G1 X-0.2795 Y-1.0650
G1 X-0.3029 Y-1.0859
G1 X-0.3236 Y-1.1095
G1 X-0.3356 Y-1.1257
G1 X-0.3472 Y-1.1437
G1 X-0.3593 Y-1.1649
G1 X-0.3730 Y-1.1932
G1 X-0.3844 Y-1.2217
G1 X-0.3922 Y-1.2493
G1 X-0.3971 Y-1.2714
G1 X-0.4021 Y-1.2980
G1 X-0.4048 Y-1.3292
G1 X-0.4055 Y-1.3565
G1 X-0.4045 Y-1.3858
G1 X-0.4013 Y-1.4161
G1 X-0.3964 Y-1.4446
G1 X-0.3871 Y-1.4729
G1 X-0.3797 Y-1.4892
G1 X-0.3615 Y-1.5145
G1 X-0.3551 Y-1.5194
G1 X-0.3479 Y-1.5231
G1 X-0.3322 Y-1.5234
G1 X-0.3322 Y-1.5234
G1 X-0.3177 Y-1.5209
G1 X-0.3088 Y-1.5175
G1 X-0.3046 Y-1.5153
G1 X-0.3012 Y-1.5123
G0 X-0.2985 Y-1.5086
G0 X-0.2945 Y-1.5005
G0 X-0.2899 Y-1.4828
G0 X-0.1969 Y-1.0878
G1 X-0.1956 Y-1.0817
G1 X-0.1934 Y-1.0704
G1 X-0.1929 Y-1.0652
G1 X-0.1937 Y-1.0605
G1 X-0.1954 Y-1.0561
G1 X-0.1978 Y-1.0524
G1 X-0.2047 Y-1.0460
G1 X-0.2128 Y-1.0411
G1 X-0.2217 Y-1.0374
G1 X-0.2217 Y-1.0374
G1 X-0.2734 Y-1.0271
G1 X-0.2881 Y-1.0271
G1 X-0.2992 Y-1.0293
G1 X-0.3233 Y-1.0401
G1 X-0.3361 Y-1.0482
G1 X-0.3605 Y-1.0679
G1 X-0.3824 Y-1.0903
G1 X-0.3964 Y-1.1073
G1 X-0.4087 Y-1.1243
G1 X-0.4225 Y-1.1457
G1 X-0.4365 Y-1.1730
G1 X-0.4466 Y-1.1961
G1 X-0.4557 Y-1.2215
G1 X-0.4628 Y-1.2480
G1 X-0.4690 Y-1.2736
G1 X-0.4737 Y-1.3046
G1 X-0.4764 Y-1.3346
G1 X-0.4776 Y-1.3659
G1 X-0.4766 Y-1.3971
G1 X-0.4715 Y-1.4281
G1 X-0.4668 Y-1.4471
G1 X-0.4604 Y-1.4668
G1 X-0.4518 Y-1.4882
G1 X-0.4338 Y-1.5138
G1 X-0.4277 Y-1.5187
G1 X-0.4205 Y-1.5224
G1 X-0.4166 Y-1.5234
G1 X-0.4048 Y-1.5234
G1 X-0.4048 Y-1.5234
G1 X-0.3903 Y-1.5209
G1 X-0.3814 Y-1.5175
G1 X-0.3772 Y-1.5153
G1 X-0.3738 Y-1.5123
G0 X-0.3708 Y-1.5089
G0 X-0.3669 Y-1.5007
G0 X-0.3615 Y-1.4828
G0 X-0.2547 Y-1.0768
G1 X-0.2532 Y-1.0706
G1 X-0.2505 Y-1.0593
G1 X-0.2500 Y-1.0541
G1 X-0.2505 Y-1.0492
G1 X-0.2520 Y-1.0448
G1 X-0.2542 Y-1.0408
G1 X-0.2606 Y-1.0340
G1 X-0.2766 Y-1.0239
G1 X-0.2766 Y-1.0239
G1 X-0.3246 Y-1.0116
G1 X-0.3467 Y-1.0101
G1 X-0.3541 Y-1.0108
G1 X-0.3949 Y-1.0290
G1 X-0.4198 Y-1.0482
G1 X-0.4392 Y-1.0669
G1 X-0.4520 Y-1.0810
G1 X-0.4658 Y-1.0974
G1 X-0.4838 Y-1.1230
G1 X-0.4988 Y-1.1481
G1 X-0.5113 Y-1.1720
G1 X-0.5229 Y-1.1991
G1 X-0.5322 Y-1.2259
G1 X-0.5399 Y-1.2530
G1 X-0.5455 Y-1.2810
G1 X-0.5492 Y-1.3091
G1 X-0.5509 Y-1.3374
G1 X-0.5507 Y-1.3656
G1 X-0.5485 Y-1.3939
G1 X-0.5443 Y-1.4220
G1 X-0.5384 Y-1.4498
G1 X-0.5288 Y-1.4766
G1 X-0.5182 Y-1.4975
G1 X-0.5066 Y-1.5133
G1 X-0.5005 Y-1.5185
G1 X-0.4934 Y-1.5221
G1 X-0.4897 Y-1.5234
G1 X-0.4739 Y-1.5234
G1 X-0.4739 Y-1.5234
G1 X-0.4594 Y-1.5209
G1 X-0.4505 Y-1.5175
G1 X-0.4464 Y-1.5153
G1 X-0.4429 Y-1.5123
G0 X-0.4400 Y-1.5089
G0 X-0.4360 Y-1.5007
G0 X-0.4306 Y-1.4825
G0 X-0.3189 Y-1.0591
G1 X-0.3174 Y-1.0529
G1 X-0.3147 Y-1.0416
G1 X-0.3142 Y-1.0362
G1 X-0.3145 Y-1.0315
G1 X-0.3159 Y-1.0268
G1 X-0.3179 Y-1.0229
G1 X-0.3238 Y-1.0155
G1 X-0.3393 Y-1.0049
G1 X-0.3393 Y-1.0049
G1 X-0.3467 Y-1.0030
G1 X-0.3760 Y-0.9929
G1 X-0.3981 Y-0.9894
G1 X-0.4092 Y-0.9902
G1 X-0.4375 Y-1.0007
G1 X-0.4478 Y-1.0059
G1 X-0.4739 Y-1.0231
G1 X-0.4983 Y-1.0428
G1 X-0.5145 Y-1.0595
G1 X-0.5263 Y-1.0731
G1 X-0.5411 Y-1.0913
G1 X-0.5588 Y-1.1171
G1 X-0.5748 Y-1.1442
G1 X-0.5874 Y-1.1713
G1 X-0.5957 Y-1.1922
G1 X-0.6041 Y-1.2188
G1 X-0.6110 Y-1.2443
G1 X-0.6169 Y-1.2751
G1 X-0.6206 Y-1.3049
G1 X-0.6228 Y-1.3356
G1 X-0.6228 Y-1.3669
G1 X-0.6211 Y-1.3979
G1 X-0.6156 Y-1.4289
G1 X-0.6110 Y-1.4500
G1 X-0.6016 Y-1.4759
G1 X-0.5933 Y-1.4946
G1 X-0.5790 Y-1.5135
G1 X-0.5728 Y-1.5185
G1 X-0.5657 Y-1.5221
G1 X-0.5620 Y-1.5234
G1 X-0.5463 Y-1.5234
G1 X-0.5463 Y-1.5234
G1 X-0.5317 Y-1.5209
G1 X-0.5229 Y-1.5175
G1 X-0.5187 Y-1.5153
G1 X-0.5153 Y-1.5123
G0 X-0.5123 Y-1.5089
G0 X-0.5081 Y-1.5007
G0 X-0.5022 Y-1.4825
G0 X-0.3723 Y-1.0394
G1 X-0.3706 Y-1.0332
G1 X-0.3676 Y-1.0219
G1 X-0.3669 Y-1.0167
G1 X-0.3674 Y-1.0118
G1 X-0.3686 Y-1.0074
G1 X-0.3706 Y-1.0034
G1 X-0.3765 Y-0.9961
G1 X-0.3922 Y-0.9855
G1 X-0.3922 Y-0.9855
G1 X-0.4284 Y-0.9717
G1 X-0.4505 Y-0.9673
G1 X-0.4616 Y-0.9668
G1 X-0.4909 Y-0.9754
G1 X-0.5012 Y-0.9798
G1 X-0.5281 Y-0.9961
G1 X-0.5492 Y-1.0118
G1 X-0.5647 Y-1.0249
G1 X-0.5819 Y-1.0411
G1 X-0.6016 Y-1.0640
G1 X-0.6161 Y-1.0832
G1 X-0.6302 Y-1.1048
G1 X-0.6435 Y-1.1277
G1 X-0.6570 Y-1.1560
G1 X-0.6673 Y-1.1821
G1 X-0.6764 Y-1.2094
G1 X-0.6836 Y-1.2384
G1 X-0.6887 Y-1.2670
G1 X-0.6932 Y-1.2960
G1 X-0.6954 Y-1.3273
G1 X-0.6959 Y-1.3585
G1 X-0.6949 Y-1.3898
G1 X-0.6902 Y-1.4208
G1 X-0.6858 Y-1.4434
G1 X-0.6764 Y-1.4712
G1 X-0.6690 Y-1.4889
G1 X-0.6508 Y-1.5143
G1 X-0.6479 Y-1.5170
G1 X-0.6375 Y-1.5229
G1 X-0.6139 Y-1.5234
G1 X-0.6139 Y-1.5234
G1 X-0.5994 Y-1.5209
G1 X-0.5906 Y-1.5175
G1 X-0.5864 Y-1.5153
G1 X-0.5829 Y-1.5123
G0 X-0.5800 Y-1.5089
G0 X-0.5758 Y-1.5010
G0 X-0.5694 Y-1.4825
G0 X-0.4264 Y-1.0187
G1 X-0.4245 Y-1.0123
G1 X-0.4213 Y-1.0010
G1 X-0.4205 Y-0.9958
G1 X-0.4205 Y-0.9909
G1 X-0.4218 Y-0.9862
G1 X-0.4235 Y-0.9820
G1 X-0.4289 Y-0.9747
G1 X-0.4360 Y-0.9685
G1 X-0.4441 Y-0.9633
G1 X-0.4441 Y-0.9633
G1 X-0.4906 Y-0.9444
G1 X-0.5054 Y-0.9414
G1 X-0.5165 Y-0.9419
G1 X-0.5531 Y-0.9523
G1 X-0.5810 Y-0.9668
G1 X-0.6051 Y-0.9833
G1 X-0.6208 Y-0.9953
G1 X-0.6378 Y-1.0101
G1 X-0.6575 Y-1.0300
G1 X-0.6767 Y-1.0529
G1 X-0.6924 Y-1.0741
G1 X-0.7074 Y-1.0977
G1 X-0.7207 Y-1.1223
G1 X-0.7320 Y-1.1471
G1 X-0.7416 Y-1.1732
G1 X-0.7500 Y-1.1996
G1 X-0.7571 Y-1.2301
G1 X-0.7633 Y-1.2594
G1 X-0.7677 Y-1.2904
G1 X-0.7704 Y-1.3216
G1 X-0.7717 Y-1.3529
G1 X-0.7697 Y-1.3841
G1 X-0.7670 Y-1.4107
G1 X-0.7601 Y-1.4412
G1 X-0.7542 Y-1.4616
G1 X-0.7441 Y-1.4857
G1 X-0.7239 Y-1.5143
G1 X-0.7175 Y-1.5192
G1 X-0.7106 Y-1.5231
G1 X-0.6870 Y-1.5234
G1 X-0.6870 Y-1.5234
G1 X-0.6725 Y-1.5209
G1 X-0.6636 Y-1.5175
G1 X-0.6594 Y-1.5153
G1 X-0.6560 Y-1.5123
G0 X-0.6531 Y-1.5089
G0 X-0.6486 Y-1.5010
G0 X-0.6417 Y-1.4823
G0 X-0.4806 Y-0.9966
G1 X-0.4786 Y-0.9902
G1 X-0.4751 Y-0.9791
G1 X-0.4742 Y-0.9737
G1 X-0.4742 Y-0.9688
G1 X-0.4749 Y-0.9641
G1 X-0.4783 Y-0.9555
G1 X-0.4840 Y-0.9478
G1 X-0.4946 Y-0.9382
G1 X-0.4946 Y-0.9382
G1 X-0.5362 Y-0.9173
G1 X-0.5546 Y-0.9122
G1 X-0.5657 Y-0.9114
G1 X-0.5952 Y-0.9173
G1 X-0.6063 Y-0.9210
G1 X-0.6346 Y-0.9345
G1 X-0.6612 Y-0.9513
G1 X-0.6781 Y-0.9636
G1 X-0.6944 Y-0.9774
G1 X-0.7121 Y-0.9938
G1 X-0.7335 Y-1.0165
G1 X-0.7532 Y-1.0408
G1 X-0.7697 Y-1.0657
G1 X-0.7812 Y-1.0851
G1 X-0.7936 Y-1.1102
G1 X-0.8044 Y-1.1344
G1 X-0.8159 Y-1.1634
G1 X-0.8253 Y-1.1934
G1 X-0.8334 Y-1.2237
G1 X-0.8401 Y-1.2544
G1 X-0.8447 Y-1.2854
G1 X-0.8479 Y-1.3167
G1 X-0.8479 Y-1.3479
G1 X-0.8469 Y-1.3725
G1 X-0.8435 Y-1.4038
G1 X-0.8378 Y-1.4336
G1 X-0.8290 Y-1.4609
G1 X-0.8221 Y-1.4793
G1 X-0.8100 Y-1.5015
G1 X-0.8004 Y-1.5138
G1 X-0.7874 Y-1.5226
G1 X-0.7835 Y-1.5234
G1 X-0.7638 Y-1.5234
G1 X-0.7638 Y-1.5234
G1 X-0.7493 Y-1.5209
G1 X-0.7404 Y-1.5175
G1 X-0.7328 Y-1.5123
G0 X-0.7296 Y-1.5089
G0 X-0.7251 Y-1.5010
G0 X-0.5310 Y-0.9688
G1 X-0.5288 Y-0.9626
G1 X-0.5251 Y-0.9513
G1 X-0.5239 Y-0.9461
G1 X-0.5236 Y-0.9412
G1 X-0.5244 Y-0.9365
G1 X-0.5276 Y-0.9279
G1 X-0.5330 Y-0.9203
G1 X-0.5436 Y-0.9107
G1 X-0.5436 Y-0.9107
G1 X-0.5844 Y-0.8878
G1 X-0.6026 Y-0.8814
G1 X-0.6137 Y-0.8799
G1 X-0.6432 Y-0.8836
G1 X-0.6543 Y-0.8866
G1 X-0.6833 Y-0.8981
G1 X-0.7111 Y-0.9126
G1 X-0.7320 Y-0.9267
G1 X-0.7475 Y-0.9382
G1 X-0.7670 Y-0.9547
G1 X-0.7881 Y-0.9754
G1 X-0.8078 Y-0.9975
G1 X-0.8250 Y-1.0197
G1 X-0.8413 Y-1.0438
G1 X-0.8558 Y-1.0689
G1 X-0.8684 Y-1.0945
G1 X-0.8900 Y-1.1481
G1 X-0.8999 Y-1.1779
G1 X-0.9080 Y-1.2082
G1 X-0.9154 Y-1.2387
G1 X-0.9210 Y-1.2694
G1 X-0.9250 Y-1.3265
G1 X-0.9245 Y-1.3578
G1 X-0.9218 Y-1.3890
G1 X-0.9163 Y-1.4198
G1 X-0.9109 Y-1.4437
G1 X-0.9011 Y-1.4712
G1 X-0.8925 Y-1.4911
G1 X-0.8760 Y-1.5130
G1 X-0.8698 Y-1.5182
G1 X-0.8629 Y-1.5221
G1 X-0.8593 Y-1.5234
G1 X-0.8396 Y-1.5234
G1 X-0.8396 Y-1.5234
G1 X-0.8250 Y-1.5209
G1 X-0.8162 Y-1.5175
G1 X-0.8083 Y-1.5123
G0 X-0.8054 Y-1.5089
G0 X-0.7987 Y-1.4968
G0 X-0.5810 Y-0.9397
G1 X-0.5785 Y-0.9333
G1 X-0.5746 Y-0.9222
G1 X-0.5733 Y-0.9171
G1 X-0.5728 Y-0.9119
G1 X-0.5731 Y-0.9072
G1 X-0.5760 Y-0.8984
G1 X-0.5812 Y-0.8907
G1 X-0.5913 Y-0.8807
G1 X-0.5913 Y-0.8807
G1 X-0.6270 Y-0.8568
G1 X-0.6447 Y-0.8487
G1 X-0.6558 Y-0.8452
G1 X-0.6816 Y-0.8455
G1 X-0.7000 Y-0.8484
G1 X-0.7296 Y-0.8588
G1 X-0.7539 Y-0.8701
G1 X-0.7726 Y-0.8804
G1 X-0.7908 Y-0.8917
G1 X-0.8159 Y-0.9102
G1 X-0.8381 Y-0.9294
G1 X-0.8573 Y-0.9478
G1 X-0.8765 Y-0.9692
G1 X-0.8937 Y-0.9916
G1 X-0.9092 Y-1.0148
G1 X-0.9232 Y-1.0394
G1 X-0.9365 Y-1.0642
G1 X-0.9498 Y-1.0925
G1 X-0.9614 Y-1.1218
G1 X-0.9717 Y-1.1513
G1 X-0.9806 Y-1.1813
G1 X-0.9877 Y-1.2119
G1 X-0.9934 Y-1.2426
G1 X-0.9973 Y-1.2736
G1 X-0.9998 Y-1.3049
G1 X-1.0005 Y-1.3361
G1 X-0.9998 Y-1.3674
G1 X-0.9958 Y-1.3986
G1 X-0.9916 Y-1.4237
G1 X-0.9828 Y-1.4540
G1 X-0.9754 Y-1.4747
G1 X-0.9633 Y-1.4980
G1 X-0.9515 Y-1.5135
G1 X-0.9454 Y-1.5185
G1 X-0.9385 Y-1.5226
G1 X-0.9345 Y-1.5234
G1 X-0.9149 Y-1.5234
G1 X-0.9149 Y-1.5234
G1 X-0.9003 Y-1.5209
G1 X-0.8915 Y-1.5175
G1 X-0.8836 Y-1.5123
G0 X-0.8807 Y-1.5089
G0 X-0.8735 Y-1.4970
G0 X-0.6284 Y-0.9077
G1 X-0.6257 Y-0.9013
G1 X-0.6216 Y-0.8903
G1 X-0.6201 Y-0.8851
G1 X-0.6196 Y-0.8799
G1 X-0.6198 Y-0.8752
G1 X-0.6225 Y-0.8661
G1 X-0.6275 Y-0.8583
G1 X-0.6371 Y-0.8479
G1 X-0.6371 Y-0.8479
G1 X-0.6750 Y-0.8199
G1 X-0.6922 Y-0.8108
G1 X-0.7032 Y-0.8071
G1 X-0.7217 Y-0.8061
G1 X-0.7475 Y-0.8086
G1 X-0.7778 Y-0.8169
G1 X-0.8036 Y-0.8280
G1 X-0.8191 Y-0.8356
G1 X-0.8371 Y-0.8455
G1 X-0.8632 Y-0.8627
G1 X-0.8880 Y-0.8819
G1 X-0.9087 Y-0.8996
G1 X-0.9304 Y-0.9213
G1 X-0.9498 Y-0.9434
G1 X-0.9675 Y-0.9665
G1 X-0.9840 Y-0.9911
G1 X-0.9988 Y-1.0165
G1 X-1.0118 Y-1.0428
G1 X-1.0241 Y-1.0696
G1 X-1.0359 Y-1.0987
G1 X-1.0458 Y-1.1284
G1 X-1.0546 Y-1.1585
G1 X-1.0620 Y-1.1890
G1 X-1.0679 Y-1.2197
G1 X-1.0723 Y-1.2507
G1 X-1.0753 Y-1.2820
G1 X-1.0768 Y-1.3132
G1 X-1.0768 Y-1.3445
G1 X-1.0753 Y-1.3757
G1 X-1.0704 Y-1.4067
G1 X-1.0657 Y-1.4311
G1 X-1.0561 Y-1.4611
G1 X-1.0482 Y-1.4815
G1 X-1.0354 Y-1.5042
G1 X-1.0281 Y-1.5133
G1 X-1.0219 Y-1.5182
G1 X-1.0150 Y-1.5224
G1 X-1.0111 Y-1.5234
G1 X-0.9875 Y-1.5234
G1 X-0.9875 Y-1.5234
G1 X-0.9729 Y-1.5209
G1 X-0.9641 Y-1.5175
G1 X-0.9562 Y-1.5123
G0 X-0.9532 Y-1.5089
G0 X-0.9461 Y-1.4970
G0 X-0.6831 Y-0.8688
G1 X-0.6804 Y-0.8625
G1 X-0.6759 Y-0.8511
G1 X-0.6737 Y-0.8408
G1 X-0.6737 Y-0.8359
G1 X-0.6757 Y-0.8268
G1 X-0.6799 Y-0.8184
G1 X-0.6885 Y-0.8071
G1 X-0.6885 Y-0.8071
G1 X-0.7249 Y-0.7781
G1 X-0.7424 Y-0.7694
G1 X-0.7534 Y-0.7670
G1 X-0.7904 Y-0.7670
G1 X-0.8209 Y-0.7744
G1 X-0.8433 Y-0.7820
G1 X-0.8625 Y-0.7899
G1 X-0.8831 Y-0.7995
G1 X-0.9104 Y-0.8147
G1 X-0.9358 Y-0.8314
G1 X-0.9577 Y-0.8492
G1 X-0.9742 Y-0.8642
G1 X-0.9929 Y-0.8829
G1 X-1.0135 Y-0.9063
G1 X-1.0327 Y-0.9311
G1 X-1.0504 Y-0.9569
G1 X-1.0667 Y-0.9838
G1 X-1.0812 Y-1.0116
G1 X-1.0950 Y-1.0396
G1 X-1.1068 Y-1.0687
G1 X-1.1171 Y-1.0982
G1 X-1.1348 Y-1.1585
G1 X-1.1415 Y-1.1892
G1 X-1.1469 Y-1.2200
G1 X-1.1513 Y-1.2510
G1 X-1.1543 Y-1.2822
G1 X-1.1560 Y-1.3135
G1 X-1.1550 Y-1.3447
G1 X-1.1533 Y-1.3740
G1 X-1.1481 Y-1.4050
G1 X-1.1425 Y-1.4304
G1 X-1.1344 Y-1.4599
G1 X-1.1216 Y-1.4884
G1 X-1.1031 Y-1.5135
G1 X-1.0969 Y-1.5185
G1 X-1.0901 Y-1.5224
G1 X-1.0861 Y-1.5234
G1 X-1.0704 Y-1.5234
G1 X-1.0704 Y-1.5234
G1 X-1.0559 Y-1.5209
G1 X-1.0470 Y-1.5175
G1 X-1.0391 Y-1.5123
G0 X-1.0359 Y-1.5089
G0 X-1.0266 Y-1.4931
G0 X-0.7283 Y-0.8317
G1 X-0.7254 Y-0.8250
G1 X-0.7188 Y-0.8088
G1 X-0.7178 Y-0.8036
G1 X-0.7180 Y-0.7940
G1 X-0.7205 Y-0.7852
G1 X-0.7301 Y-0.7689
G1 X-0.7301 Y-0.7689
G1 X-0.7333 Y-0.7667
G1 X-0.7655 Y-0.7377
G1 X-0.7825 Y-0.7281
G1 X-0.7899 Y-0.7256
G1 X-0.8305 Y-0.7227
G1 X-0.8615 Y-0.7281
G1 X-0.8858 Y-0.7347
G1 X-0.9045 Y-0.7411
G1 X-0.9259 Y-0.7498
G1 X-0.9528 Y-0.7640
G1 X-0.9729 Y-0.7766
G1 X-0.9938 Y-0.7906
G1 X-1.0187 Y-0.8098
G1 X-1.0421 Y-0.8307
G1 X-1.0640 Y-0.8524
G1 X-1.0849 Y-0.8757
G1 X-1.1043 Y-0.9003
G1 X-1.1223 Y-0.9259
G1 X-1.1388 Y-0.9525
G1 X-1.1535 Y-0.9801
G1 X-1.1791 Y-1.0374
G1 X-1.1905 Y-1.0667
G1 X-1.2000 Y-1.0965
G1 X-1.2087 Y-1.1265
G1 X-1.2160 Y-1.1570
G1 X-1.2219 Y-1.1877
G1 X-1.2266 Y-1.2188
G1 X-1.2301 Y-1.2500
G1 X-1.2323 Y-1.2813
G1 X-1.2330 Y-1.3125
G1 X-1.2325 Y-1.3438
G1 X-1.2308 Y-1.3750
G1 X-1.2254 Y-1.4060
G1 X-1.2197 Y-1.4296
G1 X-1.2124 Y-1.4540
G1 X-1.2013 Y-1.4813
G1 X-1.1882 Y-1.5042
G1 X-1.1806 Y-1.5130
G1 X-1.1745 Y-1.5180
G1 X-1.1676 Y-1.5219
G1 X-1.1639 Y-1.5234
G1 X-1.1363 Y-1.5234
G1 X-1.1363 Y-1.5234
G1 X-1.1218 Y-1.5209
G1 X-1.1129 Y-1.5175
G1 X-1.1051 Y-1.5123
G0 X-1.1019 Y-1.5089
G0 X-1.0925 Y-1.4931
G0 X-0.7709 Y-0.7936
G1 X-0.7680 Y-0.7869
G1 X-0.7613 Y-0.7704
G1 X-0.7598 Y-0.7603
G1 X-0.7606 Y-0.7507
G1 X-0.7635 Y-0.7419
G1 X-0.7702 Y-0.7293
G1 X-0.7702 Y-0.7293
G1 X-0.8004 Y-0.6981
G1 X-0.8196 Y-0.6848
G1 X-0.8268 Y-0.6816
G1 X-0.8526 Y-0.6769
G1 X-0.8674 Y-0.6759
G1 X-0.8986 Y-0.6796
G1 X-0.9247 Y-0.6855
G1 X-0.9437 Y-0.6909
G1 X-0.9658 Y-0.6988
G1 X-0.9924 Y-0.7104
G1 X-1.0185 Y-0.7242
G1 X-1.0416 Y-0.7384
G1 X-1.0650 Y-0.7552
G1 X-1.0869 Y-0.7734
G1 X-1.1078 Y-0.7918
G1 X-1.1294 Y-0.8145
G1 X-1.1501 Y-0.8374
G1 X-1.1698 Y-0.8617
G1 X-1.1880 Y-0.8873
G1 X-1.2052 Y-0.9136
G1 X-1.2207 Y-0.9409
G1 X-1.2347 Y-0.9690
G1 X-1.2598 Y-1.0263
G1 X-1.2702 Y-1.0559
G1 X-1.2793 Y-1.0859
G1 X-1.2874 Y-1.1161
G1 X-1.3002 Y-1.1777
G1 X-1.3049 Y-1.2087
G1 X-1.3086 Y-1.2399
G1 X-1.3113 Y-1.2712
G1 X-1.3127 Y-1.3024
G1 X-1.3118 Y-1.3337
G1 X-1.3088 Y-1.3649
G1 X-1.3049 Y-1.3949
G1 X-1.2985 Y-1.4257
G1 X-1.2891 Y-1.4557
G1 X-1.2793 Y-1.4786
G1 X-1.2702 Y-1.4968
G1 X-1.2584 Y-1.5123
G1 X-1.2525 Y-1.5175
G1 X-1.2419 Y-1.5234
G1 X-1.2183 Y-1.5234
G1 X-1.2183 Y-1.5234
G1 X-1.2037 Y-1.5209
G1 X-1.1949 Y-1.5175
G1 X-1.1870 Y-1.5123
G0 X-1.1838 Y-1.5091
G0 X-1.1740 Y-1.4931
G0 X-0.8103 Y-0.7517
G1 X-0.8068 Y-0.7448
G1 X-0.7997 Y-0.7283
G1 X-0.7980 Y-0.7185
G1 X-0.7985 Y-0.7089
G1 X-0.8012 Y-0.7000
G1 X-0.8078 Y-0.6875
G1 X-0.8078 Y-0.6875
G1 X-0.8359 Y-0.6553
G1 X-0.8541 Y-0.6407
G1 X-0.8610 Y-0.6371
G1 X-0.8868 Y-0.6307
G1 X-0.9053 Y-0.6284
G1 X-0.9365 Y-0.6307
G1 X-0.9631 Y-0.6348
G1 X-0.9847 Y-0.6393
G1 X-1.0133 Y-0.6479
G1 X-1.0374 Y-0.6572
G1 X-1.0605 Y-0.6678
G1 X-1.0839 Y-0.6811
G1 X-1.1056 Y-0.6956
G1 X-1.1267 Y-0.7109
G1 X-1.1511 Y-0.7306
G1 X-1.1740 Y-0.7520
G1 X-1.1959 Y-0.7744
G1 X-1.2362 Y-0.8221
G1 X-1.2544 Y-0.8474
G1 X-1.2714 Y-0.8738
G1 X-1.2874 Y-0.9006
G1 X-1.3019 Y-0.9284
G1 X-1.3280 Y-0.9852
G1 X-1.3391 Y-1.0145
G1 X-1.3492 Y-1.0443
G1 X-1.3669 Y-1.1046
G1 X-1.3740 Y-1.1351
G1 X-1.3804 Y-1.1658
G1 X-1.3858 Y-1.1966
G1 X-1.3903 Y-1.2276
G1 X-1.3930 Y-1.2899
G1 X-1.3925 Y-1.3211
G1 X-1.3900 Y-1.3524
G1 X-1.3866 Y-1.3836
G1 X-1.3799 Y-1.4144
G1 X-1.3733 Y-1.4405
G1 X-1.3620 Y-1.4697
G1 X-1.3529 Y-1.4899
G1 X-1.3334 Y-1.5148
G1 X-1.3233 Y-1.5214
G1 X-1.3196 Y-1.5231
G1 X-1.2960 Y-1.5234
G1 X-1.2960 Y-1.5234
G1 X-1.2815 Y-1.5209
G1 X-1.2726 Y-1.5175
G1 X-1.2648 Y-1.5123
G0 X-1.2616 Y-1.5091
G0 X-1.2515 Y-1.4934
G0 X-0.8482 Y-0.7082
G1 X-0.8447 Y-0.7013
G1 X-0.8371 Y-0.6850
G1 X-0.8346 Y-0.6752
G1 X-0.8349 Y-0.6656
G1 X-0.8371 Y-0.6565
G1 X-0.8428 Y-0.6435
G1 X-0.8428 Y-0.6435
G1 X-0.8728 Y-0.6061
G1 X-0.8846 Y-0.5955
G1 X-0.8944 Y-0.5893
G1 X-0.9313 Y-0.5792
G1 X-0.9350 Y-0.5787
G1 X-0.9663 Y-0.5782
G1 X-0.9946 Y-0.5810
G1 X-1.0153 Y-0.5842
G1 X-1.0369 Y-0.5896
G1 X-1.0595 Y-0.5962
G1 X-1.0886 Y-0.6080
G1 X-1.1115 Y-0.6191
G1 X-1.1348 Y-0.6321
G1 X-1.1590 Y-0.6467
G1 X-1.1843 Y-0.6651
G1 X-1.2082 Y-0.6845
G1 X-1.2315 Y-0.7055
G1 X-1.2542 Y-0.7271
G1 X-1.2753 Y-0.7502
G1 X-1.2953 Y-0.7744
G1 X-1.3142 Y-0.7992
G1 X-1.3489 Y-0.8516
G1 X-1.3644 Y-0.8789
G1 X-1.3787 Y-0.9067
G1 X-1.3922 Y-0.9350
G1 X-1.4163 Y-0.9931
G1 X-1.4267 Y-1.0226
G1 X-1.4363 Y-1.0524
G1 X-1.4451 Y-1.0824
G1 X-1.4528 Y-1.1129
G1 X-1.4594 Y-1.1437
G1 X-1.4651 Y-1.1745
G1 X-1.4697 Y-1.2055
G1 X-1.4732 Y-1.2680
G1 X-1.4732 Y-1.2992
G1 X-1.4715 Y-1.3305
G1 X-1.4685 Y-1.3617
G1 X-1.4641 Y-1.3927
G1 X-1.4569 Y-1.4232
G1 X-1.4476 Y-1.4508
G1 X-1.4395 Y-1.4724
G1 X-1.4254 Y-1.4985
G1 X-1.4134 Y-1.5138
G1 X-1.4040 Y-1.5207
G1 X-1.4006 Y-1.5224
G1 X-1.3967 Y-1.5234
G1 X-1.3652 Y-1.5234
G1 X-1.3652 Y-1.5234
G1 X-1.3506 Y-1.5209
G1 X-1.3418 Y-1.5175
G1 X-1.3339 Y-1.5123
G0 X-1.3305 Y-1.5091
G0 X-1.3204 Y-1.4934
G0 X-0.8826 Y-0.6626
G1 X-0.8789 Y-0.6558
G1 X-0.8711 Y-0.6393
G1 X-0.8686 Y-0.6294
G1 X-0.8684 Y-0.6198
G1 X-0.8703 Y-0.6107
G1 X-0.8757 Y-0.5977
G1 X-0.8757 Y-0.5977
G1 X-0.9031 Y-0.5591
G1 X-0.9171 Y-0.5450
G1 X-0.9235 Y-0.5404
G1 X-0.9451 Y-0.5320
G1 X-0.9673 Y-0.5268
G1 X-0.9985 Y-0.5249
G1 X-1.0298 Y-0.5268
G1 X-1.0504 Y-0.5295
G1 X-1.0704 Y-0.5337
G1 X-1.0938 Y-0.5396
G1 X-1.1235 Y-0.5492
G1 X-1.1526 Y-0.5610
G1 X-1.1796 Y-0.5738
G1 X-1.2069 Y-0.5888
G1 X-1.2333 Y-0.6058
G1 X-1.2586 Y-0.6243
G1 X-1.2827 Y-0.6442
G1 X-1.3056 Y-0.6656
G1 X-1.3270 Y-0.6885
G1 X-1.3479 Y-0.7119
G1 X-1.3676 Y-0.7362
G1 X-1.3858 Y-0.7616
G1 X-1.4033 Y-0.7876
G1 X-1.4355 Y-0.8415
G1 X-1.4498 Y-0.8693
G1 X-1.4633 Y-0.8976
G1 X-1.5086 Y-1.0128
G1 X-1.5234 Y-1.0940
G1 X-1.5212 Y-1.4151
G1 X-1.5165 Y-1.4446
G1 X-1.5049 Y-1.4771
G1 X-1.4938 Y-1.4975
G1 X-1.4823 Y-1.5135
G1 X-1.4729 Y-1.5207
G1 X-1.4695 Y-1.5226
G1 X-1.4656 Y-1.5234
G1 X-1.4498 Y-1.5234
G1 X-1.4498 Y-1.5234
G1 X-1.4353 Y-1.5209
G1 X-1.4264 Y-1.5175
G1 X-1.4186 Y-1.5123
G0 X-1.4151 Y-1.5091
G0 X-1.4048 Y-1.4938
G0 X-0.9158 Y-0.6159
G1 X-0.9119 Y-0.6088
G1 X-0.9035 Y-0.5925
G1 X-0.9006 Y-0.5827
G1 X-0.9001 Y-0.5731
G1 X-0.9016 Y-0.5637
G1 X-0.9065 Y-0.5504
G1 X-0.9065 Y-0.5504
G1 X-0.9296 Y-0.5135
G1 X-0.9449 Y-0.4956
G1 X-0.9540 Y-0.4884
G1 X-0.9678 Y-0.4818
G1 X-0.9936 Y-0.4739
G1 X-1.0249 Y-0.4705
G1 X-1.0561 Y-0.4697
G1 X-1.0802 Y-0.4717
G1 X-1.0994 Y-0.4744
G1 X-1.1238 Y-0.4788
G1 X-1.1540 Y-0.4867
G1 X-1.1838 Y-0.4968
G1 X-1.2116 Y-0.5079
G1 X-1.2399 Y-0.5214
G1 X-1.2672 Y-0.5367
G1 X-1.2928 Y-0.5544
G1 X-1.3120 Y-0.5691
G1 X-1.3339 Y-0.5871
G1 X-1.3573 Y-0.6080
G1 X-1.3792 Y-0.6304
G1 X-1.4003 Y-0.6535
G1 X-1.4402 Y-0.7020
G1 X-1.4587 Y-0.7274
G1 X-1.4761 Y-0.7534
G1 X-1.5133 Y-0.8162
G1 X-1.5226 Y-0.8450
G1 X-1.5234 Y-0.8487
G1 X-1.5234 Y-1.0369
G1 X-1.5234 Y-1.0369
G1 X-1.5209 Y-1.0507
G1 X-1.5175 Y-1.0593
G1 X-1.5153 Y-1.0630
G1 X-1.5125 Y-1.0655
G0 X-1.5096 Y-1.0662
G0 X-1.5064 Y-1.0657
G0 X-1.4998 Y-1.0615
G0 X-0.9555 Y-0.5603
G1 X-0.9503 Y-0.5554
G1 X-0.9414 Y-0.5468
G1 X-0.9377 Y-0.5428
G1 X-0.9350 Y-0.5384
G1 X-0.9331 Y-0.5340
G1 X-0.9311 Y-0.5249
G1 X-0.9313 Y-0.5155
G1 X-0.9345 Y-0.5017
G1 X-0.9345 Y-0.5017
G1 X-0.9552 Y-0.4633
G1 X-0.9719 Y-0.4417
G1 X-0.9811 Y-0.4343
G1 X-1.0059 Y-0.4230
G1 X-1.0170 Y-0.4193
G1 X-1.0477 Y-0.4131
G1 X-1.0790 Y-0.4104
G1 X-1.1006 Y-0.4107
G1 X-1.1203 Y-0.4119
G1 X-1.1449 Y-0.4149
G1 X-1.1757 Y-0.4208
G1 X-1.2060 Y-0.4286
G1 X-1.2340 Y-0.4377
G1 X-1.2630 Y-0.4493
G1 X-1.2906 Y-0.4638
G1 X-1.3110 Y-0.4759
G1 X-1.3346 Y-0.4911
G1 X-1.3602 Y-0.5091
G1 X-1.3846 Y-0.5288
G1 X-1.4080 Y-0.5495
G1 X-1.4525 Y-0.5935
G1 X-1.4732 Y-0.6169
G1 X-1.5143 Y-0.6676
G1 X-1.5207 Y-0.6811
G1 X-1.5231 Y-0.6885
G1 X-1.5234 Y-0.7992
G1 X-1.5234 Y-0.7992
G1 X-1.5209 Y-0.8130
G1 X-1.5175 Y-0.8219
G1 X-1.5153 Y-0.8253
G1 X-1.5123 Y-0.8280
G0 X-1.5091 Y-0.8290
G0 X-1.5057 Y-0.8287
G0 X-1.4983 Y-0.8258
G0 X-0.9887 Y-0.4966
G1 X-0.9830 Y-0.4929
G1 X-0.9732 Y-0.4857
G1 X-0.9690 Y-0.4813
G1 X-0.9656 Y-0.4756
G1 X-0.9633 Y-0.4697
G1 X-0.9621 Y-0.4636
G1 X-0.9621 Y-0.4528
G1 X-0.9638 Y-0.4429
G1 X-0.9638 Y-0.4429
G1 X-0.9847 Y-0.3999
G1 X-0.9968 Y-0.3844
G1 X-1.0025 Y-0.3792
G1 X-1.0367 Y-0.3620
G1 X-1.0709 Y-0.3538
G1 X-1.1019 Y-0.3504
G1 X-1.1233 Y-0.3487
G1 X-1.1526 Y-0.3489
G1 X-1.1791 Y-0.3514
G1 X-1.2042 Y-0.3553
G1 X-1.2303 Y-0.3615
G1 X-1.2552 Y-0.3693
G1 X-1.2798 Y-0.3782
G1 X-1.3086 Y-0.3905
G1 X-1.3364 Y-0.4048
G1 X-1.3637 Y-0.4203
G1 X-1.3900 Y-0.4373
G1 X-1.4158 Y-0.4550
G1 X-1.4405 Y-0.4744
G1 X-1.4641 Y-0.4948
G1 X-1.5140 Y-0.5421
G1 X-1.5197 Y-0.5517
G1 X-1.5226 Y-0.5586
G1 X-1.5234 Y-0.5623
G1 X-1.5234 Y-0.6435
G1 X-1.5234 Y-0.6435
G1 X-1.5209 Y-0.6572
G1 X-1.5175 Y-0.6661
G1 X-1.5153 Y-0.6698
G1 X-1.5123 Y-0.6722
G0 X-1.5091 Y-0.6737
G0 X-1.5054 Y-0.6737
G0 X-1.4973 Y-0.6715
G0 X-1.0128 Y-0.4412
G1 X-1.0066 Y-0.4382
G1 X-0.9963 Y-0.4328
G1 X-0.9919 Y-0.4299
G1 X-0.9884 Y-0.4264
G1 X-0.9860 Y-0.4225
G1 X-0.9845 Y-0.4183
G1 X-0.9830 Y-0.4094
G1 X-0.9838 Y-0.4001
G1 X-0.9857 Y-0.3910
G1 X-0.9857 Y-0.3910
G1 X-1.0047 Y-0.3472
G1 X-1.0155 Y-0.3307
G1 X-1.0239 Y-0.3226
G1 X-1.0576 Y-0.3036
G1 X-1.0878 Y-0.2948
G1 X-1.1169 Y-0.2894
G1 X-1.1385 Y-0.2867
G1 X-1.1622 Y-0.2857
G1 X-1.1868 Y-0.2862
G1 X-1.2168 Y-0.2894
G1 X-1.2424 Y-0.2938
G1 X-1.2685 Y-0.2995
G1 X-1.2985 Y-0.3088
G1 X-1.3529 Y-0.3300
G1 X-1.3809 Y-0.3440
G1 X-1.4087 Y-0.3588
G1 X-1.4355 Y-0.3750
G1 X-1.4614 Y-0.3927
G1 X-1.5128 Y-0.4328
G1 X-1.5177 Y-0.4385
G1 X-1.5229 Y-0.4486
G1 X-1.5234 Y-0.4966
G1 X-1.5234 Y-0.4966
G1 X-1.5209 Y-0.5103
G1 X-1.5175 Y-0.5192
G1 X-1.5153 Y-0.5229
G1 X-1.5123 Y-0.5256
G0 X-1.5089 Y-0.5273
G0 X-1.5049 Y-0.5278
G0 X-1.4921 Y-0.5256
G0 X-1.0367 Y-0.3839
G1 X-1.0305 Y-0.3821
G1 X-1.0194 Y-0.3782
G1 X-1.0148 Y-0.3760
G1 X-1.0111 Y-0.3730
G1 X-1.0084 Y-0.3696
G1 X-1.0062 Y-0.3654
G1 X-1.0042 Y-0.3565
G1 X-1.0042 Y-0.3474
G1 X-1.0054 Y-0.3381
G1 X-1.0054 Y-0.3381
G1 X-1.0199 Y-0.2960
G1 X-1.0290 Y-0.2783
G1 X-1.0364 Y-0.2689
G1 X-1.0554 Y-0.2549
G1 X-1.0723 Y-0.2453
G1 X-1.1019 Y-0.2345
G1 X-1.1324 Y-0.2274
G1 X-1.1531 Y-0.2239
G1 X-1.1745 Y-0.2219
G1 X-1.1993 Y-0.2210
G1 X-1.2306 Y-0.2229
G1 X-1.2559 Y-0.2261
G1 X-1.2827 Y-0.2303
G1 X-1.3132 Y-0.2379
G1 X-1.3413 Y-0.2466
G1 X-1.3703 Y-0.2571
G1 X-1.3994 Y-0.2687
G1 X-1.4277 Y-0.2825
G1 X-1.4552 Y-0.2975
G1 X-1.4820 Y-0.3135
G1 X-1.5138 Y-0.3359
G1 X-1.5187 Y-0.3418
G1 X-1.5224 Y-0.3484
G1 X-1.5234 Y-0.3521
G1 X-1.5234 Y-0.3816
G1 X-1.5234 Y-0.3816
G1 X-1.5209 Y-0.3954
G1 X-1.5175 Y-0.4043
G1 X-1.5153 Y-0.4080
G1 X-1.5123 Y-0.4109
G0 X-1.5086 Y-0.4126
G0 X-1.5049 Y-0.4136
G0 X-1.4916 Y-0.4126
G0 X-1.0554 Y-0.3265
G1 X-1.0492 Y-0.3253
G1 X-1.0379 Y-0.3223
G1 X-1.0327 Y-0.3194
G1 X-1.0283 Y-0.3152
G1 X-1.0251 Y-0.3100
G1 X-1.0229 Y-0.3046
G1 X-1.0217 Y-0.2992
G1 X-1.0217 Y-0.2842
G1 X-1.0217 Y-0.2842
G1 X-1.0340 Y-0.2411
G1 X-1.0460 Y-0.2158
G1 X-1.0512 Y-0.2096
G1 X-1.0758 Y-0.1907
G1 X-1.0861 Y-0.1848
G1 X-1.1152 Y-0.1727
G1 X-1.1452 Y-0.1639
G1 X-1.1693 Y-0.1592
G1 X-1.1887 Y-0.1565
G1 X-1.2146 Y-0.1545
G1 X-1.2438 Y-0.1553
G1 X-1.2945 Y-0.1599
G1 X-1.3255 Y-0.1654
G1 X-1.3561 Y-0.1727
G1 X-1.3861 Y-0.1813
G1 X-1.4156 Y-0.1917
G1 X-1.4446 Y-0.2037
G1 X-1.4729 Y-0.2173
G1 X-1.5121 Y-0.2424
G1 X-1.5150 Y-0.2448
G1 X-1.5197 Y-0.2510
G1 X-1.5231 Y-0.2576
G1 X-1.5234 Y-0.2761
G1 X-1.5234 Y-0.2761
G1 X-1.5209 Y-0.2899
G1 X-1.5175 Y-0.2987
G1 X-1.5153 Y-0.3024
G1 X-1.5121 Y-0.3054
G0 X-1.5086 Y-0.3076
G0 X-1.5047 Y-0.3086
G0 X-1.4914 Y-0.3088
G0 X-1.0711 Y-0.2687
G1 X-1.0650 Y-0.2682
G1 X-1.0536 Y-0.2667
G1 X-1.0487 Y-0.2653
G1 X-1.0445 Y-0.2630
G1 X-1.0413 Y-0.2598
G1 X-1.0389 Y-0.2562
G1 X-1.0359 Y-0.2478
G1 X-1.0349 Y-0.2387
G1 X-1.0352 Y-0.2296
G1 X-1.0352 Y-0.2296
G1 X-1.0477 Y-0.1784
G1 X-1.0556 Y-0.1602
G1 X-1.0623 Y-0.1506
G1 X-1.0839 Y-0.1341
G1 X-1.0942 Y-0.1282
G1 X-1.1223 Y-0.1139
G1 X-1.1518 Y-0.1031
G1 X-1.1806 Y-0.0957
G1 X-1.2015 Y-0.0923
G1 X-1.2207 Y-0.0901
G1 X-1.2490 Y-0.0881
G1 X-1.2803 Y-0.0883
G1 X-1.3115 Y-0.0903
G1 X-1.3428 Y-0.0940
G1 X-1.3735 Y-0.0997
G1 X-1.4040 Y-0.1070
G1 X-1.4341 Y-0.1161
G1 X-1.4633 Y-0.1272
G1 X-1.4943 Y-0.1435
G1 X-1.5135 Y-0.1565
G1 X-1.5185 Y-0.1622
G1 X-1.5221 Y-0.1686
G1 X-1.5234 Y-0.1722
G1 X-1.5234 Y-0.1944
G1 X-1.5234 Y-0.1944
G1 X-1.5209 Y-0.2082
G1 X-1.5175 Y-0.2170
G1 X-1.5150 Y-0.2207
G1 X-1.5121 Y-0.2239
G0 X-1.5086 Y-0.2259
G0 X-1.5047 Y-0.2271
G0 X-1.4911 Y-0.2279
G0 X-1.0856 Y-0.2028
G1 X-1.0792 Y-0.2025
G1 X-1.0679 Y-0.2015
G1 X-1.0630 Y-0.2003
G1 X-1.0588 Y-0.1981
G1 X-1.0554 Y-0.1954
G1 X-1.0527 Y-0.1917
G1 X-1.0492 Y-0.1836
G1 X-1.0477 Y-0.1745
G1 X-1.0475 Y-0.1651
G1 X-1.0475 Y-0.1651
G1 X-1.0554 Y-0.1257
G1 X-1.0627 Y-0.1070
G1 X-1.0669 Y-0.1004
G1 X-1.0938 Y-0.0770
G1 X-1.1267 Y-0.0559
G1 X-1.1553 Y-0.0428
G1 X-1.1794 Y-0.0344
G1 X-1.1988 Y-0.0295
G1 X-1.2180 Y-0.0256
G1 X-1.2470 Y-0.0214
G1 X-1.2783 Y-0.0192
G1 X-1.3095 Y-0.0187
G1 X-1.3408 Y-0.0199
G1 X-1.3720 Y-0.0231
G1 X-1.4028 Y-0.0295
G1 X-1.4264 Y-0.0354
G1 X-1.4542 Y-0.0448
G1 X-1.4803 Y-0.0559
G1 X-1.5042 Y-0.0694
G1 X-1.5157 Y-0.0792
G1 X-1.5234 Y-0.0923
G1 X-1.5234 Y-0.1439
G1 X-1.5234 Y-0.1439
G1 X-1.5209 Y-0.1577
G1 X-1.5175 Y-0.1666
G1 X-1.5153 Y-0.1703
G1 X-1.5121 Y-0.1735
G0 X-1.5086 Y-0.1754
G0 X-1.5047 Y-0.1767
G0 X-1.4914 Y-0.1777
G0 X-1.0935 Y-0.1560
G1 X-1.0871 Y-0.1558
G1 X-1.0758 Y-0.1548
G1 X-1.0706 Y-0.1535
G1 X-1.0664 Y-0.1516
G1 X-1.0630 Y-0.1486
G1 X-1.0603 Y-0.1452
G1 X-1.0566 Y-0.1371
G1 X-1.0549 Y-0.1280
G1 X-1.0544 Y-0.1186
G1 X-1.0544 Y-0.1186
G1 X-1.0608 Y-0.0714
G1 X-1.0669 Y-0.0524
G1 X-1.0706 Y-0.0455
G1 X-1.0893 Y-0.0253
G1 X-1.1014 Y-0.0155
G1 X-1.1272 Y0.0025
G1 X-1.1550 Y0.0167
G1 X-1.1998 Y0.0344
G1 X-1.2301 Y0.0426
G1 X-1.2557 Y0.0472
G1 X-1.2815 Y0.0504
G1 X-1.3091 Y0.0517
G1 X-1.3620 Y0.0497
G1 X-1.3930 Y0.0453
G1 X-1.4222 Y0.0394
G1 X-1.4528 Y0.0317
G1 X-1.4818 Y0.0197
G1 X-1.4995 Y0.0101
G1 X-1.5148 Y-0.0020
G1 X-1.5192 Y-0.0081
G1 X-1.5226 Y-0.0150
G1 X-1.5234 Y-0.0187
G1 X-1.5234 Y-0.0851
G1 X-1.5234 Y-0.0851
G1 X-1.5209 Y-0.0989
G1 X-1.5175 Y-0.1078
G1 X-1.5150 Y-0.1115
G1 X-1.5121 Y-0.1147
G0 X-1.5086 Y-0.1166
G0 X-1.5047 Y-0.1179
G0 X-1.4911 Y-0.1188
G0 X-1.0999 Y-0.0992
G1 X-1.0935 Y-0.0989
G1 X-1.0822 Y-0.0979
G1 X-1.0770 Y-0.0969
G1 X-1.0726 Y-0.0950
G1 X-1.0691 Y-0.0923
G1 X-1.0662 Y-0.0888
G1 X-1.0620 Y-0.0807
G1 X-1.0598 Y-0.0719
G1 X-1.0588 Y-0.0625
G1 X-1.0588 Y-0.0625
G1 X-1.0610 Y-0.0271
G1 X-1.0659 Y-0.0034
G1 X-1.0716 Y0.0106
G1 X-1.0827 Y0.0256
G1 X-1.1014 Y0.0440
G1 X-1.1262 Y0.0630
G1 X-1.1528 Y0.0795
G1 X-1.1745 Y0.0896
G1 X-1.1914 Y0.0965
G1 X-1.2136 Y0.1041
G1 X-1.2438 Y0.1122
G1 X-1.2746 Y0.1181
G1 X-1.3034 Y0.1211
G1 X-1.3270 Y0.1220
G1 X-1.3548 Y0.1211
G1 X-1.3814 Y0.1191
G1 X-1.4124 Y0.1144
G1 X-1.4417 Y0.1080
G1 X-1.4707 Y0.0982
G1 X-1.4906 Y0.0891
G1 X-1.5128 Y0.0731
G1 X-1.5157 Y0.0704
G1 X-1.5236 Y0.0566
G1 X-1.5234 Y-0.0096
G1 X-1.5234 Y-0.0096
G1 X-1.5209 Y-0.0234
G1 X-1.5175 Y-0.0322
G1 X-1.5150 Y-0.0359
G1 X-1.5121 Y-0.0391
G0 X-1.5086 Y-0.0413
G0 X-1.5002 Y-0.0436
G0 X-1.4823 Y-0.0440
G0 X-1.1046 Y-0.0404
G1 X-1.0982 Y-0.0404
G1 X-1.0869 Y-0.0399
G1 X-1.0817 Y-0.0391
G1 X-1.0773 Y-0.0374
G1 X-1.0733 Y-0.0349
G1 X-1.0701 Y-0.0317
G1 X-1.0655 Y-0.0239
G1 X-1.0605 Y-0.0062
G1 X-1.0605 Y-0.0062
G1 X-1.0615 Y0.0384
G1 X-1.0655 Y0.0605
G1 X-1.0696 Y0.0711
G1 X-1.0925 Y0.1004
G1 X-1.1193 Y0.1230
G1 X-1.1435 Y0.1393
G1 X-1.1624 Y0.1499
G1 X-1.1816 Y0.1594
G1 X-1.2099 Y0.1700
G1 X-1.2330 Y0.1767
G1 X-1.2571 Y0.1821
G1 X-1.2827 Y0.1870
G1 X-1.3140 Y0.1900
G1 X-1.3428 Y0.1912
G1 X-1.3735 Y0.1909
G1 X-1.4048 Y0.1882
G1 X-1.4350 Y0.1823
G1 X-1.4567 Y0.1759
G1 X-1.4761 Y0.1688
G1 X-1.4978 Y0.1582
G1 X-1.5133 Y0.1462
G1 X-1.5185 Y0.1400
G1 X-1.5236 Y0.1294
G1 X-1.5236 Y0.0625
G1 X-1.5236 Y0.0625
G1 X-1.5212 Y0.0480
G1 X-1.5177 Y0.0391
G1 X-1.5153 Y0.0352
G1 X-1.5123 Y0.0317
G0 X-1.5089 Y0.0295
G0 X-1.5005 Y0.0271
G0 X-1.4825 Y0.0258
G0 X-1.1046 Y0.0160
G1 X-1.0982 Y0.0160
G1 X-1.0869 Y0.0160
G1 X-1.0817 Y0.0167
G1 X-1.0770 Y0.0185
G1 X-1.0731 Y0.0209
G1 X-1.0699 Y0.0239
G1 X-1.0650 Y0.0317
G1 X-1.0595 Y0.0500
G1 X-1.0595 Y0.0500
G1 X-1.0578 Y0.0942
G1 X-1.0610 Y0.1201
G1 X-1.0647 Y0.1307
G1 X-1.0901 Y0.1636
G1 X-1.1132 Y0.1848
G1 X-1.1390 Y0.2028
G1 X-1.1558 Y0.2128
G1 X-1.1737 Y0.2227
G1 X-1.2003 Y0.2345
G1 X-1.2293 Y0.2446
G1 X-1.2542 Y0.2517
G1 X-1.2822 Y0.2576
G1 X-1.3103 Y0.2613
G1 X-1.3378 Y0.2630
G1 X-1.3659 Y0.2628
G1 X-1.3937 Y0.2606
G1 X-1.4213 Y0.2566
G1 X-1.4486 Y0.2507
G1 X-1.4749 Y0.2416
G1 X-1.4936 Y0.2330
G1 X-1.5125 Y0.2190
G1 X-1.5155 Y0.2163
G1 X-1.5202 Y0.2096
G1 X-1.5236 Y0.2025
G1 X-1.5236 Y0.1356
G1 X-1.5236 Y0.1356
G1 X-1.5212 Y0.1211
G1 X-1.5177 Y0.1122
G1 X-1.5155 Y0.1083
G1 X-1.5123 Y0.1048
G0 X-1.5089 Y0.1026
G0 X-1.5007 Y0.0999
G0 X-1.4828 Y0.0984
G0 X-1.1021 Y0.0829
G1 X-1.0957 Y0.0827
G1 X-1.0844 Y0.0824
G1 X-1.0790 Y0.0832
G1 X-1.0743 Y0.0846
G1 X-1.0704 Y0.0869
G1 X-1.0669 Y0.0901
G1 X-1.0613 Y0.0974
G1 X-1.0546 Y0.1154
G1 X-1.0546 Y0.1154
G1 X-1.0507 Y0.1523
G1 X-1.0522 Y0.1745
G1 X-1.0551 Y0.1855
G1 X-1.0733 Y0.2141
G1 X-1.0992 Y0.2434
G1 X-1.1233 Y0.2633
G1 X-1.1570 Y0.2849
G1 X-1.1806 Y0.2972
G1 X-1.2087 Y0.3083
G1 X-1.2311 Y0.3157
G1 X-1.2566 Y0.3221
G1 X-1.2825 Y0.3275
G1 X-1.3135 Y0.3314
G1 X-1.3428 Y0.3334
G1 X-1.3733 Y0.3337
G1 X-1.4045 Y0.3317
G1 X-1.4345 Y0.3260
G1 X-1.4545 Y0.3214
G1 X-1.4796 Y0.3120
G1 X-1.4978 Y0.3036
G1 X-1.5135 Y0.2921
G1 X-1.5185 Y0.2862
G1 X-1.5236 Y0.2753
G1 X-1.5236 Y0.2084
G1 X-1.5236 Y0.2084
G1 X-1.5212 Y0.1939
G1 X-1.5177 Y0.1850
G1 X-1.5153 Y0.1811
G1 X-1.5123 Y0.1777
G0 X-1.5089 Y0.1752
G0 X-1.5005 Y0.1725
G0 X-1.4825 Y0.1703
G0 X-1.0962 Y0.1410
G1 X-1.0898 Y0.1407
G1 X-1.0782 Y0.1400
G1 X-1.0731 Y0.1405
G1 X-1.0684 Y0.1417
G1 X-1.0642 Y0.1439
G1 X-1.0605 Y0.1467
G1 X-1.0544 Y0.1538
G1 X-1.0468 Y0.1713
G1 X-1.0468 Y0.1713
G1 X-1.0406 Y0.2192
G1 X-1.0418 Y0.2377
G1 X-1.0438 Y0.2451
G1 X-1.0608 Y0.2744
G1 X-1.0652 Y0.2803
G1 X-1.0861 Y0.3036
G1 X-1.1097 Y0.3241
G1 X-1.1265 Y0.3361
G1 X-1.1636 Y0.3585
G1 X-1.1917 Y0.3723
G1 X-1.2207 Y0.3841
G1 X-1.2500 Y0.3922
G1 X-1.2709 Y0.3971
G1 X-1.2980 Y0.4021
G1 X-1.3292 Y0.4045
G1 X-1.3556 Y0.4053
G1 X-1.3841 Y0.4040
G1 X-1.4131 Y0.4006
G1 X-1.4409 Y0.3954
G1 X-1.4688 Y0.3883
G1 X-1.4951 Y0.3765
G1 X-1.5140 Y0.3625
G1 X-1.5189 Y0.3561
G1 X-1.5226 Y0.3489
G1 X-1.5236 Y0.3450
G1 X-1.5236 Y0.2820
G1 X-1.5236 Y0.2820
G1 X-1.5212 Y0.2675
G1 X-1.5177 Y0.2586
G1 X-1.5155 Y0.2547
G1 X-1.5125 Y0.2512
G0 X-1.5089 Y0.2488
G0 X-1.5007 Y0.2456
G0 X-1.4828 Y0.2429
G0 X-1.0866 Y0.1978
G1 X-1.0802 Y0.1973
G1 X-1.0689 Y0.1964
G1 X-1.0637 Y0.1966
G1 X-1.0588 Y0.1978
G1 X-1.0546 Y0.1998
G1 X-1.0507 Y0.2025
G1 X-1.0445 Y0.2094
G1 X-1.0364 Y0.2266
G1 X-1.0364 Y0.2266
G1 X-1.0271 Y0.2709
G1 X-1.0266 Y0.2894
G1 X-1.0283 Y0.3004
G1 X-1.0362 Y0.3177
G1 X-1.0485 Y0.3369
G1 X-1.0674 Y0.3620
G1 X-1.0898 Y0.3839
G1 X-1.1216 Y0.4085
G1 X-1.1442 Y0.4230
G1 X-1.1708 Y0.4363
G1 X-1.1924 Y0.4456
G1 X-1.2175 Y0.4542
G1 X-1.2429 Y0.4621
G1 X-1.2734 Y0.4688
G1 X-1.3027 Y0.4734
G1 X-1.3337 Y0.4766
G1 X-1.3649 Y0.4776
G1 X-1.3959 Y0.4769
G1 X-1.4269 Y0.4719
G1 X-1.4464 Y0.4680
G1 X-1.4715 Y0.4606
G1 X-1.4941 Y0.4500
G1 X-1.5128 Y0.4358
G1 X-1.5180 Y0.4299
G1 X-1.5234 Y0.4193
G1 X-1.5236 Y0.3524
G1 X-1.5236 Y0.3524
G1 X-1.5212 Y0.3378
G1 X-1.5177 Y0.3290
G1 X-1.5155 Y0.3248
G1 X-1.5125 Y0.3216
G0 X-1.5089 Y0.3189
G0 X-1.5007 Y0.3157
G0 X-1.4825 Y0.3125
G0 X-1.0741 Y0.2544
G1 X-1.0677 Y0.2537
G1 X-1.0563 Y0.2522
G1 X-1.0509 Y0.2525
G1 X-1.0463 Y0.2532
G1 X-1.0418 Y0.2552
G1 X-1.0379 Y0.2576
G1 X-1.0315 Y0.2643
G1 X-1.0266 Y0.2724
G1 X-1.0229 Y0.2812
G1 X-1.0229 Y0.2812
G1 X-1.0108 Y0.3292
G1 X-1.0096 Y0.3477
G1 X-1.0116 Y0.3588
G1 X-1.0221 Y0.3829
G1 X-1.0278 Y0.3925
G1 X-1.0460 Y0.4181
G1 X-1.0677 Y0.4407
G1 X-1.0822 Y0.4537
G1 X-1.0979 Y0.4660
G1 X-1.1179 Y0.4803
G1 X-1.1447 Y0.4966
G1 X-1.1725 Y0.5111
G1 X-1.1998 Y0.5219
G1 X-1.2217 Y0.5293
G1 X-1.2480 Y0.5369
G1 X-1.2788 Y0.5428
G1 X-1.3061 Y0.5465
G1 X-1.3354 Y0.5495
G1 X-1.3666 Y0.5500
G1 X-1.3976 Y0.5487
G1 X-1.4286 Y0.5438
G1 X-1.4498 Y0.5386
G1 X-1.4707 Y0.5320
G1 X-1.4934 Y0.5221
G1 X-1.5153 Y0.5059
G1 X-1.5199 Y0.4993
G1 X-1.5234 Y0.4921
G1 X-1.5236 Y0.4252
G1 X-1.5236 Y0.4252
G1 X-1.5212 Y0.4107
G1 X-1.5177 Y0.4018
G1 X-1.5155 Y0.3976
G1 X-1.5125 Y0.3944
G0 X-1.5089 Y0.3917
G0 X-1.5007 Y0.3883
G0 X-1.4823 Y0.3844
G0 X-1.0598 Y0.3113
G1 X-1.0536 Y0.3103
G1 X-1.0421 Y0.3086
G1 X-1.0367 Y0.3083
G1 X-1.0317 Y0.3091
G1 X-1.0273 Y0.3108
G1 X-1.0234 Y0.3130
G1 X-1.0165 Y0.3191
G1 X-1.0064 Y0.3351
G1 X-1.0064 Y0.3351
G1 X-0.9916 Y0.3831
G1 X-0.9894 Y0.4016
G1 X-0.9909 Y0.4126
G1 X-1.0059 Y0.4473
G1 X-1.0234 Y0.4734
G1 X-1.0438 Y0.4973
G1 X-1.0591 Y0.5128
G1 X-1.0753 Y0.5273
G1 X-1.0955 Y0.5431
G1 X-1.1206 Y0.5591
G1 X-1.1427 Y0.5714
G1 X-1.1671 Y0.5827
G1 X-1.1922 Y0.5933
G1 X-1.2219 Y0.6029
G1 X-1.2507 Y0.6105
G1 X-1.2810 Y0.6166
G1 X-1.3120 Y0.6206
G1 X-1.3428 Y0.6228
G1 X-1.3740 Y0.6230
G1 X-1.4053 Y0.6201
G1 X-1.4291 Y0.6166
G1 X-1.4567 Y0.6093
G1 X-1.4769 Y0.6024
G1 X-1.4985 Y0.5915
G1 X-1.5140 Y0.5797
G1 X-1.5207 Y0.5701
G1 X-1.5236 Y0.5625
G1 X-1.5236 Y0.4995
G1 X-1.5236 Y0.4995
G1 X-1.5212 Y0.4850
G1 X-1.5177 Y0.4761
G1 X-1.5155 Y0.4719
G1 X-1.5125 Y0.4685
G0 X-1.5089 Y0.4658
G0 X-1.5007 Y0.4621
G0 X-1.4825 Y0.4577
G0 X-1.0421 Y0.3666
G1 X-1.0359 Y0.3654
G1 X-1.0244 Y0.3632
G1 X-1.0192 Y0.3629
G1 X-1.0143 Y0.3634
G1 X-1.0096 Y0.3647
G1 X-1.0017 Y0.3696
G1 X-0.9948 Y0.3760
G1 X-0.9870 Y0.3880
G1 X-0.9870 Y0.3880
G1 X-0.9690 Y0.4395
G1 X-0.9668 Y0.4542
G1 X-0.9670 Y0.4616
G1 X-0.9747 Y0.4870
G1 X-0.9808 Y0.5007
G1 X-0.9968 Y0.5278
G1 X-1.0153 Y0.5531
G1 X-1.0317 Y0.5709
G1 X-1.0445 Y0.5834
G1 X-1.0632 Y0.5994
G1 X-1.0871 Y0.6171
G1 X-1.1132 Y0.6336
G1 X-1.1378 Y0.6471
G1 X-1.1646 Y0.6597
G1 X-1.1919 Y0.6703
G1 X-1.2197 Y0.6789
G1 X-1.2483 Y0.6858
G1 X-1.2773 Y0.6907
G1 X-1.3061 Y0.6946
G1 X-1.3374 Y0.6964
G1 X-1.3686 Y0.6964
G1 X-1.3999 Y0.6946
G1 X-1.4309 Y0.6890
G1 X-1.4518 Y0.6833
G1 X-1.4724 Y0.6764
G1 X-1.4948 Y0.6663
G1 X-1.5135 Y0.6521
G1 X-1.5185 Y0.6459
G1 X-1.5236 Y0.6353
G1 X-1.5236 Y0.5684
G1 X-1.5236 Y0.5684
G1 X-1.5212 Y0.5539
G1 X-1.5177 Y0.5450
G1 X-1.5155 Y0.5408
G1 X-1.5125 Y0.5374
G0 X-1.5091 Y0.5347
G0 X-1.5010 Y0.5310
G0 X-1.4823 Y0.5261
G0 X-1.0224 Y0.4210
G1 X-1.0160 Y0.4198
G1 X-1.0044 Y0.4173
G1 X-0.9990 Y0.4168
G1 X-0.9941 Y0.4171
G1 X-0.9894 Y0.4183
G1 X-0.9811 Y0.4225
G1 X-0.9739 Y0.4286
G1 X-0.9653 Y0.4400
G1 X-0.9653 Y0.4400
G1 X-0.9493 Y0.4747
G1 X-0.9412 Y0.5042
G1 X-0.9405 Y0.5116
G1 X-0.9449 Y0.5337
G1 X-0.9515 Y0.5514
G1 X-0.9648 Y0.5797
G1 X-0.9830 Y0.6053
G1 X-0.9946 Y0.6193
G1 X-1.0244 Y0.6508
G1 X-1.0480 Y0.6715
G1 X-1.0728 Y0.6907
G1 X-1.0999 Y0.7067
G1 X-1.1179 Y0.7165
G1 X-1.1427 Y0.7283
G1 X-1.1718 Y0.7399
G1 X-1.2015 Y0.7498
G1 X-1.2318 Y0.7579
G1 X-1.2625 Y0.7643
G1 X-1.2936 Y0.7687
G1 X-1.3248 Y0.7714
G1 X-1.3561 Y0.7721
G1 X-1.3873 Y0.7699
G1 X-1.4117 Y0.7670
G1 X-1.4409 Y0.7613
G1 X-1.4683 Y0.7522
G1 X-1.4906 Y0.7419
G1 X-1.5128 Y0.7256
G1 X-1.5157 Y0.7229
G1 X-1.5221 Y0.7128
G1 X-1.5236 Y0.7092
G1 X-1.5236 Y0.6422
G1 X-1.5236 Y0.6422
G1 X-1.5212 Y0.6277
G1 X-1.5177 Y0.6188
G1 X-1.5155 Y0.6147
G1 X-1.5125 Y0.6112
G0 X-1.5091 Y0.6085
G0 X-1.5010 Y0.6043
G0 X-1.4820 Y0.5989
G0 X-0.9995 Y0.4744
G1 X-0.9931 Y0.4729
G1 X-0.9818 Y0.4702
G1 X-0.9764 Y0.4697
G1 X-0.9712 Y0.4697
G1 X-0.9665 Y0.4705
G1 X-0.9579 Y0.4744
G1 X-0.9503 Y0.4801
G1 X-0.9407 Y0.4906
G1 X-0.9407 Y0.4906
G1 X-0.9190 Y0.5320
G1 X-0.9129 Y0.5504
G1 X-0.9112 Y0.5615
G1 X-0.9136 Y0.5800
G1 X-0.9205 Y0.6021
G1 X-0.9338 Y0.6307
G1 X-0.9493 Y0.6577
G1 X-0.9641 Y0.6789
G1 X-0.9771 Y0.6956
G1 X-0.9956 Y0.7151
G1 X-1.0138 Y0.7313
G1 X-1.0327 Y0.7458
G1 X-1.0529 Y0.7603
G1 X-1.0795 Y0.7771
G1 X-1.1070 Y0.7918
G1 X-1.1353 Y0.8054
G1 X-1.1644 Y0.8172
G1 X-1.1941 Y0.8270
G1 X-1.2244 Y0.8354
G1 X-1.2552 Y0.8418
G1 X-1.2862 Y0.8465
G1 X-1.3174 Y0.8482
G1 X-1.3425 Y0.8482
G1 X-1.3725 Y0.8462
G1 X-1.4016 Y0.8430
G1 X-1.4326 Y0.8374
G1 X-1.4626 Y0.8280
G1 X-1.4815 Y0.8201
G1 X-1.4990 Y0.8113
G1 X-1.5145 Y0.7992
G1 X-1.5212 Y0.7894
G1 X-1.5229 Y0.7857
G1 X-1.5236 Y0.7817
G1 X-1.5236 Y0.7148
G1 X-1.5236 Y0.7148
G1 X-1.5212 Y0.7003
G1 X-1.5177 Y0.6914
G1 X-1.5155 Y0.6873
G1 X-1.5125 Y0.6838
G0 X-1.5091 Y0.6809
G0 X-1.5010 Y0.6769
G0 X-1.4818 Y0.6710
G0 X-0.9670 Y0.5327
G1 X-0.9606 Y0.5310
G1 X-0.9491 Y0.5283
G1 X-0.9437 Y0.5276
G1 X-0.9385 Y0.5276
G1 X-0.9338 Y0.5283
G1 X-0.9252 Y0.5317
G1 X-0.9176 Y0.5372
G1 X-0.9080 Y0.5477
G1 X-0.9080 Y0.5477
G1 X-0.8875 Y0.5846
G1 X-0.8812 Y0.6031
G1 X-0.8797 Y0.6142
G1 X-0.8839 Y0.6437
G1 X-0.8871 Y0.6548
G1 X-0.8986 Y0.6838
G1 X-0.9136 Y0.7114
G1 X-0.9269 Y0.7311
G1 X-0.9395 Y0.7483
G1 X-0.9584 Y0.7692
G1 X-0.9754 Y0.7862
G1 X-0.9985 Y0.8059
G1 X-1.0199 Y0.8226
G1 X-1.0458 Y0.8401
G1 X-1.0723 Y0.8556
G1 X-1.0999 Y0.8698
G1 X-1.1287 Y0.8824
G1 X-1.1582 Y0.8932
G1 X-1.1880 Y0.9031
G1 X-1.2185 Y0.9107
G1 X-1.2493 Y0.9168
G1 X-1.2803 Y0.9215
G1 X-1.3115 Y0.9242
G1 X-1.3428 Y0.9252
G1 X-1.3740 Y0.9227
G1 X-1.3967 Y0.9200
G1 X-1.4262 Y0.9144
G1 X-1.4537 Y0.9065
G1 X-1.4788 Y0.8967
G1 X-1.4985 Y0.8866
G1 X-1.5140 Y0.8745
G1 X-1.5189 Y0.8681
G1 X-1.5226 Y0.8610
G1 X-1.5236 Y0.8570
G1 X-1.5236 Y0.7862
G1 X-1.5236 Y0.7862
G1 X-1.5212 Y0.7717
G1 X-1.5177 Y0.7628
G1 X-1.5155 Y0.7586
G1 X-1.5125 Y0.7552
G0 X-1.5091 Y0.7522
G0 X-1.5010 Y0.7478
G0 X-1.4818 Y0.7414
G0 X-0.9422 Y0.5741
G1 X-0.9358 Y0.5721
G1 X-0.9242 Y0.5689
G1 X-0.9190 Y0.5679
G1 X-0.9139 Y0.5677
G1 X-0.9090 Y0.5684
G1 X-0.9001 Y0.5716
G1 X-0.8925 Y0.5768
G1 X-0.8829 Y0.5874
G1 X-0.8829 Y0.5874
G1 X-0.8551 Y0.6299
G1 X-0.8474 Y0.6479
G1 X-0.8447 Y0.6590
G1 X-0.8447 Y0.6737
G1 X-0.8479 Y0.6959
G1 X-0.8499 Y0.7032
G1 X-0.8605 Y0.7328
G1 X-0.8740 Y0.7611
G1 X-0.8875 Y0.7825
G1 X-0.8981 Y0.7980
G1 X-0.9136 Y0.8184
G1 X-0.9345 Y0.8415
G1 X-0.9562 Y0.8627
G1 X-0.9783 Y0.8819
G1 X-1.0030 Y0.9003
G1 X-1.0281 Y0.9168
G1 X-1.0541 Y0.9318
G1 X-1.0814 Y0.9451
G1 X-1.1095 Y0.9567
G1 X-1.1378 Y0.9675
G1 X-1.1676 Y0.9774
G1 X-1.1978 Y0.9855
G1 X-1.2283 Y0.9924
G1 X-1.2591 Y0.9978
G1 X-1.2904 Y1.0002
G1 X-1.3187 Y1.0017
G1 X-1.3499 Y1.0015
G1 X-1.3812 Y0.9990
G1 X-1.4119 Y0.9934
G1 X-1.4341 Y0.9882
G1 X-1.4619 Y0.9796
G1 X-1.4875 Y0.9692
G1 X-1.5125 Y0.9510
G1 X-1.5155 Y0.9483
G1 X-1.5234 Y0.9345
G1 X-1.5236 Y0.8637
G1 X-1.5236 Y0.8637
G1 X-1.5212 Y0.8492
G1 X-1.5177 Y0.8403
G1 X-1.5155 Y0.8361
G1 X-1.5125 Y0.8327
G0 X-1.5091 Y0.8297
G0 X-1.5012 Y0.8253
G0 X-1.4815 Y0.8182
G0 X-0.9058 Y0.6304
G1 X-0.8991 Y0.6282
G1 X-0.8878 Y0.6248
G1 X-0.8775 Y0.6235
G1 X-0.8725 Y0.6238
G1 X-0.8634 Y0.6267
G1 X-0.8556 Y0.6314
G1 X-0.8450 Y0.6410
G1 X-0.8450 Y0.6410
G1 X-0.8182 Y0.6789
G1 X-0.8113 Y0.6927
G1 X-0.8078 Y0.7037
G1 X-0.8083 Y0.7370
G1 X-0.8100 Y0.7480
G1 X-0.8194 Y0.7781
G1 X-0.8297 Y0.8024
G1 X-0.8383 Y0.8206
G1 X-0.8526 Y0.8442
G1 X-0.8661 Y0.8644
G1 X-0.8851 Y0.8883
G1 X-0.9035 Y0.9082
G1 X-0.9232 Y0.9269
G1 X-0.9441 Y0.9456
G1 X-0.9692 Y0.9646
G1 X-0.9948 Y0.9818
G1 X-1.0217 Y0.9980
G1 X-1.0778 Y1.0261
G1 X-1.1068 Y1.0376
G1 X-1.1363 Y1.0477
G1 X-1.1663 Y1.0568
G1 X-1.1969 Y1.0640
G1 X-1.2276 Y1.0696
G1 X-1.2586 Y1.0738
G1 X-1.2899 Y1.0763
G1 X-1.3211 Y1.0773
G1 X-1.3524 Y1.0768
G1 X-1.3836 Y1.0746
G1 X-1.4144 Y1.0689
G1 X-1.4375 Y1.0640
G1 X-1.4670 Y1.0536
G1 X-1.4865 Y1.0453
G1 X-1.5116 Y1.0268
G1 X-1.5172 Y1.0212
G1 X-1.5231 Y1.0106
G1 X-1.5236 Y0.9988
G1 X-1.5236 Y0.9988
G1 X-1.5212 Y0.9843
G1 X-1.5177 Y0.9754
G1 X-1.5125 Y0.9675
G0 X-1.5091 Y0.9643
G0 X-1.4931 Y0.9552
G0 X-0.8713 Y0.6801
G1 X-0.8649 Y0.6774
G1 X-0.8536 Y0.6727
G1 X-0.8484 Y0.6710
G1 X-0.8435 Y0.6703
G1 X-0.8386 Y0.6703
G1 X-0.8295 Y0.6722
G1 X-0.8211 Y0.6764
G1 X-0.8098 Y0.6850
G1 X-0.8098 Y0.6850
G1 X-0.7894 Y0.7089
G1 X-0.7763 Y0.7281
G1 X-0.7714 Y0.7384
G1 X-0.7692 Y0.7458
G1 X-0.7670 Y0.7790
G1 X-0.7677 Y0.7901
G1 X-0.7753 Y0.8206
G1 X-0.7842 Y0.8455
G1 X-0.7921 Y0.8637
G1 X-0.8017 Y0.8836
G1 X-0.8174 Y0.9107
G1 X-0.8349 Y0.9358
G1 X-0.8526 Y0.9569
G1 X-0.8684 Y0.9737
G1 X-0.8873 Y0.9924
G1 X-0.9107 Y1.0130
G1 X-0.9355 Y1.0322
G1 X-0.9611 Y1.0504
G1 X-0.9877 Y1.0672
G1 X-1.0153 Y1.0822
G1 X-1.0436 Y1.0960
G1 X-1.0723 Y1.1080
G1 X-1.1019 Y1.1186
G1 X-1.1319 Y1.1277
G1 X-1.1622 Y1.1361
G1 X-1.1929 Y1.1425
G1 X-1.2239 Y1.1474
G1 X-1.2549 Y1.1513
G1 X-1.2862 Y1.1535
G1 X-1.3174 Y1.1543
G1 X-1.3487 Y1.1538
G1 X-1.3799 Y1.1518
G1 X-1.4109 Y1.1462
G1 X-1.4343 Y1.1403
G1 X-1.4579 Y1.1329
G1 X-1.4843 Y1.1218
G1 X-1.5064 Y1.1085
G1 X-1.5153 Y1.1009
G1 X-1.5217 Y1.0908
G1 X-1.5234 Y1.0871
G1 X-1.5236 Y1.0753
G1 X-1.5236 Y1.0753
G1 X-1.5212 Y1.0608
G1 X-1.5177 Y1.0519
G1 X-1.5125 Y1.0440
G0 X-1.5094 Y1.0408
G0 X-1.4934 Y1.0315
G0 X-0.8344 Y0.7244
G1 X-0.8278 Y0.7215
G1 X-0.8167 Y0.7165
G1 X-0.8063 Y0.7138
G1 X-0.8017 Y0.7136
G1 X-0.7923 Y0.7151
G1 X-0.7837 Y0.7188
G1 X-0.7721 Y0.7269
G1 X-0.7721 Y0.7269
G1 X-0.7406 Y0.7616
G1 X-0.7320 Y0.7746
G1 X-0.7274 Y0.7852
G1 X-0.7232 Y0.8184
G1 X-0.7232 Y0.8295
G1 X-0.7288 Y0.8602
G1 X-0.7355 Y0.8856
G1 X-0.7434 Y0.9070
G1 X-0.7507 Y0.9245
G1 X-0.7645 Y0.9493
G1 X-0.7761 Y0.9688
G1 X-0.7943 Y0.9941
G1 X-0.8113 Y1.0157
G1 X-0.8322 Y1.0391
G1 X-0.8546 Y1.0610
G1 X-0.8780 Y1.0817
G1 X-0.9028 Y1.1009
G1 X-0.9286 Y1.1186
G1 X-0.9550 Y1.1356
G1 X-1.0103 Y1.1651
G1 X-1.0389 Y1.1779
G1 X-1.0682 Y1.1895
G1 X-1.0977 Y1.1998
G1 X-1.1277 Y1.2087
G1 X-1.1582 Y1.2163
G1 X-1.1890 Y1.2224
G1 X-1.2200 Y1.2271
G1 X-1.2512 Y1.2306
G1 X-1.2825 Y1.2325
G1 X-1.3137 Y1.2330
G1 X-1.3450 Y1.2320
G1 X-1.3762 Y1.2298
G1 X-1.4309 Y1.2188
G1 X-1.4606 Y1.2089
G1 X-1.4830 Y1.1998
G1 X-1.5064 Y1.1860
G1 X-1.5153 Y1.1784
G1 X-1.5231 Y1.1646
G1 X-1.5236 Y1.1528
G1 X-1.5236 Y1.1528
G1 X-1.5212 Y1.1383
G1 X-1.5177 Y1.1294
G1 X-1.5125 Y1.1216
G0 X-1.5094 Y1.1184
G0 X-1.4936 Y1.1085
G0 X-0.7965 Y0.7677
G1 X-0.7899 Y0.7645
G1 X-0.7734 Y0.7576
G1 X-0.7635 Y0.7559
G1 X-0.7539 Y0.7569
G1 X-0.7451 Y0.7598
G1 X-0.7325 Y0.7667
G1 X-0.7325 Y0.7667
G1 X-0.6964 Y0.8031
G1 X-0.6892 Y0.8127
G1 X-0.6823 Y0.8268
G1 X-0.6777 Y0.8526
G1 X-0.6767 Y0.8674
G1 X-0.6809 Y0.8984
G1 X-0.6868 Y0.9230
G1 X-0.6922 Y0.9414
G1 X-0.7000 Y0.9636
G1 X-0.7128 Y0.9921
G1 X-0.7271 Y1.0189
G1 X-0.7416 Y1.0428
G1 X-0.7589 Y1.0672
G1 X-0.7776 Y1.0898
G1 X-0.7975 Y1.1112
G1 X-0.8189 Y1.1312
G1 X-0.8644 Y1.1676
G1 X-0.8898 Y1.1860
G1 X-0.9163 Y1.2028
G1 X-0.9434 Y1.2188
G1 X-0.9710 Y1.2335
G1 X-0.9993 Y1.2468
G1 X-1.0281 Y1.2591
G1 X-1.0573 Y1.2699
G1 X-1.0871 Y1.2795
G1 X-1.1174 Y1.2879
G1 X-1.1479 Y1.2948
G1 X-1.2096 Y1.3056
G1 X-1.2409 Y1.3091
G1 X-1.2721 Y1.3115
G1 X-1.3034 Y1.3130
G1 X-1.3649 Y1.3095
G1 X-1.3959 Y1.3044
G1 X-1.4220 Y1.2987
G1 X-1.4523 Y1.2904
G1 X-1.4813 Y1.2783
G1 X-1.5005 Y1.2677
G1 X-1.5128 Y1.2579
G1 X-1.5180 Y1.2517
G1 X-1.5234 Y1.2409
G1 X-1.5236 Y1.2330
G1 X-1.5236 Y1.2330
G1 X-1.5212 Y1.2185
G1 X-1.5177 Y1.2096
G1 X-1.5125 Y1.2018
G0 X-1.5094 Y1.1986
G0 X-1.4936 Y1.1885
G0 X-0.7544 Y0.8073
G1 X-0.7478 Y0.8039
G1 X-0.7315 Y0.7965
G1 X-0.7217 Y0.7945
G1 X-0.7121 Y0.7950
G1 X-0.7032 Y0.7977
G1 X-0.6907 Y0.8046
G1 X-0.6907 Y0.8046
G1 X-0.6531 Y0.8378
G1 X-0.6410 Y0.8531
G1 X-0.6358 Y0.8637
G1 X-0.6292 Y0.8969
G1 X-0.6287 Y0.9043
G1 X-0.6309 Y0.9355
G1 X-0.6361 Y0.9651
G1 X-0.6479 Y1.0066
G1 X-0.6592 Y1.0359
G1 X-0.6727 Y1.0640
G1 X-0.6858 Y1.0878
G1 X-0.7020 Y1.1127
G1 X-0.7195 Y1.1358
G1 X-0.7382 Y1.1575
G1 X-0.7586 Y1.1781
G1 X-0.7795 Y1.1981
G1 X-0.8282 Y1.2377
G1 X-0.8538 Y1.2557
G1 X-0.8804 Y1.2724
G1 X-0.9075 Y1.2884
G1 X-0.9633 Y1.3169
G1 X-0.9921 Y1.3295
G1 X-1.0214 Y1.3408
G1 X-1.0509 Y1.3514
G1 X-1.0810 Y1.3607
G1 X-1.1112 Y1.3688
G1 X-1.1417 Y1.3760
G1 X-1.1725 Y1.3819
G1 X-1.2035 Y1.3866
G1 X-1.2347 Y1.3900
G1 X-1.2660 Y1.3922
G1 X-1.2972 Y1.3935
G1 X-1.3588 Y1.3895
G1 X-1.3898 Y1.3853
G1 X-1.4205 Y1.3792
G1 X-1.4503 Y1.3696
G1 X-1.4705 Y1.3612
G1 X-1.4909 Y1.3511
G1 X-1.5155 Y1.3317
G1 X-1.5234 Y1.3179
G1 X-1.5236 Y1.3100
G1 X-1.5236 Y1.3100
G1 X-1.5212 Y1.2955
G1 X-1.5177 Y1.2867
G1 X-1.5125 Y1.2788
G0 X-1.5094 Y1.2753
G0 X-1.4936 Y1.2653
G0 X-0.7042 Y0.8519
G1 X-0.6973 Y0.8484
G1 X-0.6811 Y0.8406
G1 X-0.6713 Y0.8381
G1 X-0.6617 Y0.8381
G1 X-0.6526 Y0.8403
G1 X-0.6395 Y0.8457
G1 X-0.6395 Y0.8457
G1 X-0.6085 Y0.8706
G1 X-0.5928 Y0.8883
G1 X-0.5886 Y0.8949
G1 X-0.5790 Y0.9318
G1 X-0.5785 Y0.9355
G1 X-0.5787 Y0.9668
G1 X-0.5819 Y0.9958
G1 X-0.5851 Y1.0167
G1 X-0.5920 Y1.0450
G1 X-0.6001 Y1.0696
G1 X-0.6095 Y1.0928
G1 X-0.6213 Y1.1164
G1 X-0.6339 Y1.1388
G1 X-0.6513 Y1.1649
G1 X-0.6681 Y1.1877
G1 X-0.6880 Y1.2119
G1 X-0.7094 Y1.2345
G1 X-0.7320 Y1.2562
G1 X-0.7552 Y1.2773
G1 X-0.7798 Y1.2968
G1 X-0.8051 Y1.3152
G1 X-0.8575 Y1.3497
G1 X-0.8848 Y1.3652
G1 X-0.9126 Y1.3799
G1 X-0.9407 Y1.3937
G1 X-0.9695 Y1.4062
G1 X-0.9985 Y1.4178
G1 X-1.0281 Y1.4284
G1 X-1.0581 Y1.4377
G1 X-1.0883 Y1.4461
G1 X-1.1188 Y1.4532
G1 X-1.1496 Y1.4594
G1 X-1.1806 Y1.4643
G1 X-1.2116 Y1.4683
G1 X-1.2429 Y1.4710
G1 X-1.2741 Y1.4724
G1 X-1.3054 Y1.4729
G1 X-1.3366 Y1.4722
G1 X-1.3939 Y1.4641
G1 X-1.4245 Y1.4564
G1 X-1.4500 Y1.4483
G1 X-1.4779 Y1.4363
G1 X-1.4980 Y1.4259
G1 X-1.5133 Y1.4136
G1 X-1.5182 Y1.4075
G1 X-1.5234 Y1.3967
G1 X-1.5236 Y1.3888
G1 X-1.5236 Y1.3888
G1 X-1.5212 Y1.3743
G1 X-1.5177 Y1.3654
G1 X-1.5125 Y1.3575
G0 X-1.5094 Y1.3541
G0 X-1.4938 Y1.3438
G0 X-0.6585 Y0.8856
G1 X-0.6516 Y0.8819
G1 X-0.6353 Y0.8738
G1 X-0.6255 Y0.8713
G1 X-0.6159 Y0.8713
G1 X-0.6068 Y0.8733
G1 X-0.5940 Y0.8789
G1 X-0.5940 Y0.8789
G1 X-0.5583 Y0.9043
G1 X-0.5445 Y0.9183
G1 X-0.5384 Y0.9281
G1 X-0.5278 Y0.9614
G1 X-0.5263 Y0.9688
G1 X-0.5241 Y1.0000
G1 X-0.5263 Y1.0313
G1 X-0.5288 Y1.0504
G1 X-0.5332 Y1.0714
G1 X-0.5391 Y1.0942
G1 X-0.5490 Y1.1240
G1 X-0.5610 Y1.1528
G1 X-0.5736 Y1.1786
G1 X-0.5888 Y1.2055
G1 X-0.6056 Y1.2308
G1 X-0.6235 Y1.2547
G1 X-0.6435 Y1.2776
G1 X-0.6860 Y1.3201
G1 X-0.7092 Y1.3413
G1 X-0.7335 Y1.3610
G1 X-0.7584 Y1.3799
G1 X-0.7840 Y1.3979
G1 X-0.8105 Y1.4146
G1 X-0.8647 Y1.4459
G1 X-0.8927 Y1.4599
G1 X-0.9599 Y1.4902
G1 X-1.0327 Y1.5138
G1 X-1.0955 Y1.5234
G1 X-1.4018 Y1.5219
G1 X-1.4461 Y1.5160
G1 X-1.4786 Y1.5044
G1 X-1.4958 Y1.4953
G1 X-1.5148 Y1.4813
G1 X-1.5214 Y1.4715
G1 X-1.5231 Y1.4678
G1 X-1.5236 Y1.4599
G1 X-1.5236 Y1.4599
G1 X-1.5212 Y1.4454
G1 X-1.5177 Y1.4365
G1 X-1.5125 Y1.4286
G0 X-1.5094 Y1.4252
G0 X-1.4941 Y1.4149
G0 X-0.6120 Y0.9215
G1 X-0.6048 Y0.9176
G1 X-0.5886 Y0.9092
G1 X-0.5787 Y0.9060
G1 X-0.5691 Y0.9050
G1 X-0.5598 Y0.9055
G1 X-0.5463 Y0.9090
G1 X-0.5463 Y0.9090
G1 X-0.5062 Y0.9348
G1 X-0.4946 Y0.9451
G1 X-0.4875 Y0.9542
G1 X-0.4808 Y0.9680
G1 X-0.4727 Y0.9938
G1 X-0.4695 Y1.0251
G1 X-0.4692 Y1.0507
G1 X-0.4705 Y1.0728
G1 X-0.4729 Y1.0955
G1 X-0.4793 Y1.1262
G1 X-0.4860 Y1.1503
G1 X-0.4946 Y1.1750
G1 X-0.5049 Y1.2003
G1 X-0.5189 Y1.2283
G1 X-0.5335 Y1.2534
G1 X-0.5500 Y1.2785
G1 X-0.5679 Y1.3041
G1 X-0.5878 Y1.3282
G1 X-0.6304 Y1.3743
G1 X-0.6769 Y1.4163
G1 X-0.7013 Y1.4363
G1 X-0.7264 Y1.4550
G1 X-0.7520 Y1.4729
G1 X-0.8201 Y1.5148
G1 X-0.8418 Y1.5217
G1 X-0.8529 Y1.5234
G1 X-1.0485 Y1.5234
G1 X-1.0485 Y1.5234
G1 X-1.0623 Y1.5209
G1 X-1.0709 Y1.5175
G1 X-1.0746 Y1.5153
G1 X-1.0770 Y1.5125
G0 X-1.0778 Y1.5096
G0 X-1.0770 Y1.5064
G0 X-1.0728 Y1.5000
G0 X-0.5559 Y0.9564
G1 X-0.5509 Y0.9513
G1 X-0.5423 Y0.9424
G1 X-0.5381 Y0.9390
G1 X-0.5337 Y0.9363
G1 X-0.5293 Y0.9345
G1 X-0.5202 Y0.9328
G1 X-0.5108 Y0.9333
G1 X-0.4973 Y0.9368
G1 X-0.4973 Y0.9368
G1 X-0.4528 Y0.9626
G1 X-0.4407 Y0.9729
G1 X-0.4355 Y0.9788
G1 X-0.4264 Y0.9958
G1 X-0.4183 Y1.0180
G1 X-0.4126 Y1.0490
G1 X-0.4104 Y1.0802
G1 X-0.4112 Y1.1036
G1 X-0.4129 Y1.1230
G1 X-0.4161 Y1.1474
G1 X-0.4237 Y1.1779
G1 X-0.4309 Y1.2010
G1 X-0.4395 Y1.2261
G1 X-0.4515 Y1.2552
G1 X-0.4656 Y1.2832
G1 X-0.4806 Y1.3108
G1 X-0.4973 Y1.3374
G1 X-0.5155 Y1.3629
G1 X-0.5349 Y1.3875
G1 X-0.5559 Y1.4109
G1 X-0.5773 Y1.4338
G1 X-0.6233 Y1.4764
G1 X-0.6681 Y1.5130
G1 X-0.6813 Y1.5199
G1 X-0.6919 Y1.5234
G1 X-0.7990 Y1.5234
G1 X-0.7990 Y1.5234
G1 X-0.8127 Y1.5209
G1 X-0.8216 Y1.5175
G1 X-0.8250 Y1.5153
G1 X-0.8278 Y1.5123
G0 X-0.8287 Y1.5091
G0 X-0.8285 Y1.5057
G0 X-0.8255 Y1.4980
G0 X-0.5005 Y0.9855
G1 X-0.4968 Y0.9796
G1 X-0.4902 Y0.9697
G1 X-0.4867 Y0.9658
G1 X-0.4830 Y0.9626
G1 X-0.4788 Y0.9604
G1 X-0.4744 Y0.9589
G1 X-0.4653 Y0.9582
G1 X-0.4471 Y0.9621
G1 X-0.4471 Y0.9621
G1 X-0.4040 Y0.9825
G1 X-0.3878 Y0.9943
G1 X-0.3797 Y1.0027
G1 X-0.3620 Y1.0369
G1 X-0.3607 Y1.0406
G1 X-0.3541 Y1.0714
G1 X-0.3511 Y1.0994
G1 X-0.3497 Y1.1198
G1 X-0.3504 Y1.1481
G1 X-0.3533 Y1.1732
G1 X-0.3575 Y1.1971
G1 X-0.3632 Y1.2224
G1 X-0.3718 Y1.2525
G1 X-0.3826 Y1.2820
G1 X-0.3949 Y1.3105
G1 X-0.4090 Y1.3386
G1 X-0.4247 Y1.3656
G1 X-0.4419 Y1.3917
G1 X-0.4599 Y1.4173
G1 X-0.4995 Y1.4658
G1 X-0.5445 Y1.5130
G1 X-0.5507 Y1.5175
G1 X-0.5645 Y1.5234
G1 X-0.6346 Y1.5234
G1 X-0.6346 Y1.5234
G1 X-0.6484 Y1.5209
G1 X-0.6572 Y1.5175
G1 X-0.6609 Y1.5153
G1 X-0.6636 Y1.5123
G0 X-0.6649 Y1.5089
G0 X-0.6651 Y1.5052
G0 X-0.6631 Y1.4973
G0 X-0.4446 Y1.0111
G1 X-0.4419 Y1.0049
G1 X-0.4368 Y0.9946
G1 X-0.4338 Y0.9902
G1 X-0.4306 Y0.9867
G1 X-0.4267 Y0.9843
G1 X-0.4225 Y0.9828
G1 X-0.4136 Y0.9813
G1 X-0.3952 Y0.9843
G1 X-0.3952 Y0.9843
G1 X-0.3477 Y1.0042
G1 X-0.3310 Y1.0150
G1 X-0.3253 Y1.0202
G1 X-0.3103 Y1.0431
G1 X-0.3019 Y1.0605
G1 X-0.2940 Y1.0910
G1 X-0.2891 Y1.1184
G1 X-0.2874 Y1.1430
G1 X-0.2867 Y1.1636
G1 X-0.2886 Y1.1932
G1 X-0.2911 Y1.2175
G1 X-0.2968 Y1.2483
G1 X-0.3039 Y1.2766
G1 X-0.3125 Y1.3041
G1 X-0.3238 Y1.3329
G1 X-0.3356 Y1.3600
G1 X-0.3501 Y1.3878
G1 X-0.3654 Y1.4151
G1 X-0.3821 Y1.4414
G1 X-0.4003 Y1.4670
G1 X-0.4363 Y1.5125
G1 X-0.4419 Y1.5175
G1 X-0.4520 Y1.5226
G1 X-0.4557 Y1.5234
G1 X-0.5037 Y1.5234
G1 X-0.5037 Y1.5234
G1 X-0.5175 Y1.5209
G1 X-0.5263 Y1.5175
G1 X-0.5300 Y1.5153
G1 X-0.5327 Y1.5123
G0 X-0.5342 Y1.5089
G0 X-0.5347 Y1.5049
G0 X-0.5322 Y1.4921
G0 X-0.3802 Y1.0381
G1 X-0.3782 Y1.0320
G1 X-0.3740 Y1.0212
G1 X-0.3718 Y1.0165
G1 X-0.3686 Y1.0128
G1 X-0.3652 Y1.0101
G1 X-0.3610 Y1.0079
G1 X-0.3521 Y1.0059
G1 X-0.3430 Y1.0059
G1 X-0.3337 Y1.0071
G1 X-0.3337 Y1.0071
G1 X-0.3000 Y1.0185
G1 X-0.2785 Y1.0293
G1 X-0.2692 Y1.0364
G1 X-0.2549 Y1.0549
G1 X-0.2453 Y1.0721
G1 X-0.2350 Y1.1019
G1 X-0.2283 Y1.1316
G1 X-0.2247 Y1.1516
G1 X-0.2219 Y1.1806
G1 X-0.2217 Y1.2064
G1 X-0.2229 Y1.2308
G1 X-0.2266 Y1.2569
G1 X-0.2311 Y1.2822
G1 X-0.2389 Y1.3125
G1 X-0.2468 Y1.3398
G1 X-0.2576 Y1.3693
G1 X-0.2702 Y1.3981
G1 X-0.2840 Y1.4264
G1 X-0.2985 Y1.4542
G1 X-0.3147 Y1.4811
G1 X-0.3369 Y1.5130
G1 X-0.3425 Y1.5180
G1 X-0.3526 Y1.5231
G1 X-0.3748 Y1.5234
G1 X-0.3748 Y1.5234
G1 X-0.3885 Y1.5209
G1 X-0.3974 Y1.5175
G1 X-0.4011 Y1.5153
G1 X-0.4040 Y1.5123
G0 X-0.4058 Y1.5086
G0 X-0.4067 Y1.5047
G0 X-0.4058 Y1.4916
G0 X-0.3221 Y1.0563
G1 X-0.3211 Y1.0502
G1 X-0.3184 Y1.0389
G1 X-0.3167 Y1.0342
G1 X-0.3140 Y1.0303
G1 X-0.3108 Y1.0273
G1 X-0.3068 Y1.0251
G1 X-0.2980 Y1.0226
G1 X-0.2795 Y1.0231
G1 X-0.2795 Y1.0231
G1 X-0.2404 Y1.0344
G1 X-0.2190 Y1.0448
G1 X-0.2069 Y1.0549
G1 X-0.1885 Y1.0800
G1 X-0.1845 Y1.0866
G1 X-0.1730 Y1.1159
G1 X-0.1656 Y1.1422
G1 X-0.1582 Y1.1823
G1 X-0.1555 Y1.2136
G1 X-0.1555 Y1.2446
G1 X-0.1567 Y1.2714
G1 X-0.1604 Y1.3012
G1 X-0.1661 Y1.3297
G1 X-0.1732 Y1.3575
G1 X-0.1922 Y1.4126
G1 X-0.2042 Y1.4417
G1 X-0.2180 Y1.4697
G1 X-0.2448 Y1.5123
G1 X-0.2473 Y1.5153
G1 X-0.2601 Y1.5231
G1 X-0.2859 Y1.5234
G1 X-0.2859 Y1.5234
G1 X-0.2997 Y1.5209
G1 X-0.3086 Y1.5175
G1 X-0.3123 Y1.5153
G1 X-0.3152 Y1.5123
G0 X-0.3172 Y1.5086
G0 X-0.3182 Y1.5047
G0 X-0.3182 Y1.4914
G0 X-0.2650 Y1.0721
G1 X-0.2640 Y1.0659
G1 X-0.2623 Y1.0546
G1 X-0.2608 Y1.0497
G1 X-0.2584 Y1.0455
G1 X-0.2552 Y1.0423
G1 X-0.2512 Y1.0399
G1 X-0.2466 Y1.0381
G1 X-0.2355 Y1.0364
G1 X-0.2249 Y1.0364
G1 X-0.2249 Y1.0364
G1 X-0.1779 Y1.0480
G1 X-0.1631 Y1.0541
G1 X-0.1562 Y1.0581
G1 X-0.1476 Y1.0662
G1 X-0.1314 Y1.0881
G1 X-0.1127 Y1.1228
G1 X-0.1021 Y1.1523
G1 X-0.0925 Y1.1941
G1 X-0.0886 Y1.2232
G1 X-0.0876 Y1.2525
