(Exported by FreeCAD)
(Post Processor: grbl_post)
(Output Time:2026-04-14 14:47:14.800560)
(Begin preamble)
G17 G90
G20
(Begin operation: Fixture)
(Path: Fixture)
G54
(Finish operation: Fixture)
(Begin operation: TC: 516-alcrn)
(Path: TC: 516-alcrn)
(TC: 516-alcrn)
(Begin toolchange)
( M6 T2 )
M3 S1000
m7
(Finish operation: TC: 516-alcrn)
(Begin operation: Adaptive002)
(Path: Adaptive002)
(Adaptive002)
(Helix to depth: 4.191000)
G0 Z0.3819
G0 X1.1088 Y1.1810 Z0.3819
G0 X1.1088 Y1.1810 Z0.3031
G1 X1.1088 Y1.1810 Z0.1850 F2.0000
G1 X1.1088 Y1.1810 Z0.1850 F2.0000
G1 X1.0866 Y1.1864 Z0.1846 F2.0000
G1 X1.0637 Y1.1874 Z0.1842 F2.0000
G1 X1.0410 Y1.1839 Z0.1838 F2.0000
G1 X1.0195 Y1.1761 Z0.1834 F2.0000
G1 X0.9999 Y1.1641 Z0.1830 F2.0000
G1 X0.9830 Y1.1486 Z0.1826 F2.0000
G1 X0.9694 Y1.1301 Z0.1822 F2.0000
G1 X0.9597 Y1.1093 Z0.1818 F2.0000
G1 X0.9543 Y1.0871 Z0.1814 F2.0000
G1 X0.9533 Y1.0641 Z0.1810 F2.0000
G1 X0.9568 Y1.0415 Z0.1806 F2.0000
G1 X0.9647 Y1.0199 Z0.1802 F2.0000
G1 X0.9766 Y1.0003 Z0.1798 F2.0000
G1 X0.9921 Y0.9835 Z0.1794 F2.0000
G1 X1.0106 Y0.9699 Z0.1790 F2.0000
G1 X1.0314 Y0.9602 Z0.1786 F2.0000
G1 X1.0537 Y0.9548 Z0.1782 F2.0000
G1 X1.0766 Y0.9538 Z0.1778 F2.0000
G1 X1.0993 Y0.9573 Z0.1774 F2.0000
G1 X1.1208 Y0.9652 Z0.1770 F2.0000
G1 X1.1404 Y0.9771 Z0.1766 F2.0000
G1 X1.1573 Y0.9926 Z0.1762 F2.0000
G1 X1.1708 Y1.0111 Z0.1757 F2.0000
G1 X1.1805 Y1.0319 Z0.1753 F2.0000
G1 X1.1859 Y1.0542 Z0.1749 F2.0000
G1 X1.1869 Y1.0771 Z0.1745 F2.0000
G1 X1.1834 Y1.0998 Z0.1741 F2.0000
G1 X1.1756 Y1.1213 Z0.1737 F2.0000
G1 X1.1636 Y1.1409 Z0.1733 F2.0000
G1 X1.1481 Y1.1578 Z0.1729 F2.0000
G1 X1.1296 Y1.1713 Z0.1725 F2.0000
G1 X1.1088 Y1.1810 Z0.1721 F2.0000
G1 X1.0866 Y1.1864 Z0.1717 F2.0000
G1 X1.0637 Y1.1874 Z0.1713 F2.0000
G1 X1.0410 Y1.1839 Z0.1709 F2.0000
G1 X1.0195 Y1.1761 Z0.1705 F2.0000
G1 X0.9999 Y1.1641 Z0.1701 F2.0000
G1 X0.9830 Y1.1486 Z0.1697 F2.0000
G1 X0.9694 Y1.1301 Z0.1693 F2.0000
G1 X0.9597 Y1.1093 Z0.1689 F2.0000
G1 X0.9543 Y1.0871 Z0.1685 F2.0000
G1 X0.9533 Y1.0641 Z0.1681 F2.0000
G1 X0.9568 Y1.0415 Z0.1677 F2.0000
G1 X0.9647 Y1.0199 Z0.1673 F2.0000
G1 X0.9766 Y1.0003 Z0.1669 F2.0000
G1 X0.9921 Y0.9835 Z0.1665 F2.0000
G1 X1.0106 Y0.9699 Z0.1661 F2.0000
G1 X1.0314 Y0.9602 Z0.1657 F2.0000
G1 X1.0537 Y0.9548 Z0.1653 F2.0000
G1 X1.0701 Y0.9536 Z0.1650 F10.0000
G1 X1.0929 Y0.9559 Z0.1650 F10.0000
G1 X1.1149 Y0.9625 Z0.1650 F10.0000
G1 X1.1351 Y0.9734 Z0.1650 F10.0000
G1 X1.1528 Y0.9879 Z0.1650 F10.0000
G1 X1.1674 Y1.0056 Z0.1650 F10.0000
G1 X1.1782 Y1.0259 Z0.1650 F10.0000
G1 X1.1849 Y1.0478 Z0.1650 F10.0000
G1 X1.1871 Y1.0706 Z0.1650 F10.0000
G1 X1.1849 Y1.0934 Z0.1650 F10.0000
G1 X1.1782 Y1.1154 Z0.1650 F10.0000
G1 X1.1674 Y1.1356 Z0.1650 F10.0000
G1 X1.1528 Y1.1533 Z0.1650 F10.0000
G1 X1.1351 Y1.1679 Z0.1650 F10.0000
G1 X1.1149 Y1.1787 Z0.1650 F10.0000
G1 X1.0929 Y1.1854 Z0.1650 F10.0000
G1 X1.0701 Y1.1876 Z0.1650 F10.0000
G1 X1.0473 Y1.1854 Z0.1650 F10.0000
G1 X1.0254 Y1.1787 Z0.1650 F10.0000
G1 X1.0051 Y1.1679 Z0.1650 F10.0000
G1 X0.9874 Y1.1533 Z0.1650 F10.0000
G1 X0.9729 Y1.1356 Z0.1650 F10.0000
G1 X0.9621 Y1.1154 Z0.1650 F10.0000
G1 X0.9554 Y1.0934 Z0.1650 F10.0000
G1 X0.9531 Y1.0706 Z0.1650 F10.0000
G1 X0.9554 Y1.0478 Z0.1650 F10.0000
G1 X0.9621 Y1.0259 Z0.1650 F10.0000
G1 X0.9729 Y1.0056 Z0.1650 F10.0000
G1 X0.9874 Y0.9879 Z0.1650 F10.0000
G1 X1.0051 Y0.9734 Z0.1650 F10.0000
G1 X1.0254 Y0.9625 Z0.1650 F10.0000
G1 X1.0473 Y0.9559 Z0.1650 F10.0000
G1 X1.0701 Y0.9536 Z0.1650 F10.0000
(Adaptive - depth: 4.191000)
G1 X1.0701 Y0.9532 F10.0000
G1 X1.0728 Y0.9503 F10.0000
G1 X1.0748 Y0.9469 F10.0000
G1 X1.0810 Y0.9422 F10.0000
G1 X1.0913 Y0.9373 F10.0000
G1 X1.1024 Y0.9343 F10.0000
G1 X1.1061 Y0.9338 F10.0000
G1 X1.1373 Y0.9368 F10.0000
G1 X1.1508 Y0.9412 F10.0000
G1 X1.1599 Y0.9451 F10.0000
G1 X1.1705 Y0.9510 F10.0000
G1 X1.1843 Y0.9609 F10.0000
G1 X1.1981 Y0.9742 F10.0000
G1 X1.2082 Y0.9857 F10.0000
G1 X1.2178 Y1.0000 F10.0000
G1 X1.2254 Y1.0153 F10.0000
G1 X1.2311 Y1.0305 F10.0000
G1 X1.2350 Y1.0468 F10.0000
G1 X1.2370 Y1.0635 F10.0000
G1 X1.2370 Y1.0800 F10.0000
G1 X1.2350 Y1.0967 F10.0000
G1 X1.2318 Y1.1132 F10.0000
G1 X1.2256 Y1.1319 F10.0000
G1 X1.2183 Y1.1479 F10.0000
G1 X1.2092 Y1.1634 F10.0000
G1 X1.1981 Y1.1781 F10.0000
G1 X1.1858 Y1.1912 F10.0000
G1 X1.1720 Y1.2032 F10.0000
G1 X1.1570 Y1.2136 F10.0000
G1 X1.1410 Y1.2224 F10.0000
G1 X1.1240 Y1.2293 F10.0000
G1 X1.1065 Y1.2345 F10.0000
G1 X1.0886 Y1.2377 F10.0000
G1 X1.0704 Y1.2389 F10.0000
G1 X1.0522 Y1.2382 F10.0000
G1 X1.0342 Y1.2350 F10.0000
G1 X1.0194 Y1.2308 F10.0000
G1 X1.0030 Y1.2251 F10.0000
G1 X0.9833 Y1.2148 F10.0000
G1 X0.9683 Y1.2052 F10.0000
G1 X0.9535 Y1.1937 F10.0000
G1 X0.9402 Y1.1791 F10.0000
G1 X0.9306 Y1.1671 F10.0000
G1 X0.9213 Y1.1518 F10.0000
G1 X0.9141 Y1.1358 F10.0000
G1 X0.9082 Y1.1203 F10.0000
G1 X0.9035 Y1.0999 F10.0000
G1 X0.9013 Y1.0819 F10.0000
G1 X0.9008 Y1.0635 F10.0000
G1 X0.9023 Y1.0445 F10.0000
G1 X0.9058 Y1.0263 F10.0000
G1 X0.9112 Y1.0084 F10.0000
G1 X0.9183 Y0.9911 F10.0000
G1 X0.9281 Y0.9751 F10.0000
G1 X0.9370 Y0.9631 F10.0000
G1 X0.9488 Y0.9505 F10.0000
G1 X0.9611 Y0.9387 F10.0000
G1 X0.9801 Y0.9225 F10.0000
G1 X1.0044 Y0.9050 F10.0000
G1 X1.0290 Y0.8930 F10.0000
G1 X1.0443 Y0.8873 F10.0000
G1 X1.0598 Y0.8829 F10.0000
G1 X1.0782 Y0.8789 F10.0000
G1 X1.1031 Y0.8770 F10.0000
G1 X1.1223 Y0.8782 F10.0000
G1 X1.1383 Y0.8802 F10.0000
G1 X1.1572 Y0.8851 F10.0000
G1 X1.1742 Y0.8915 F10.0000
G1 X1.1902 Y0.8994 F10.0000
G1 X1.2062 Y0.9087 F10.0000
G1 X1.2247 Y0.9227 F10.0000
G1 X1.2392 Y0.9358 F10.0000
G1 X1.2522 Y0.9513 F10.0000
G1 X1.2621 Y0.9653 F10.0000
G1 X1.2712 Y0.9818 F10.0000
G1 X1.2788 Y0.9988 F10.0000
G1 X1.2854 Y1.0194 F10.0000
G1 X1.2896 Y1.0386 F10.0000
G1 X1.2921 Y1.0586 F10.0000
G1 X1.2926 Y1.0790 F10.0000
G1 X1.2911 Y1.0989 F10.0000
G1 X1.2879 Y1.1186 F10.0000
G1 X1.2825 Y1.1383 F10.0000
G1 X1.2761 Y1.1572 F10.0000
G1 X1.2660 Y1.1794 F10.0000
G1 X1.2554 Y1.1978 F10.0000
G1 X1.2421 Y1.2153 F10.0000
G1 X1.2306 Y1.2283 F10.0000
G1 X1.2156 Y1.2419 F10.0000
G1 X1.2000 Y1.2539 F10.0000
G1 X1.1801 Y1.2665 F10.0000
G1 X1.1614 Y1.2761 F10.0000
G1 X1.1417 Y1.2840 F10.0000
G1 X1.1208 Y1.2901 F10.0000
G1 X1.0999 Y1.2943 F10.0000
G1 X1.0785 Y1.2968 F10.0000
G1 X1.0571 Y1.2970 F10.0000
G1 X1.0357 Y1.2945 F10.0000
G1 X1.0187 Y1.2911 F10.0000
G1 X0.9993 Y1.2862 F10.0000
G1 X0.9744 Y1.2763 F10.0000
G1 X0.9560 Y1.2675 F10.0000
G1 X0.9375 Y1.2554 F10.0000
G1 X0.9235 Y1.2446 F10.0000
G1 X0.9090 Y1.2308 F10.0000
G1 X0.8954 Y1.2163 F10.0000
G1 X0.8804 Y1.1961 F10.0000
G1 X0.8691 Y1.1779 F10.0000
G1 X0.8590 Y1.1585 F10.0000
G1 X0.8506 Y1.1373 F10.0000
G1 X0.8452 Y1.1159 F10.0000
G1 X0.8423 Y1.0989 F10.0000
G1 X0.8401 Y1.0787 F10.0000
G1 X0.8406 Y1.0546 F10.0000
G1 X0.8425 Y1.0344 F10.0000
G1 X0.8465 Y1.0133 F10.0000
G1 X0.8526 Y0.9924 F10.0000
G1 X0.8602 Y0.9727 F10.0000
G1 X0.8698 Y0.9535 F10.0000
G1 X0.8812 Y0.9353 F10.0000
G1 X0.8935 Y0.9181 F10.0000
G1 X0.9102 Y0.8989 F10.0000
G1 X0.9264 Y0.8831 F10.0000
G1 X0.9441 Y0.8686 F10.0000
G1 X0.9636 Y0.8553 F10.0000
G1 X0.9835 Y0.8438 F10.0000
G1 X1.0044 Y0.8339 F10.0000
G1 X1.0263 Y0.8260 F10.0000
G1 X1.0485 Y0.8199 F10.0000
G1 X1.0711 Y0.8157 F10.0000
G1 X1.0940 Y0.8135 F10.0000
G1 X1.1169 Y0.8132 F10.0000
G1 X1.1398 Y0.8162 F10.0000
G1 X1.1572 Y0.8196 F10.0000
G1 X1.1774 Y0.8258 F10.0000
G1 X1.1964 Y0.8327 F10.0000
G1 X1.2205 Y0.8445 F10.0000
G1 X1.2397 Y0.8561 F10.0000
G1 X1.2584 Y0.8693 F10.0000
G1 X1.2766 Y0.8848 F10.0000
G1 X1.2928 Y0.9011 F10.0000
G1 X1.3068 Y0.9195 F10.0000
G1 X1.3167 Y0.9343 F10.0000
G1 X1.3270 Y0.9525 F10.0000
G1 X1.3366 Y0.9756 F10.0000
G1 X1.3430 Y0.9953 F10.0000
G1 X1.3482 Y1.0167 F10.0000
G1 X1.3524 Y1.0389 F10.0000
G1 X1.3551 Y1.0689 F10.0000
G1 X1.3553 Y1.0933 F10.0000
G1 X1.3524 Y1.1184 F10.0000
G1 X1.3489 Y1.1361 F10.0000
G1 X1.3428 Y1.1572 F10.0000
G1 X1.3359 Y1.1774 F10.0000
G1 X1.3233 Y1.2055 F10.0000
G1 X1.3118 Y1.2266 F10.0000
G1 X1.2972 Y1.2468 F10.0000
G1 X1.2852 Y1.2613 F10.0000
G1 X1.2694 Y1.2771 F10.0000
G1 X1.2532 Y1.2918 F10.0000
G1 X1.2291 Y1.3098 F10.0000
G1 X1.2087 Y1.3228 F10.0000
G1 X1.1868 Y1.3346 F10.0000
G1 X1.1624 Y1.3440 F10.0000
G1 X1.1435 Y1.3499 F10.0000
G1 X1.1208 Y1.3551 F10.0000
G1 X1.0982 Y1.3578 F10.0000
G1 X1.0765 Y1.3593 F10.0000
G1 X1.0492 Y1.3585 F10.0000
G1 X1.0256 Y1.3561 F10.0000
G1 X1.0017 Y1.3519 F10.0000
G1 X0.9776 Y1.3452 F10.0000
G1 X0.9547 Y1.3371 F10.0000
G1 X0.9323 Y1.3270 F10.0000
G1 X0.9107 Y1.3152 F10.0000
G1 X0.8907 Y1.3009 F10.0000
G1 X0.8755 Y1.2884 F10.0000
G1 X0.8593 Y1.2724 F10.0000
G1 X0.8442 Y1.2562 F10.0000
G1 X0.8263 Y1.2323 F10.0000
G1 X0.8130 Y1.2116 F10.0000
G1 X0.8009 Y1.1897 F10.0000
G1 X0.7911 Y1.1654 F10.0000
G1 X0.7847 Y1.1462 F10.0000
G1 X0.7793 Y1.1233 F10.0000
G1 X0.7761 Y1.1004 F10.0000
G1 X0.7749 Y1.0782 F10.0000
G1 X0.7746 Y1.0554 F10.0000
G1 X0.7773 Y1.0266 F10.0000
G1 X0.7812 Y1.0025 F10.0000
G1 X0.7872 Y0.9779 F10.0000
G1 X0.7953 Y0.9532 F10.0000
G1 X0.8049 Y0.9301 F10.0000
G1 X0.8172 Y0.9080 F10.0000
G1 X0.8282 Y0.8907 F10.0000
G1 X0.8428 Y0.8723 F10.0000
G1 X0.8575 Y0.8548 F10.0000
G1 X0.8802 Y0.8329 F10.0000
G1 X0.9001 Y0.8159 F10.0000
G1 X0.9218 Y0.7997 F10.0000
G1 X0.9461 Y0.7842 F10.0000
G1 X0.9707 Y0.7724 F10.0000
G1 X0.9889 Y0.7648 F10.0000
G1 X1.0123 Y0.7574 F10.0000
G1 X1.0352 Y0.7517 F10.0000
G1 X1.0632 Y0.7473 F10.0000
G1 X1.0883 Y0.7453 F10.0000
G1 X1.1139 Y0.7451 F10.0000
G1 X1.1403 Y0.7468 F10.0000
G1 X1.1656 Y0.7505 F10.0000
G1 X1.1907 Y0.7574 F10.0000
G1 X1.2089 Y0.7635 F10.0000
G1 X1.2303 Y0.7721 F10.0000
G1 X1.2559 Y0.7849 F10.0000
G1 X1.2815 Y0.8002 F10.0000
G1 X1.3029 Y0.8164 F10.0000
G1 X1.3187 Y0.8300 F10.0000
G1 X1.3364 Y0.8479 F10.0000
G1 X1.3516 Y0.8664 F10.0000
G1 X1.3649 Y0.8853 F10.0000
G1 X1.3772 Y0.9063 F10.0000
G1 X1.3885 Y0.9272 F10.0000
G1 X1.4008 Y0.9560 F10.0000
G1 X1.4094 Y0.9811 F10.0000
G1 X1.4161 Y1.0079 F10.0000
G1 X1.4200 Y1.0303 F10.0000
G1 X1.4222 Y1.0556 F10.0000
G1 X1.4225 Y1.0807 F10.0000
G1 X1.4208 Y1.1051 F10.0000
G1 X1.4178 Y1.1299 F10.0000
G1 X1.4114 Y1.1607 F10.0000
G1 X1.4043 Y1.1865 F10.0000
G1 X1.3952 Y1.2126 F10.0000
G1 X1.3826 Y1.2382 F10.0000
G1 X1.3725 Y1.2562 F10.0000
G1 X1.3585 Y1.2768 F10.0000
G1 X1.3438 Y1.2963 F10.0000
G1 X1.3236 Y1.3187 F10.0000
G1 X1.3046 Y1.3369 F10.0000
G1 X1.2840 Y1.3541 F10.0000
G1 X1.2613 Y1.3703 F10.0000
G1 X1.2384 Y1.3844 F10.0000
G1 X1.2143 Y1.3969 F10.0000
G1 X1.1887 Y1.4067 F10.0000
G1 X1.1683 Y1.4131 F10.0000
G1 X1.1439 Y1.4186 F10.0000
G1 X1.1198 Y1.4230 F10.0000
G1 X1.0883 Y1.4259 F10.0000
G1 X1.0615 Y1.4267 F10.0000
G1 X1.0340 Y1.4257 F10.0000
G1 X1.0049 Y1.4225 F10.0000
G1 X0.9776 Y1.4163 F10.0000
G1 X0.9564 Y1.4104 F10.0000
G1 X0.9321 Y1.4013 F10.0000
G1 X0.9092 Y1.3915 F10.0000
G1 X0.8812 Y1.3767 F10.0000
G1 X0.8580 Y1.3622 F10.0000
G1 X0.8364 Y1.3450 F10.0000
G1 X0.8204 Y1.3307 F10.0000
G1 X0.8027 Y1.3130 F10.0000
G1 X0.7827 Y1.2901 F10.0000
G1 X0.7643 Y1.2655 F10.0000
G1 X0.7498 Y1.2411 F10.0000
G1 X0.7397 Y1.2219 F10.0000
G1 X0.7296 Y1.1978 F10.0000
G1 X0.7212 Y1.1740 F10.0000
G1 X0.7136 Y1.1454 F10.0000
G1 X0.7084 Y1.1188 F10.0000
G1 X0.7050 Y1.0918 F10.0000
G1 X0.7037 Y1.0640 F10.0000
G1 X0.7042 Y1.0369 F10.0000
G1 X0.7067 Y1.0096 F10.0000
G1 X0.7111 Y0.9825 F10.0000
G1 X0.7175 Y0.9560 F10.0000
G1 X0.7259 Y0.9299 F10.0000
G1 X0.7370 Y0.9048 F10.0000
G1 X0.7468 Y0.8856 F10.0000
G1 X0.7601 Y0.8642 F10.0000
G1 X0.7736 Y0.8440 F10.0000
G1 X0.7926 Y0.8189 F10.0000
G1 X0.8135 Y0.7953 F10.0000
G1 X0.8361 Y0.7734 F10.0000
G1 X0.8553 Y0.7566 F10.0000
G1 X0.8799 Y0.7382 F10.0000
G1 X0.9045 Y0.7224 F10.0000
G1 X0.9299 Y0.7099 F10.0000
G1 X0.9493 Y0.7015 F10.0000
G1 X0.9734 Y0.6927 F10.0000
G1 X1.0032 Y0.6841 F10.0000
G1 X1.0340 Y0.6774 F10.0000
G1 X1.0627 Y0.6730 F10.0000
G1 X1.0933 Y0.6718 F10.0000
G1 X1.1149 Y0.6720 F10.0000
G1 X1.1415 Y0.6745 F10.0000
G1 X1.1671 Y0.6781 F10.0000
G1 X1.1976 Y0.6850 F10.0000
G1 X1.2247 Y0.6929 F10.0000
G1 X1.2515 Y0.7028 F10.0000
G1 X1.2788 Y0.7151 F10.0000
G1 X1.3044 Y0.7286 F10.0000
G1 X1.3282 Y0.7451 F10.0000
G1 X1.3450 Y0.7579 F10.0000
G1 X1.3639 Y0.7751 F10.0000
G1 X1.3816 Y0.7926 F10.0000
G1 X1.4021 Y0.8164 F10.0000
G1 X1.4188 Y0.8388 F10.0000
G1 X1.4345 Y0.8627 F10.0000
G1 X1.4493 Y0.8893 F10.0000
G1 X1.4616 Y0.9154 F10.0000
G1 X1.4724 Y0.9427 F10.0000
G1 X1.4813 Y0.9707 F10.0000
G1 X1.4882 Y0.9990 F10.0000
G1 X1.4931 Y1.0765 F10.0000
G1 X1.4872 Y1.1393 F10.0000
G1 X1.4774 Y1.1845 F10.0000
G1 X1.4685 Y1.2148 F10.0000
G1 X1.4564 Y1.2438 F10.0000
G1 X1.4471 Y1.2648 F10.0000
G1 X1.4321 Y1.2923 F10.0000
G1 X1.4158 Y1.3172 F10.0000
G1 X1.3994 Y1.3398 F10.0000
G1 X1.3799 Y1.3629 F10.0000
G1 X1.3595 Y1.3841 F10.0000
G1 X1.3378 Y1.4038 F10.0000
G1 X1.3140 Y1.4213 F10.0000
G1 X1.2948 Y1.4338 F10.0000
G1 X1.2712 Y1.4466 F10.0000
G1 X1.2478 Y1.4582 F10.0000
G1 X1.2185 Y1.4697 F10.0000
G1 X1.1909 Y1.4786 F10.0000
G1 X1.1624 Y1.4862 F10.0000
G1 X1.0797 Y1.4963 F10.0000
G1 X1.0207 Y1.4946 F10.0000
G1 X0.9695 Y1.4867 F10.0000
G1 X0.9272 Y1.4759 F10.0000
G1 X0.8976 Y1.4643 F10.0000
G1 X0.8735 Y1.4528 F10.0000
G1 X0.8511 Y1.4412 F10.0000
G1 X0.8246 Y1.4242 F10.0000
G1 X0.8017 Y1.4075 F10.0000
G1 X0.7793 Y1.3890 F10.0000
G1 X0.7574 Y1.3679 F10.0000
G1 X0.7377 Y1.3465 F10.0000
G1 X0.7192 Y1.3236 F10.0000
G1 X0.7023 Y1.2992 F10.0000
G1 X0.6870 Y1.2741 F10.0000
G1 X0.6735 Y1.2480 F10.0000
G1 X0.6617 Y1.2210 F10.0000
G1 X0.6516 Y1.1932 F10.0000
G1 X0.6435 Y1.1649 F10.0000
G1 X0.6373 Y1.1361 F10.0000
G1 X0.6331 Y1.1070 F10.0000
G1 X0.6307 Y1.0778 F10.0000
G1 X0.6302 Y1.0485 F10.0000
G1 X0.6316 Y1.0192 F10.0000
G1 X0.6351 Y0.9899 F10.0000
G1 X0.6405 Y0.9611 F10.0000
G1 X0.6479 Y0.9326 F10.0000
G1 X0.6570 Y0.9048 F10.0000
G1 X0.6681 Y0.8775 F10.0000
G1 X0.7023 Y0.8093 F10.0000
G1 X0.7463 Y0.7539 F10.0000
G1 X0.8263 Y0.6725 F10.0000
G1 X0.8447 Y0.6582 F10.0000
G1 X0.9035 Y0.6294 F10.0000
G1 X0.9333 Y0.6198 F10.0000
G1 X0.9636 Y0.6117 F10.0000
G1 X0.9943 Y0.6051 F10.0000
G1 X1.0253 Y0.5994 F10.0000
G1 X1.0566 Y0.5955 F10.0000
G1 X1.0878 Y0.5950 F10.0000
G1 X1.1125 Y0.5952 F10.0000
G1 X1.1437 Y0.5977 F10.0000
G1 X1.1747 Y0.6026 F10.0000
G1 X1.2040 Y0.6085 F10.0000
G1 X1.2343 Y0.6169 F10.0000
G1 X1.2638 Y0.6272 F10.0000
G1 X1.2926 Y0.6390 F10.0000
G1 X1.3206 Y0.6528 F10.0000
G1 X1.3479 Y0.6683 F10.0000
G1 X1.3740 Y0.6855 F10.0000
G1 X1.3981 Y0.7055 F10.0000
G1 X1.4154 Y0.7210 F10.0000
G1 X1.4348 Y0.7414 F10.0000
G1 X1.4530 Y0.7616 F10.0000
G1 X1.4719 Y0.7864 F10.0000
G1 X1.5071 Y0.8413 F10.0000
G1 X1.5157 Y0.8580 F10.0000
G1 X1.5229 Y0.8836 F10.0000
G1 X1.5217 Y1.2195 F10.0000
G1 X1.5172 Y1.2490 F10.0000
G1 X1.4985 Y1.2995 F10.0000
G1 X1.4695 Y1.3548 F10.0000
G1 X1.4523 Y1.3812 F10.0000
G1 X1.4326 Y1.4058 F10.0000
G1 X1.4161 Y1.4240 F10.0000
G1 X1.3974 Y1.4424 F10.0000
G1 X1.3755 Y1.4621 F10.0000
G1 X1.3504 Y1.4813 F10.0000
G1 X1.3253 Y1.4983 F10.0000
G1 X1.2894 Y1.5153 F10.0000
G1 X1.2584 Y1.5236 F10.0000
G1 X0.9080 Y1.5219 F10.0000
G1 X0.8686 Y1.5148 F10.0000
G1 X0.8157 Y1.4938 F10.0000
G1 X0.7972 Y1.4840 F10.0000
G1 X0.7702 Y1.4678 F10.0000
G1 X0.7446 Y1.4491 F10.0000
G1 X0.7205 Y1.4289 F10.0000
G1 X0.7010 Y1.4114 F10.0000
G1 X0.6794 Y1.3883 F10.0000
G1 X0.6599 Y1.3649 F10.0000
G1 X0.6420 Y1.3406 F10.0000
G1 X0.6250 Y1.3140 F10.0000
G1 X0.6102 Y1.2872 F10.0000
G1 X0.5969 Y1.2594 F10.0000
G1 X0.5854 Y1.2303 F10.0000
G1 X0.5758 Y1.2010 F10.0000
G1 X0.5679 Y1.1710 F10.0000
G1 X0.5620 Y1.1407 F10.0000
G1 X0.5581 Y1.1100 F10.0000
G1 X0.5561 Y1.0792 F10.0000
G1 X0.5551 Y1.0485 F10.0000
G1 X0.5566 Y1.0170 F10.0000
G1 X0.5598 Y0.9855 F10.0000
G1 X0.5645 Y0.9542 F10.0000
G1 X0.5760 Y0.9035 F10.0000
G1 X0.5827 Y0.8893 F10.0000
G1 X0.5849 Y0.8858 F10.0000
G1 X0.5878 Y0.8831 F10.0000
G1 X0.5878 Y0.8831 F10.0000
G1 X0.5891 Y0.8829 F10.0000
G1 X0.5893 Y0.8831 F10.0000
G1 X0.5908 Y0.8809 F10.0000
G1 X0.5908 Y0.8809 F10.0000
G1 X0.6260 Y0.8563 F10.0000
G1 X0.6260 Y0.8563 F10.0000
G1 X0.6385 Y0.8497 F10.0000
G1 X0.6474 Y0.8474 F10.0000
G1 X0.6567 Y0.8467 F10.0000
G0 X0.6617 Y0.8469
G0 X0.7138 Y0.8548
G0 X0.7183 Y0.8546
G0 X0.7222 Y0.8533
G0 X0.7261 Y0.8514
G0 X0.7972 Y0.7736
G0 X0.8000 Y0.7699
G0 X0.8034 Y0.7613
G0 X0.8061 Y0.7370
G1 X0.8066 Y0.7318 F10.0000
G1 X0.8091 Y0.6998 F10.0000
G1 X0.8113 Y0.6905 F10.0000
G1 X0.8196 Y0.6735 F10.0000
G1 X0.8196 Y0.6735 F10.0000
G1 X0.8910 Y0.5819 F10.0000
G1 X0.9050 Y0.5684 F10.0000
G1 X0.9390 Y0.5492 F10.0000
G1 X0.9606 Y0.5401 F10.0000
G1 X0.9911 Y0.5325 F10.0000
G1 X1.0221 Y0.5268 F10.0000
G1 X1.0517 Y0.5231 F10.0000
G1 X1.0802 Y0.5214 F10.0000
G1 X1.1115 Y0.5207 F10.0000
G1 X1.1427 Y0.5221 F10.0000
G1 X1.1740 Y0.5253 F10.0000
G1 X1.2050 Y0.5303 F10.0000
G1 X1.2355 Y0.5369 F10.0000
G1 X1.2657 Y0.5453 F10.0000
G1 X1.2955 Y0.5554 F10.0000
G1 X1.3246 Y0.5672 F10.0000
G1 X1.3529 Y0.5805 F10.0000
G1 X1.3797 Y0.5965 F10.0000
G1 X1.4008 Y0.6105 F10.0000
G1 X1.4257 Y0.6292 F10.0000
G1 X1.4488 Y0.6481 F10.0000
G1 X1.4717 Y0.6695 F10.0000
G1 X1.5153 Y0.7178 F10.0000
G1 X1.5234 Y0.7347 F10.0000
G1 X1.5234 Y0.8418 F10.0000
G1 X1.5234 Y0.8418 F10.0000
G1 X1.5209 Y0.8556 F10.0000
G1 X1.5175 Y0.8644 F10.0000
G1 X1.5153 Y0.8681 F10.0000
G1 X1.5123 Y0.8708 F10.0000
G0 X1.5089 Y0.8720
G0 X1.5052 Y0.8723
G0 X1.4970 Y0.8706
G0 X0.9131 Y0.6235
G1 X0.9067 Y0.6208 F10.0000
G1 X0.8962 Y0.6159 F10.0000
G1 X0.8920 Y0.6132 F10.0000
G1 X0.8888 Y0.6097 F10.0000
G1 X0.8868 Y0.6058 F10.0000
G1 X0.8856 Y0.6016 F10.0000
G1 X0.8856 Y0.5925 F10.0000
G1 X0.8880 Y0.5837 F10.0000
G1 X0.8915 Y0.5748 F10.0000
G1 X0.8915 Y0.5748 F10.0000
G1 X0.9279 Y0.5172 F10.0000
G1 X0.9456 Y0.4963 F10.0000
G1 X0.9547 Y0.4889 F10.0000
G1 X0.9855 Y0.4724 F10.0000
G1 X0.9963 Y0.4680 F10.0000
G1 X1.0266 Y0.4599 F10.0000
G1 X1.0576 Y0.4545 F10.0000
G1 X1.0854 Y0.4510 F10.0000
G1 X1.1125 Y0.4493 F10.0000
G1 X1.1437 Y0.4488 F10.0000
G1 X1.1750 Y0.4505 F10.0000
G1 X1.2062 Y0.4540 F10.0000
G1 X1.2372 Y0.4589 F10.0000
G1 X1.2677 Y0.4658 F10.0000
G1 X1.2977 Y0.4744 F10.0000
G1 X1.3273 Y0.4847 F10.0000
G1 X1.3561 Y0.4968 F10.0000
G1 X1.3841 Y0.5106 F10.0000
G1 X1.4114 Y0.5258 F10.0000
G1 X1.4377 Y0.5428 F10.0000
G1 X1.5081 Y0.5969 F10.0000
G1 X1.5135 Y0.6024 F10.0000
G1 X1.5212 Y0.6152 F10.0000
G1 X1.5226 Y0.6186 F10.0000
G1 X1.5234 Y0.6223 F10.0000
G1 X1.5234 Y0.6740 F10.0000
G1 X1.5234 Y0.6740 F10.0000
G1 X1.5209 Y0.6877 F10.0000
G1 X1.5175 Y0.6966 F10.0000
G1 X1.5153 Y0.7003 F10.0000
G1 X1.5123 Y0.7030 F10.0000
G0 X1.5089 Y0.7047
G0 X1.5049 Y0.7052
G0 X1.4921 Y0.7032
G0 X0.9601 Y0.5477
G1 X0.9537 Y0.5458 F10.0000
G1 X0.9427 Y0.5421 F10.0000
G1 X0.9380 Y0.5399 F10.0000
G1 X0.9345 Y0.5369 F10.0000
G1 X0.9323 Y0.5332 F10.0000
G1 X0.9309 Y0.5293 F10.0000
G1 X0.9301 Y0.5202 F10.0000
G1 X0.9345 Y0.5022 F10.0000
G1 X0.9345 Y0.5022 F10.0000
G1 X0.9653 Y0.4461 F10.0000
G1 X0.9744 Y0.4333 F10.0000
G1 X0.9825 Y0.4247 F10.0000
G1 X1.0057 Y0.4099 F10.0000
G1 X1.0263 Y0.3996 F10.0000
G1 X1.0563 Y0.3903 F10.0000
G1 X1.0866 Y0.3836 F10.0000
G1 X1.1105 Y0.3804 F10.0000
G1 X1.1326 Y0.3782 F10.0000
G1 X1.1639 Y0.3770 F10.0000
G1 X1.1951 Y0.3784 F10.0000
G1 X1.2242 Y0.3812 F10.0000
G1 X1.2552 Y0.3858 F10.0000
G1 X1.2859 Y0.3920 F10.0000
G1 X1.3162 Y0.4001 F10.0000
G1 X1.3460 Y0.4097 F10.0000
G1 X1.3752 Y0.4208 F10.0000
G1 X1.4038 Y0.4336 F10.0000
G1 X1.4316 Y0.4478 F10.0000
G1 X1.4587 Y0.4636 F10.0000
G1 X1.5034 Y0.4936 F10.0000
G1 X1.5150 Y0.5034 F10.0000
G1 X1.5226 Y0.5162 F10.0000
G1 X1.5234 Y0.5199 F10.0000
G1 X1.5234 Y0.5642 F10.0000
G1 X1.5234 Y0.5642 F10.0000
G1 X1.5209 Y0.5780 F10.0000
G1 X1.5175 Y0.5869 F10.0000
G1 X1.5153 Y0.5906 F10.0000
G1 X1.5123 Y0.5935 F10.0000
G0 X1.5089 Y0.5952
G0 X1.5049 Y0.5960
G0 X1.4919 Y0.5945
G0 X0.9941 Y0.4786
G1 X0.9877 Y0.4771 F10.0000
G1 X0.9766 Y0.4742 F10.0000
G1 X0.9722 Y0.4719 F10.0000
G1 X0.9685 Y0.4692 F10.0000
G1 X0.9660 Y0.4658 F10.0000
G1 X0.9646 Y0.4616 F10.0000
G1 X0.9636 Y0.4528 F10.0000
G1 X0.9651 Y0.4437 F10.0000
G1 X0.9678 Y0.4348 F10.0000
G1 X0.9678 Y0.4348 F10.0000
G1 X0.9867 Y0.3907 F10.0000
G1 X0.9988 Y0.3703 F10.0000
G1 X1.0116 Y0.3553 F10.0000
G1 X1.0411 Y0.3361 F10.0000
G1 X1.0514 Y0.3310 F10.0000
G1 X1.0814 Y0.3214 F10.0000
G1 X1.1122 Y0.3147 F10.0000
G1 X1.1363 Y0.3105 F10.0000
G1 X1.1641 Y0.3078 F10.0000
G1 X1.1929 Y0.3073 F10.0000
G1 X1.2197 Y0.3078 F10.0000
G1 X1.2510 Y0.3100 F10.0000
G1 X1.2820 Y0.3145 F10.0000
G1 X1.3127 Y0.3201 F10.0000
G1 X1.3433 Y0.3275 F10.0000
G1 X1.3733 Y0.3369 F10.0000
G1 X1.4028 Y0.3477 F10.0000
G1 X1.4316 Y0.3602 F10.0000
G1 X1.4596 Y0.3743 F10.0000
G1 X1.5062 Y0.4021 F10.0000
G1 X1.5150 Y0.4090 F10.0000
G1 X1.5214 Y0.4183 F10.0000
G1 X1.5231 Y0.4218 F10.0000
G1 X1.5234 Y0.4624 F10.0000
G1 X1.5234 Y0.4624 F10.0000
G1 X1.5209 Y0.4761 F10.0000
G1 X1.5175 Y0.4850 F10.0000
G1 X1.5153 Y0.4887 F10.0000
G1 X1.5123 Y0.4916 F10.0000
G0 X1.5086 Y0.4934
G0 X1.5049 Y0.4943
G0 X1.4916 Y0.4936
G0 X1.0271 Y0.4077
G1 X1.0207 Y0.4067 F10.0000
G1 X1.0094 Y0.4043 F10.0000
G1 X1.0047 Y0.4023 F10.0000
G1 X1.0010 Y0.3999 F10.0000
G1 X0.9983 Y0.3964 F10.0000
G1 X0.9963 Y0.3925 F10.0000
G1 X0.9943 Y0.3836 F10.0000
G1 X0.9958 Y0.3652 F10.0000
G1 X0.9958 Y0.3652 F10.0000
G1 X1.0128 Y0.3201 F10.0000
G1 X1.0268 Y0.2965 F10.0000
G1 X1.0349 Y0.2881 F10.0000
G1 X1.0679 Y0.2667 F10.0000
G1 X1.0974 Y0.2559 F10.0000
G1 X1.1272 Y0.2478 F10.0000
G1 X1.1503 Y0.2431 F10.0000
G1 X1.1742 Y0.2394 F10.0000
G1 X1.2055 Y0.2367 F10.0000
G1 X1.2367 Y0.2362 F10.0000
G1 X1.2662 Y0.2372 F10.0000
G1 X1.2975 Y0.2404 F10.0000
G1 X1.3285 Y0.2456 F10.0000
G1 X1.3588 Y0.2525 F10.0000
G1 X1.3888 Y0.2613 F10.0000
G1 X1.4186 Y0.2712 F10.0000
G1 X1.4476 Y0.2830 F10.0000
G1 X1.4759 Y0.2963 F10.0000
G1 X1.5123 Y0.3189 F10.0000
G1 X1.5153 Y0.3214 F10.0000
G1 X1.5217 Y0.3307 F10.0000
G1 X1.5234 Y0.3342 F10.0000
G1 X1.5234 Y0.3674 F10.0000
G1 X1.5234 Y0.3674 F10.0000
G1 X1.5209 Y0.3812 F10.0000
G1 X1.5175 Y0.3900 F10.0000
G1 X1.5153 Y0.3937 F10.0000
G1 X1.5123 Y0.3967 F10.0000
G0 X1.5086 Y0.3986
G0 X1.5047 Y0.3996
G0 X1.4914 Y0.3996
G0 X1.0500 Y0.3435
G1 X1.0436 Y0.3428 F10.0000
G1 X1.0322 Y0.3408 F10.0000
G1 X1.0273 Y0.3393 F10.0000
G1 X1.0234 Y0.3369 F10.0000
G1 X1.0204 Y0.3337 F10.0000
G1 X1.0185 Y0.3300 F10.0000
G1 X1.0160 Y0.3211 F10.0000
G1 X1.0165 Y0.3027 F10.0000
G1 X1.0165 Y0.3027 F10.0000
G1 X1.0182 Y0.2990 F10.0000
G1 X1.0281 Y0.2640 F10.0000
G1 X1.0359 Y0.2456 F10.0000
G1 X1.0421 Y0.2352 F10.0000
G1 X1.0500 Y0.2264 F10.0000
G1 X1.0782 Y0.2055 F10.0000
G1 X1.0817 Y0.2035 F10.0000
G1 X1.1105 Y0.1907 F10.0000
G1 X1.1403 Y0.1811 F10.0000
G1 X1.1634 Y0.1752 F10.0000
G1 X1.1882 Y0.1705 F10.0000
G1 X1.2158 Y0.1668 F10.0000
G1 X1.2470 Y0.1654 F10.0000
G1 X1.2751 Y0.1656 F10.0000
G1 X1.3044 Y0.1678 F10.0000
G1 X1.3344 Y0.1710 F10.0000
G1 X1.3652 Y0.1767 F10.0000
G1 X1.3957 Y0.1841 F10.0000
G1 X1.4257 Y0.1929 F10.0000
G1 X1.4552 Y0.2037 F10.0000
G1 X1.4840 Y0.2160 F10.0000
G1 X1.5135 Y0.2350 F10.0000
G1 X1.5185 Y0.2406 F10.0000
G1 X1.5224 Y0.2470 F10.0000
G1 X1.5234 Y0.2507 F10.0000
G1 X1.5234 Y0.2840 F10.0000
G1 X1.5234 Y0.2840 F10.0000
G1 X1.5209 Y0.2977 F10.0000
G1 X1.5175 Y0.3066 F10.0000
G1 X1.5153 Y0.3103 F10.0000
G1 X1.5121 Y0.3135 F10.0000
G0 X1.5086 Y0.3155
G0 X1.5047 Y0.3167
G0 X1.4914 Y0.3172
G0 X1.0664 Y0.2864
G1 X1.0600 Y0.2862 F10.0000
G1 X1.0487 Y0.2849 F10.0000
G1 X1.0438 Y0.2837 F10.0000
G1 X1.0399 Y0.2815 F10.0000
G1 X1.0367 Y0.2785 F10.0000
G1 X1.0342 Y0.2746 F10.0000
G1 X1.0325 Y0.2697 F10.0000
G1 X1.0310 Y0.2589 F10.0000
G1 X1.0310 Y0.2483 F10.0000
G1 X1.0310 Y0.2483 F10.0000
G1 X1.0433 Y0.1973 F10.0000
G1 X1.0524 Y0.1754 F10.0000
G1 X1.0591 Y0.1654 F10.0000
G1 X1.0768 Y0.1496 F10.0000
G1 X1.0933 Y0.1390 F10.0000
G1 X1.1213 Y0.1250 F10.0000
G1 X1.1508 Y0.1142 F10.0000
G1 X1.1801 Y0.1065 F10.0000
G1 X1.2023 Y0.1021 F10.0000
G1 X1.2266 Y0.0982 F10.0000
G1 X1.2579 Y0.0952 F10.0000
G1 X1.2891 Y0.0945 F10.0000
G1 X1.3199 Y0.0952 F10.0000
G1 X1.3511 Y0.0979 F10.0000
G1 X1.3821 Y0.1026 F10.0000
G1 X1.4129 Y0.1090 F10.0000
G1 X1.4432 Y0.1174 F10.0000
G1 X1.4722 Y0.1292 F10.0000
G1 X1.5017 Y0.1449 F10.0000
G1 X1.5143 Y0.1535 F10.0000
G1 X1.5209 Y0.1624 F10.0000
G1 X1.5226 Y0.1658 F10.0000
G1 X1.5234 Y0.1695 F10.0000
G1 X1.5234 Y0.2028 F10.0000
G1 X1.5234 Y0.2028 F10.0000
G1 X1.5209 Y0.2165 F10.0000
G1 X1.5175 Y0.2254 F10.0000
G1 X1.5153 Y0.2291 F10.0000
G1 X1.5121 Y0.2323 F10.0000
G0 X1.5086 Y0.2345
G0 X1.5002 Y0.2365
G0 X1.4823 Y0.2365
G0 X1.0827 Y0.2212
G1 X1.0763 Y0.2210 F10.0000
G1 X1.0650 Y0.2202 F10.0000
G1 X1.0600 Y0.2190 F10.0000
G1 X1.0559 Y0.2170 F10.0000
G1 X1.0524 Y0.2141 F10.0000
G1 X1.0497 Y0.2106 F10.0000
G1 X1.0463 Y0.2025 F10.0000
G1 X1.0448 Y0.1934 F10.0000
G1 X1.0445 Y0.1841 F10.0000
G1 X1.0445 Y0.1841 F10.0000
G1 X1.0534 Y0.1368 F10.0000
G1 X1.0605 Y0.1181 F10.0000
G1 X1.0669 Y0.1080 F10.0000
G1 X1.0906 Y0.0874 F10.0000
G1 X1.1001 Y0.0807 F10.0000
G1 X1.1270 Y0.0640 F10.0000
G1 X1.1555 Y0.0507 F10.0000
G1 X1.1816 Y0.0413 F10.0000
G1 X1.2028 Y0.0359 F10.0000
G1 X1.2222 Y0.0317 F10.0000
G1 X1.2527 Y0.0266 F10.0000
G1 X1.2840 Y0.0234 F10.0000
G1 X1.3152 Y0.0219 F10.0000
G1 X1.3465 Y0.0221 F10.0000
G1 X1.3999 Y0.0295 F10.0000
G1 X1.4289 Y0.0364 F10.0000
G1 X1.4562 Y0.0453 F10.0000
G1 X1.4811 Y0.0551 F10.0000
G1 X1.5057 Y0.0691 F10.0000
G1 X1.5148 Y0.0758 F10.0000
G1 X1.5214 Y0.0846 F10.0000
G1 X1.5231 Y0.0881 F10.0000
G1 X1.5234 Y0.1176 F10.0000
G1 X1.5234 Y0.1176 F10.0000
G1 X1.5209 Y0.1314 F10.0000
G1 X1.5175 Y0.1403 F10.0000
G1 X1.5153 Y0.1439 F10.0000
G1 X1.5121 Y0.1471 F10.0000
G0 X1.5086 Y0.1496
G0 X1.5005 Y0.1518
G0 X1.4823 Y0.1531
G0 X1.0923 Y0.1631
G1 X1.0859 Y0.1634 F10.0000
G1 X1.0746 Y0.1631 F10.0000
G1 X1.0694 Y0.1624 F10.0000
G1 X1.0652 Y0.1607 F10.0000
G1 X1.0618 Y0.1580 F10.0000
G1 X1.0591 Y0.1548 F10.0000
G1 X1.0554 Y0.1467 F10.0000
G1 X1.0536 Y0.1375 F10.0000
G1 X1.0531 Y0.1282 F10.0000
G1 X1.0531 Y0.1282 F10.0000
G1 X1.0598 Y0.0810 F10.0000
G1 X1.0657 Y0.0618 F10.0000
G1 X1.0716 Y0.0514 F10.0000
G1 X1.1026 Y0.0217 F10.0000
G1 X1.1284 Y0.0037 F10.0000
G1 X1.1562 Y-0.0108 F10.0000
G1 X1.2020 Y-0.0293 F10.0000
G1 X1.2323 Y-0.0376 F10.0000
G1 X1.2586 Y-0.0431 F10.0000
G1 X1.2852 Y-0.0470 F10.0000
G1 X1.3137 Y-0.0487 F10.0000
G1 X1.3410 Y-0.0485 F10.0000
G1 X1.3686 Y-0.0465 F10.0000
G1 X1.3964 Y-0.0436 F10.0000
G1 X1.4272 Y-0.0376 F10.0000
G1 X1.4569 Y-0.0303 F10.0000
G1 X1.4860 Y-0.0182 F10.0000
G1 X1.5150 Y0.0007 F10.0000
G1 X1.5217 Y0.0098 F10.0000
G1 X1.5234 Y0.0133 F10.0000
G1 X1.5234 Y0.0687 F10.0000
G1 X1.5234 Y0.0687 F10.0000
G1 X1.5209 Y0.0824 F10.0000
G1 X1.5175 Y0.0913 F10.0000
G1 X1.5150 Y0.0950 F10.0000
G1 X1.5121 Y0.0982 F10.0000
G0 X1.5086 Y0.1004
G0 X1.5002 Y0.1029
G0 X1.4823 Y0.1036
G0 X1.0994 Y0.1073
G1 X1.0930 Y0.1075 F10.0000
G1 X1.0817 Y0.1073 F10.0000
G1 X1.0765 Y0.1063 F10.0000
G1 X1.0721 Y0.1046 F10.0000
G1 X1.0687 Y0.1019 F10.0000
G1 X1.0657 Y0.0987 F10.0000
G1 X1.0615 Y0.0906 F10.0000
G1 X1.0593 Y0.0817 F10.0000
G1 X1.0583 Y0.0723 F10.0000
G1 X1.0583 Y0.0723 F10.0000
G1 X1.0618 Y0.0290 F10.0000
G1 X1.0677 Y0.0054 F10.0000
G1 X1.0706 Y-0.0017 F10.0000
G1 X1.0891 Y-0.0253 F10.0000
G1 X1.0999 Y-0.0362 F10.0000
G1 X1.1243 Y-0.0556 F10.0000
G1 X1.1508 Y-0.0721 F10.0000
G1 X1.1703 Y-0.0819 F10.0000
G1 X1.1890 Y-0.0901 F10.0000
G1 X1.2124 Y-0.0989 F10.0000
G1 X1.2426 Y-0.1070 F10.0000
G1 X1.2672 Y-0.1120 F10.0000
G1 X1.2943 Y-0.1156 F10.0000
G1 X1.3226 Y-0.1184 F10.0000
G1 X1.3538 Y-0.1188 F10.0000
G1 X1.3841 Y-0.1176 F10.0000
G1 X1.4154 Y-0.1144 F10.0000
G1 X1.4459 Y-0.1068 F10.0000
G1 X1.4643 Y-0.1014 F10.0000
G1 X1.4884 Y-0.0910 F10.0000
G1 X1.5145 Y-0.0743 F10.0000
G1 X1.5194 Y-0.0682 F10.0000
G1 X1.5231 Y-0.0610 F10.0000
G1 X1.5236 Y-0.0020 F10.0000
G1 X1.5236 Y-0.0020 F10.0000
G1 X1.5212 Y0.0118 F10.0000
G1 X1.5177 Y0.0207 F10.0000
G1 X1.5153 Y0.0244 F10.0000
G1 X1.5123 Y0.0276 F10.0000
G0 X1.5089 Y0.0300
G0 X1.5005 Y0.0325
G0 X1.4825 Y0.0340
G0 X1.1046 Y0.0490
G1 X1.0982 Y0.0492 F10.0000
G1 X1.0869 Y0.0492 F10.0000
G1 X1.0817 Y0.0485 F10.0000
G1 X1.0773 Y0.0470 F10.0000
G1 X1.0733 Y0.0445 F10.0000
G1 X1.0701 Y0.0413 F10.0000
G1 X1.0655 Y0.0337 F10.0000
G1 X1.0605 Y0.0160 F10.0000
G1 X1.0605 Y0.0160 F10.0000
G1 X1.0613 Y-0.0293 F10.0000
G1 X1.0659 Y-0.0551 F10.0000
G1 X1.0704 Y-0.0657 F10.0000
G1 X1.0938 Y-0.0950 F10.0000
G1 X1.1203 Y-0.1181 F10.0000
G1 X1.1464 Y-0.1353 F10.0000
G1 X1.1636 Y-0.1449 F10.0000
G1 X1.1831 Y-0.1540 F10.0000
G1 X1.2052 Y-0.1634 F10.0000
G1 X1.2352 Y-0.1727 F10.0000
G1 X1.2603 Y-0.1789 F10.0000
G1 X1.2876 Y-0.1838 F10.0000
G1 X1.3167 Y-0.1877 F10.0000
G1 X1.3479 Y-0.1897 F10.0000
G1 X1.3792 Y-0.1900 F10.0000
G1 X1.4104 Y-0.1863 F10.0000
G1 X1.4313 Y-0.1828 F10.0000
G1 X1.4579 Y-0.1764 F10.0000
G1 X1.4828 Y-0.1678 F10.0000
G1 X1.5047 Y-0.1560 F10.0000
G1 X1.5143 Y-0.1491 F10.0000
G1 X1.5192 Y-0.1430 F10.0000
G1 X1.5231 Y-0.1361 F10.0000
G1 X1.5236 Y-0.0888 F10.0000
G1 X1.5236 Y-0.0888 F10.0000
G1 X1.5212 Y-0.0743 F10.0000
G1 X1.5177 Y-0.0655 F10.0000
G1 X1.5155 Y-0.0615 F10.0000
G1 X1.5123 Y-0.0581 F10.0000
G0 X1.5089 Y-0.0556
G0 X1.5007 Y-0.0527
G0 X1.4828 Y-0.0504
G0 X1.1046 Y-0.0175
G1 X1.0984 Y-0.0170 F10.0000
G1 X1.0871 Y-0.0162 F10.0000
G1 X1.0819 Y-0.0167 F10.0000
G1 X1.0773 Y-0.0182 F10.0000
G1 X1.0733 Y-0.0204 F10.0000
G1 X1.0701 Y-0.0236 F10.0000
G1 X1.0650 Y-0.0312 F10.0000
G1 X1.0618 Y-0.0401 F10.0000
G1 X1.0595 Y-0.0495 F10.0000
G1 X1.0595 Y-0.0495 F10.0000
G1 X1.0593 Y-0.1011 F10.0000
G1 X1.0627 Y-0.1196 F10.0000
G1 X1.0741 Y-0.1393 F10.0000
G1 X1.0906 Y-0.1592 F10.0000
G1 X1.1137 Y-0.1804 F10.0000
G1 X1.1388 Y-0.1991 F10.0000
G1 X1.1607 Y-0.2119 F10.0000
G1 X1.1774 Y-0.2207 F10.0000
G1 X1.2010 Y-0.2313 F10.0000
G1 X1.2293 Y-0.2416 F10.0000
G1 X1.2586 Y-0.2500 F10.0000
G1 X1.2867 Y-0.2562 F10.0000
G1 X1.3159 Y-0.2606 F10.0000
G1 X1.3455 Y-0.2630 F10.0000
G1 X1.3748 Y-0.2635 F10.0000
G1 X1.4043 Y-0.2608 F10.0000
G1 X1.4264 Y-0.2576 F10.0000
G1 X1.4525 Y-0.2517 F10.0000
G1 X1.4771 Y-0.2438 F10.0000
G1 X1.4993 Y-0.2325 F10.0000
G1 X1.5153 Y-0.2215 F10.0000
G1 X1.5219 Y-0.2119 F10.0000
G1 X1.5236 Y-0.2082 F10.0000
G1 X1.5236 Y-0.1609 F10.0000
G1 X1.5236 Y-0.1609 F10.0000
G1 X1.5212 Y-0.1464 F10.0000
G1 X1.5177 Y-0.1375 F10.0000
G1 X1.5155 Y-0.1336 F10.0000
G1 X1.5123 Y-0.1302 F10.0000
G0 X1.5089 Y-0.1275
G0 X1.5007 Y-0.1245
G0 X1.4828 Y-0.1216
G0 X1.1029 Y-0.0755
G1 X1.0965 Y-0.0748 F10.0000
G1 X1.0851 Y-0.0736 F10.0000
G1 X1.0800 Y-0.0741 F10.0000
G1 X1.0753 Y-0.0753 F10.0000
G1 X1.0714 Y-0.0773 F10.0000
G1 X1.0679 Y-0.0802 F10.0000
G1 X1.0623 Y-0.0876 F10.0000
G1 X1.0556 Y-0.1056 F10.0000
G1 X1.0556 Y-0.1056 F10.0000
G1 X1.0512 Y-0.1462 F10.0000
G1 X1.0527 Y-0.1720 F10.0000
G1 X1.0556 Y-0.1831 F10.0000
G1 X1.0785 Y-0.2178 F10.0000
G1 X1.1001 Y-0.2404 F10.0000
G1 X1.1225 Y-0.2594 F10.0000
G1 X1.1388 Y-0.2707 F10.0000
G1 X1.1750 Y-0.2911 F10.0000
G1 X1.2035 Y-0.3041 F10.0000
G1 X1.2330 Y-0.3150 F10.0000
G1 X1.2606 Y-0.3236 F10.0000
G1 X1.2913 Y-0.3295 F10.0000
G1 X1.3140 Y-0.3327 F10.0000
G1 X1.3413 Y-0.3344 F10.0000
G1 X1.3681 Y-0.3349 F10.0000
G1 X1.3994 Y-0.3332 F10.0000
G1 X1.4286 Y-0.3297 F10.0000
G1 X1.4579 Y-0.3221 F10.0000
G1 X1.4764 Y-0.3164 F10.0000
G1 X1.4993 Y-0.3056 F10.0000
G1 X1.5153 Y-0.2948 F10.0000
G1 X1.5202 Y-0.2884 F10.0000
G1 X1.5236 Y-0.2812 F10.0000
G1 X1.5236 Y-0.2379 F10.0000
G1 X1.5236 Y-0.2379 F10.0000
G1 X1.5212 Y-0.2234 F10.0000
G1 X1.5177 Y-0.2146 F10.0000
G1 X1.5155 Y-0.2104 F10.0000
G1 X1.5125 Y-0.2072 F10.0000
G0 X1.5089 Y-0.2045
G0 X1.5007 Y-0.2010
G0 X1.4828 Y-0.1973
G0 X1.0969 Y-0.1339
G1 X1.0908 Y-0.1329 F10.0000
G1 X1.0795 Y-0.1314 F10.0000
G1 X1.0743 Y-0.1314 F10.0000
G1 X1.0696 Y-0.1324 F10.0000
G1 X1.0655 Y-0.1344 F10.0000
G1 X1.0618 Y-0.1371 F10.0000
G1 X1.0559 Y-0.1439 F10.0000
G1 X1.0482 Y-0.1614 F10.0000
G1 X1.0482 Y-0.1614 F10.0000
G1 X1.0411 Y-0.2168 F10.0000
G1 X1.0426 Y-0.2352 F10.0000
G1 X1.0445 Y-0.2426 F10.0000
G1 X1.0571 Y-0.2657 F10.0000
G1 X1.0657 Y-0.2783 F10.0000
G1 X1.0869 Y-0.3014 F10.0000
G1 X1.1088 Y-0.3216 F10.0000
G1 X1.1275 Y-0.3356 F10.0000
G1 X1.1442 Y-0.3465 F10.0000
G1 X1.1646 Y-0.3585 F10.0000
G1 X1.1927 Y-0.3723 F10.0000
G1 X1.2217 Y-0.3841 F10.0000
G1 X1.2493 Y-0.3925 F10.0000
G1 X1.2719 Y-0.3979 F10.0000
G1 X1.2990 Y-0.4021 F10.0000
G1 X1.3253 Y-0.4053 F10.0000
G1 X1.3565 Y-0.4065 F10.0000
G1 X1.3863 Y-0.4058 F10.0000
G1 X1.4168 Y-0.4035 F10.0000
G1 X1.4476 Y-0.3971 F10.0000
G1 X1.4675 Y-0.3912 F10.0000
G1 X1.4938 Y-0.3804 F10.0000
G1 X1.5135 Y-0.3676 F10.0000
G1 X1.5165 Y-0.3649 F10.0000
G1 X1.5224 Y-0.3548 F10.0000
G1 X1.5236 Y-0.3511 F10.0000
G1 X1.5236 Y-0.2881 F10.0000
G1 X1.5236 Y-0.2881 F10.0000
G1 X1.5212 Y-0.2736 F10.0000
G1 X1.5177 Y-0.2648 F10.0000
G1 X1.5155 Y-0.2608 F10.0000
G1 X1.5125 Y-0.2574 F10.0000
G0 X1.5089 Y-0.2547
G0 X1.5007 Y-0.2517
G0 X1.4828 Y-0.2488
G0 X1.0876 Y-0.1986
G1 X1.0812 Y-0.1978 F10.0000
G1 X1.0699 Y-0.1966 F10.0000
G1 X1.0647 Y-0.1969 F10.0000
G1 X1.0598 Y-0.1978 F10.0000
G1 X1.0556 Y-0.1998 F10.0000
G1 X1.0517 Y-0.2025 F10.0000
G1 X1.0453 Y-0.2092 F10.0000
G1 X1.0364 Y-0.2261 F10.0000
G1 X1.0364 Y-0.2261 F10.0000
G1 X1.0281 Y-0.2667 F10.0000
G1 X1.0276 Y-0.2889 F10.0000
G1 X1.0298 Y-0.3000 F10.0000
G1 X1.0487 Y-0.3364 F10.0000
G1 X1.0687 Y-0.3605 F10.0000
G1 X1.0891 Y-0.3804 F10.0000
G1 X1.1046 Y-0.3935 F10.0000
G1 X1.1220 Y-0.4067 F10.0000
G1 X1.1459 Y-0.4225 F10.0000
G1 X1.1725 Y-0.4368 F10.0000
G1 X1.1964 Y-0.4478 F10.0000
G1 X1.2229 Y-0.4579 F10.0000
G1 X1.2500 Y-0.4660 F10.0000
G1 X1.2771 Y-0.4722 F10.0000
G1 X1.3049 Y-0.4764 F10.0000
G1 X1.3327 Y-0.4786 F10.0000
G1 X1.3605 Y-0.4788 F10.0000
G1 X1.3883 Y-0.4781 F10.0000
G1 X1.4195 Y-0.4749 F10.0000
G1 X1.4493 Y-0.4685 F10.0000
G1 X1.4707 Y-0.4616 F10.0000
G1 X1.4897 Y-0.4542 F10.0000
G1 X1.5128 Y-0.4397 F10.0000
G1 X1.5157 Y-0.4370 F10.0000
G1 X1.5224 Y-0.4269 F10.0000
G1 X1.5236 Y-0.4232 F10.0000
G1 X1.5236 Y-0.3602 F10.0000
G1 X1.5236 Y-0.3602 F10.0000
G1 X1.5212 Y-0.3457 F10.0000
G1 X1.5177 Y-0.3369 F10.0000
G1 X1.5155 Y-0.3327 F10.0000
G1 X1.5125 Y-0.3295 F10.0000
G0 X1.5089 Y-0.3268
G0 X1.5007 Y-0.3233
G0 X1.4825 Y-0.3199
G0 X1.0750 Y-0.2554
G1 X1.0687 Y-0.2544 F10.0000
G1 X1.0573 Y-0.2530 F10.0000
G1 X1.0519 Y-0.2530 F10.0000
G1 X1.0472 Y-0.2537 F10.0000
G1 X1.0428 Y-0.2554 F10.0000
G1 X1.0389 Y-0.2579 F10.0000
G1 X1.0322 Y-0.2643 F10.0000
G1 X1.0229 Y-0.2808 F10.0000
G1 X1.0229 Y-0.2808 F10.0000
G1 X1.0118 Y-0.3250 F10.0000
G1 X1.0103 Y-0.3435 F10.0000
G1 X1.0118 Y-0.3546 F10.0000
G1 X1.0288 Y-0.3922 F10.0000
G1 X1.0472 Y-0.4176 F10.0000
G1 X1.0682 Y-0.4409 F10.0000
G1 X1.0849 Y-0.4560 F10.0000
G1 X1.1184 Y-0.4813 F10.0000
G1 X1.1449 Y-0.4978 F10.0000
G1 X1.1727 Y-0.5123 F10.0000
G1 X1.1988 Y-0.5241 F10.0000
G1 X1.2281 Y-0.5337 F10.0000
G1 X1.2498 Y-0.5396 F10.0000
G1 X1.2763 Y-0.5445 F10.0000
G1 X1.3024 Y-0.5485 F10.0000
G1 X1.3337 Y-0.5507 F10.0000
G1 X1.3632 Y-0.5509 F10.0000
G1 X1.3937 Y-0.5495 F10.0000
G1 X1.4250 Y-0.5458 F10.0000
G1 X1.4547 Y-0.5386 F10.0000
G1 X1.4751 Y-0.5317 F10.0000
G1 X1.4938 Y-0.5239 F10.0000
G1 X1.5135 Y-0.5111 F10.0000
G1 X1.5165 Y-0.5084 F10.0000
G1 X1.5226 Y-0.4983 F10.0000
G1 X1.5236 Y-0.4943 F10.0000
G1 X1.5236 Y-0.4274 F10.0000
G1 X1.5236 Y-0.4274 F10.0000
G1 X1.5212 Y-0.4129 F10.0000
G1 X1.5177 Y-0.4040 F10.0000
G1 X1.5155 Y-0.3999 F10.0000
G1 X1.5125 Y-0.3967 F10.0000
G0 X1.5089 Y-0.3939
G0 X1.5007 Y-0.3905
G0 X1.4825 Y-0.3866
G0 X1.0605 Y-0.3115
G1 X1.0544 Y-0.3105 F10.0000
G1 X1.0428 Y-0.3088 F10.0000
G1 X1.0376 Y-0.3086 F10.0000
G1 X1.0327 Y-0.3093 F10.0000
G1 X1.0283 Y-0.3108 F10.0000
G1 X1.0204 Y-0.3159 F10.0000
G1 X1.0140 Y-0.3226 F10.0000
G1 X1.0064 Y-0.3346 F10.0000
G1 X1.0064 Y-0.3346 F10.0000
G1 X0.9914 Y-0.3863 F10.0000
G1 X0.9902 Y-0.4011 F10.0000
G1 X0.9909 Y-0.4085 F10.0000
G1 X1.0022 Y-0.4405 F10.0000
G1 X1.0057 Y-0.4473 F10.0000
G1 X1.0229 Y-0.4734 F10.0000
G1 X1.0428 Y-0.4975 F10.0000
G1 X1.0593 Y-0.5143 F10.0000
G1 X1.0743 Y-0.5278 F10.0000
G1 X1.0938 Y-0.5436 F10.0000
G1 X1.1201 Y-0.5605 F10.0000
G1 X1.1420 Y-0.5731 F10.0000
G1 X1.1666 Y-0.5851 F10.0000
G1 X1.1929 Y-0.5952 F10.0000
G1 X1.2185 Y-0.6033 F10.0000
G1 X1.2448 Y-0.6107 F10.0000
G1 X1.2756 Y-0.6166 F10.0000
G1 X1.3054 Y-0.6206 F10.0000
G1 X1.3366 Y-0.6230 F10.0000
G1 X1.3679 Y-0.6233 F10.0000
G1 X1.3991 Y-0.6216 F10.0000
G1 X1.4301 Y-0.6166 F10.0000
G1 X1.4532 Y-0.6117 F10.0000
G1 X1.4801 Y-0.6024 F10.0000
G1 X1.5074 Y-0.5878 F10.0000
G1 X1.5165 Y-0.5802 F10.0000
G1 X1.5226 Y-0.5701 F10.0000
G1 X1.5236 Y-0.5662 F10.0000
G1 X1.5236 Y-0.5032 F10.0000
G1 X1.5236 Y-0.5032 F10.0000
G1 X1.5212 Y-0.4887 F10.0000
G1 X1.5177 Y-0.4798 F10.0000
G1 X1.5155 Y-0.4756 F10.0000
G1 X1.5125 Y-0.4722 F10.0000
G0 X1.5089 Y-0.4695
G0 X1.5007 Y-0.4658
G0 X1.4825 Y-0.4611
G0 X1.0423 Y-0.3664
G1 X1.0362 Y-0.3652 F10.0000
G1 X1.0246 Y-0.3629 F10.0000
G1 X1.0194 Y-0.3625 F10.0000
G1 X1.0145 Y-0.3629 F10.0000
G1 X1.0098 Y-0.3644 F10.0000
G1 X1.0020 Y-0.3691 F10.0000
G1 X0.9951 Y-0.3755 F10.0000
G1 X0.9872 Y-0.3875 F10.0000
G1 X0.9872 Y-0.3875 F10.0000
G1 X0.9719 Y-0.4279 F10.0000
G1 X0.9665 Y-0.4537 F10.0000
G1 X0.9663 Y-0.4611 F10.0000
G1 X0.9756 Y-0.4936 F10.0000
G1 X0.9801 Y-0.5039 F10.0000
G1 X0.9966 Y-0.5305 F10.0000
G1 X1.0106 Y-0.5500 F10.0000
G1 X1.0249 Y-0.5662 F10.0000
G1 X1.0391 Y-0.5810 F10.0000
G1 X1.0605 Y-0.6001 F10.0000
G1 X1.0839 Y-0.6176 F10.0000
G1 X1.1051 Y-0.6316 F10.0000
G1 X1.1292 Y-0.6452 F10.0000
G1 X1.1540 Y-0.6565 F10.0000
G1 X1.1789 Y-0.6658 F10.0000
G1 X1.2045 Y-0.6747 F10.0000
G1 X1.2345 Y-0.6833 F10.0000
G1 X1.2653 Y-0.6900 F10.0000
G1 X1.2963 Y-0.6954 F10.0000
G1 X1.3275 Y-0.6973 F10.0000
G1 X1.3526 Y-0.6981 F10.0000
G1 X1.3839 Y-0.6969 F10.0000
G1 X1.4146 Y-0.6932 F10.0000
G1 X1.4432 Y-0.6882 F10.0000
G1 X1.4722 Y-0.6786 F10.0000
G1 X1.5027 Y-0.6631 F10.0000
G1 X1.5153 Y-0.6540 F10.0000
G1 X1.5219 Y-0.6444 F10.0000
G1 X1.5236 Y-0.6407 F10.0000
G1 X1.5236 Y-0.5738 F10.0000
G1 X1.5236 Y-0.5738 F10.0000
G1 X1.5212 Y-0.5593 F10.0000
G1 X1.5177 Y-0.5504 F10.0000
G1 X1.5155 Y-0.5463 F10.0000
G1 X1.5125 Y-0.5428 F10.0000
G0 X1.5091 Y-0.5401
G0 X1.5010 Y-0.5362
G0 X1.4823 Y-0.5310
G0 X1.0226 Y-0.4210
G1 X1.0162 Y-0.4195 F10.0000
G1 X1.0049 Y-0.4171 F10.0000
G1 X0.9995 Y-0.4166 F10.0000
G1 X0.9946 Y-0.4166 F10.0000
G1 X0.9899 Y-0.4178 F10.0000
G1 X0.9815 Y-0.4220 F10.0000
G1 X0.9742 Y-0.4281 F10.0000
G1 X0.9656 Y-0.4395 F10.0000
G1 X0.9656 Y-0.4395 F10.0000
G1 X0.9481 Y-0.4779 F10.0000
G1 X0.9412 Y-0.5037 F10.0000
G1 X0.9405 Y-0.5148 F10.0000
G1 X0.9515 Y-0.5549 F10.0000
G1 X0.9663 Y-0.5824 F10.0000
G1 X0.9813 Y-0.6046 F10.0000
G1 X0.9938 Y-0.6206 F10.0000
G1 X1.0081 Y-0.6371 F10.0000
G1 X1.0303 Y-0.6590 F10.0000
G1 X1.0524 Y-0.6777 F10.0000
G1 X1.0743 Y-0.6929 F10.0000
G1 X1.0933 Y-0.7045 F10.0000
G1 X1.1156 Y-0.7170 F10.0000
G1 X1.1439 Y-0.7306 F10.0000
G1 X1.1730 Y-0.7421 F10.0000
G1 X1.2028 Y-0.7522 F10.0000
G1 X1.2330 Y-0.7606 F10.0000
G1 X1.2638 Y-0.7670 F10.0000
G1 X1.2950 Y-0.7707 F10.0000
G1 X1.3204 Y-0.7724 F10.0000
G1 X1.3509 Y-0.7731 F10.0000
G1 X1.3821 Y-0.7714 F10.0000
G1 X1.4126 Y-0.7682 F10.0000
G1 X1.4434 Y-0.7613 F10.0000
G1 X1.4653 Y-0.7552 F10.0000
G1 X1.4911 Y-0.7441 F10.0000
G1 X1.5138 Y-0.7288 F10.0000
G1 X1.5187 Y-0.7229 F10.0000
G1 X1.5224 Y-0.7158 F10.0000
G1 X1.5236 Y-0.7121 F10.0000
G1 X1.5236 Y-0.6452 F10.0000
G1 X1.5236 Y-0.6452 F10.0000
G1 X1.5212 Y-0.6307 F10.0000
G1 X1.5177 Y-0.6218 F10.0000
G1 X1.5155 Y-0.6176 F10.0000
G1 X1.5125 Y-0.6142 F10.0000
G0 X1.5091 Y-0.6112
G0 X1.5010 Y-0.6073
G0 X1.4823 Y-0.6016
G0 X0.9995 Y-0.4742
G1 X0.9931 Y-0.4724 F10.0000
G1 X0.9818 Y-0.4697 F10.0000
G1 X0.9764 Y-0.4690 F10.0000
G1 X0.9712 Y-0.4690 F10.0000
G1 X0.9665 Y-0.4700 F10.0000
G1 X0.9579 Y-0.4737 F10.0000
G1 X0.9503 Y-0.4796 F10.0000
G1 X0.9407 Y-0.4902 F10.0000
G1 X0.9407 Y-0.4902 F10.0000
G1 X0.9193 Y-0.5315 F10.0000
G1 X0.9119 Y-0.5536 F10.0000
G1 X0.9104 Y-0.5647 F10.0000
G1 X0.9124 Y-0.5795 F10.0000
G1 X0.9195 Y-0.6053 F10.0000
G1 X0.9328 Y-0.6336 F10.0000
G1 X0.9491 Y-0.6604 F10.0000
G1 X0.9624 Y-0.6784 F10.0000
G1 X0.9754 Y-0.6939 F10.0000
G1 X0.9921 Y-0.7119 F10.0000
G1 X1.0150 Y-0.7333 F10.0000
G1 X1.0391 Y-0.7525 F10.0000
G1 X1.0625 Y-0.7689 F10.0000
G1 X1.0883 Y-0.7847 F10.0000
G1 X1.1147 Y-0.7985 F10.0000
G1 X1.1417 Y-0.8105 F10.0000
G1 X1.1700 Y-0.8209 F10.0000
G1 X1.1986 Y-0.8292 F10.0000
G1 X1.2276 Y-0.8359 F10.0000
G1 X1.2569 Y-0.8415 F10.0000
G1 X1.2881 Y-0.8450 F10.0000
G1 X1.3194 Y-0.8467 F10.0000
G1 X1.3506 Y-0.8469 F10.0000
G1 X1.3819 Y-0.8452 F10.0000
G1 X1.4131 Y-0.8418 F10.0000
G1 X1.4437 Y-0.8346 F10.0000
G1 X1.4656 Y-0.8287 F10.0000
G1 X1.4924 Y-0.8172 F10.0000
G1 X1.5150 Y-0.8014 F10.0000
G1 X1.5197 Y-0.7953 F10.0000
G1 X1.5231 Y-0.7881 F10.0000
G1 X1.5236 Y-0.7173 F10.0000
G1 X1.5236 Y-0.7173 F10.0000
G1 X1.5212 Y-0.7028 F10.0000
G1 X1.5177 Y-0.6939 F10.0000
G1 X1.5155 Y-0.6897 F10.0000
G1 X1.5125 Y-0.6863 F10.0000
G0 X1.5091 Y-0.6833
G0 X1.5010 Y-0.6794
G0 X1.4818 Y-0.6735
G0 X0.9680 Y-0.5332
G1 X0.9616 Y-0.5315 F10.0000
G1 X0.9500 Y-0.5285 F10.0000
G1 X0.9446 Y-0.5278 F10.0000
G1 X0.9395 Y-0.5278 F10.0000
G1 X0.9348 Y-0.5285 F10.0000
G1 X0.9259 Y-0.5317 F10.0000
G1 X0.9181 Y-0.5372 F10.0000
G1 X0.9082 Y-0.5472 F10.0000
G1 X0.9082 Y-0.5472 F10.0000
G1 X0.8890 Y-0.5807 F10.0000
G1 X0.8819 Y-0.5987 F10.0000
G1 X0.8794 Y-0.6097 F10.0000
G1 X0.8814 Y-0.6356 F10.0000
G1 X0.8856 Y-0.6540 F10.0000
G1 X0.8971 Y-0.6831 F10.0000
G1 X0.9122 Y-0.7106 F10.0000
G1 X0.9237 Y-0.7283 F10.0000
G1 X0.9360 Y-0.7446 F10.0000
G1 X0.9510 Y-0.7630 F10.0000
G1 X0.9724 Y-0.7857 F10.0000
G1 X0.9956 Y-0.8068 F10.0000
G1 X1.0187 Y-0.8260 F10.0000
G1 X1.0450 Y-0.8433 F10.0000
G1 X1.0647 Y-0.8548 F10.0000
G1 X1.1144 Y-0.8784 F10.0000
G1 X1.1439 Y-0.8893 F10.0000
G1 X1.1737 Y-0.8994 F10.0000
G1 X1.2040 Y-0.9077 F10.0000
G1 X1.2347 Y-0.9141 F10.0000
G1 X1.2657 Y-0.9193 F10.0000
G1 X1.2970 Y-0.9227 F10.0000
G1 X1.3282 Y-0.9247 F10.0000
G1 X1.3595 Y-0.9235 F10.0000
G1 X1.3851 Y-0.9215 F10.0000
G1 X1.4161 Y-0.9171 F10.0000
G1 X1.4469 Y-0.9104 F10.0000
G1 X1.4747 Y-0.9003 F10.0000
G1 X1.4953 Y-0.8903 F10.0000
G1 X1.5145 Y-0.8762 F10.0000
G1 X1.5194 Y-0.8698 F10.0000
G1 X1.5231 Y-0.8627 F10.0000
G1 X1.5236 Y-0.7958 F10.0000
G1 X1.5236 Y-0.7958 F10.0000
G1 X1.5212 Y-0.7812 F10.0000
G1 X1.5177 Y-0.7724 F10.0000
G1 X1.5155 Y-0.7682 F10.0000
G1 X1.5125 Y-0.7648 F10.0000
G0 X1.5091 Y-0.7618
G0 X1.5010 Y-0.7574
G0 X1.4818 Y-0.7510
G0 X0.9375 Y-0.5822
G1 X0.9311 Y-0.5802 F10.0000
G1 X0.9195 Y-0.5770 F10.0000
G1 X0.9144 Y-0.5760 F10.0000
G1 X0.9092 Y-0.5758 F10.0000
G1 X0.9043 Y-0.5763 F10.0000
G1 X0.8954 Y-0.5795 F10.0000
G1 X0.8878 Y-0.5846 F10.0000
G1 X0.8777 Y-0.5947 F10.0000
G1 X0.8777 Y-0.5947 F10.0000
G1 X0.8565 Y-0.6275 F10.0000
G1 X0.8484 Y-0.6449 F10.0000
G1 X0.8442 Y-0.6597 F10.0000
G1 X0.8445 Y-0.6781 F10.0000
G1 X0.8492 Y-0.7040 F10.0000
G1 X0.8597 Y-0.7335 F10.0000
G1 X0.8738 Y-0.7616 F10.0000
G1 X0.8844 Y-0.7800 F10.0000
G1 X0.8974 Y-0.7992 F10.0000
G1 X0.9126 Y-0.8194 F10.0000
G1 X0.9338 Y-0.8425 F10.0000
G1 X0.9528 Y-0.8610 F10.0000
G1 X0.9739 Y-0.8789 F10.0000
G1 X0.9966 Y-0.8964 F10.0000
G1 X1.0229 Y-0.9136 F10.0000
G1 X1.0490 Y-0.9286 F10.0000
G1 X1.0768 Y-0.9424 F10.0000
G1 X1.1053 Y-0.9552 F10.0000
G1 X1.1346 Y-0.9660 F10.0000
G1 X1.1646 Y-0.9754 F10.0000
G1 X1.1949 Y-0.9833 F10.0000
G1 X1.2254 Y-0.9902 F10.0000
G1 X1.2564 Y-0.9951 F10.0000
G1 X1.2876 Y-0.9988 F10.0000
G1 X1.3189 Y-1.0012 F10.0000
G1 X1.3501 Y-1.0007 F10.0000
G1 X1.3784 Y-0.9993 F10.0000
G1 X1.4094 Y-0.9946 F10.0000
G1 X1.4341 Y-0.9894 F10.0000
G1 X1.4624 Y-0.9815 F10.0000
G1 X1.4894 Y-0.9695 F10.0000
G1 X1.5150 Y-0.9515 F10.0000
G1 X1.5217 Y-0.9417 F10.0000
G1 X1.5234 Y-0.9380 F10.0000
G1 X1.5236 Y-0.8711 F10.0000
G1 X1.5236 Y-0.8711 F10.0000
G1 X1.5212 Y-0.8565 F10.0000
G1 X1.5177 Y-0.8477 F10.0000
G1 X1.5155 Y-0.8435 F10.0000
G1 X1.5125 Y-0.8401 F10.0000
G0 X1.5091 Y-0.8371
G0 X1.5012 Y-0.8324
G0 X1.4815 Y-0.8253
G0 X0.9060 Y-0.6302
G1 X0.8994 Y-0.6280 F10.0000
G1 X0.8880 Y-0.6245 F10.0000
G1 X0.8826 Y-0.6233 F10.0000
G1 X0.8777 Y-0.6230 F10.0000
G1 X0.8728 Y-0.6233 F10.0000
G1 X0.8637 Y-0.6262 F10.0000
G1 X0.8558 Y-0.6309 F10.0000
G1 X0.8452 Y-0.6405 F10.0000
G1 X0.8452 Y-0.6405 F10.0000
G1 X0.8364 Y-0.6533 F10.0000
G1 X0.8223 Y-0.6720 F10.0000
G1 X0.8130 Y-0.6892 F10.0000
G1 X0.8093 Y-0.7003 F10.0000
G1 X0.8076 Y-0.7261 F10.0000
G1 X0.8098 Y-0.7483 F10.0000
G1 X0.8187 Y-0.7783 F10.0000
G1 X0.8300 Y-0.8049 F10.0000
G1 X0.8386 Y-0.8223 F10.0000
G1 X0.8492 Y-0.8413 F10.0000
G1 X0.8661 Y-0.8664 F10.0000
G1 X0.8846 Y-0.8898 F10.0000
G1 X0.9023 Y-0.9097 F10.0000
G1 X0.9230 Y-0.9299 F10.0000
G1 X0.9446 Y-0.9481 F10.0000
G1 X0.9670 Y-0.9646 F10.0000
G1 X0.9906 Y-0.9806 F10.0000
G1 X1.0180 Y-0.9961 F10.0000
G1 X1.0450 Y-1.0106 F10.0000
G1 X1.0736 Y-1.0236 F10.0000
G1 X1.1029 Y-1.0349 F10.0000
G1 X1.1326 Y-1.0450 F10.0000
G1 X1.1626 Y-1.0544 F10.0000
G1 X1.1932 Y-1.0618 F10.0000
G1 X1.2239 Y-1.0682 F10.0000
G1 X1.2549 Y-1.0733 F10.0000
G1 X1.2862 Y-1.0770 F10.0000
G1 X1.3174 Y-1.0780 F10.0000
G1 X1.3484 Y-1.0782 F10.0000
G1 X1.3797 Y-1.0765 F10.0000
G1 X1.4107 Y-1.0714 F10.0000
G1 X1.4338 Y-1.0657 F10.0000
G1 X1.4567 Y-1.0586 F10.0000
G1 X1.4818 Y-1.0482 F10.0000
G1 X1.5039 Y-1.0372 F10.0000
G1 X1.5133 Y-1.0300 F10.0000
G1 X1.5185 Y-1.0241 F10.0000
G1 X1.5236 Y-1.0135 F10.0000
G1 X1.5236 Y-0.9466 F10.0000
G1 X1.5236 Y-0.9466 F10.0000
G1 X1.5212 Y-0.9321 F10.0000
G1 X1.5177 Y-0.9232 F10.0000
G1 X1.5125 Y-0.9154 F10.0000
G0 X1.5091 Y-0.9124
G0 X1.5012 Y-0.9077
G0 X1.4813 Y-0.8999
G0 X0.8723 Y-0.6777
G1 X0.8656 Y-0.6752 F10.0000
G1 X0.8489 Y-0.6700 F10.0000
G1 X0.8438 Y-0.6695 F10.0000
G1 X0.8342 Y-0.6705 F10.0000
G1 X0.8253 Y-0.6737 F10.0000
G1 X0.8100 Y-0.6845 F10.0000
G1 X0.8100 Y-0.6845 F10.0000
G1 X0.7785 Y-0.7244 F10.0000
G1 X0.7714 Y-0.7382 F10.0000
G1 X0.7682 Y-0.7493 F10.0000
G1 X0.7667 Y-0.7788 F10.0000
G1 X0.7675 Y-0.7899 F10.0000
G1 X0.7749 Y-0.8204 F10.0000
G1 X0.7908 Y-0.8649 F10.0000
G1 X0.8049 Y-0.8930 F10.0000
G1 X0.8182 Y-0.9146 F10.0000
G1 X0.8322 Y-0.9350 F10.0000
G1 X0.8494 Y-0.9557 F10.0000
G1 X0.8671 Y-0.9742 F10.0000
G1 X0.8856 Y-0.9921 F10.0000
G1 X0.9092 Y-1.0128 F10.0000
G1 X0.9343 Y-1.0317 F10.0000
G1 X0.9601 Y-1.0495 F10.0000
G1 X0.9870 Y-1.0657 F10.0000
G1 X1.0148 Y-1.0802 F10.0000
G1 X1.0721 Y-1.1058 F10.0000
G1 X1.1014 Y-1.1171 F10.0000
G1 X1.1312 Y-1.1270 F10.0000
G1 X1.1612 Y-1.1358 F10.0000
G1 X1.1917 Y-1.1435 F10.0000
G1 X1.2224 Y-1.1499 F10.0000
G1 X1.2537 Y-1.1535 F10.0000
G1 X1.2837 Y-1.1562 F10.0000
G1 X1.3150 Y-1.1572 F10.0000
G1 X1.3462 Y-1.1562 F10.0000
G1 X1.3775 Y-1.1540 F10.0000
G1 X1.4082 Y-1.1484 F10.0000
G1 X1.4321 Y-1.1430 F10.0000
G1 X1.4621 Y-1.1341 F10.0000
G1 X1.4899 Y-1.1218 F10.0000
G1 X1.5123 Y-1.1063 F10.0000
G1 X1.5153 Y-1.1036 F10.0000
G1 X1.5217 Y-1.0935 F10.0000
G1 X1.5234 Y-1.0898 F10.0000
G1 X1.5236 Y-1.0189 F10.0000
G1 X1.5236 Y-1.0189 F10.0000
G1 X1.5212 Y-1.0044 F10.0000
G1 X1.5177 Y-0.9956 F10.0000
G1 X1.5125 Y-0.9877 F10.0000
G0 X1.5091 Y-0.9847
G0 X1.4970 Y-0.9781
G0 X0.8351 Y-0.7222
G1 X0.8285 Y-0.7197 F10.0000
G1 X0.8118 Y-0.7141 F10.0000
G1 X0.8019 Y-0.7131 F10.0000
G1 X0.7926 Y-0.7148 F10.0000
G1 X0.7840 Y-0.7185 F10.0000
G1 X0.7724 Y-0.7266 F10.0000
G1 X0.7724 Y-0.7266 F10.0000
G1 X0.7434 Y-0.7581 F10.0000
G1 X0.7323 Y-0.7744 F10.0000
G1 X0.7274 Y-0.7847 F10.0000
G1 X0.7234 Y-0.8068 F10.0000
G1 X0.7227 Y-0.8327 F10.0000
G1 X0.7286 Y-0.8634 F10.0000
G1 X0.7352 Y-0.8871 F10.0000
G1 X0.7419 Y-0.9060 F10.0000
G1 X0.7507 Y-0.9269 F10.0000
G1 X0.7655 Y-0.9535 F10.0000
G1 X0.7783 Y-0.9734 F10.0000
G1 X0.7926 Y-0.9941 F10.0000
G1 X0.8120 Y-1.0187 F10.0000
G1 X0.8332 Y-1.0418 F10.0000
G1 X0.8551 Y-1.0637 F10.0000
G1 X0.8787 Y-1.0844 F10.0000
G1 X0.9035 Y-1.1036 F10.0000
G1 X0.9294 Y-1.1213 F10.0000
G1 X0.9562 Y-1.1375 F10.0000
G1 X1.0121 Y-1.1661 F10.0000
G1 X1.0406 Y-1.1791 F10.0000
G1 X1.0699 Y-1.1905 F10.0000
G1 X1.0994 Y-1.2008 F10.0000
G1 X1.1294 Y-1.2099 F10.0000
G1 X1.1597 Y-1.2178 F10.0000
G1 X1.1902 Y-1.2244 F10.0000
G1 X1.2212 Y-1.2298 F10.0000
G1 X1.2522 Y-1.2340 F10.0000
G1 X1.2835 Y-1.2355 F10.0000
G1 X1.3145 Y-1.2362 F10.0000
G1 X1.3457 Y-1.2350 F10.0000
G1 X1.3770 Y-1.2320 F10.0000
G1 X1.4080 Y-1.2276 F10.0000
G1 X1.4382 Y-1.2197 F10.0000
G1 X1.4606 Y-1.2119 F10.0000
G1 X1.4818 Y-1.2032 F10.0000
G1 X1.5054 Y-1.1907 F10.0000
G1 X1.5145 Y-1.1833 F10.0000
G1 X1.5212 Y-1.1737 F10.0000
G1 X1.5229 Y-1.1700 F10.0000
G1 X1.5236 Y-1.1661 F10.0000
G1 X1.5236 Y-1.0992 F10.0000
G1 X1.5236 Y-1.0992 F10.0000
G1 X1.5212 Y-1.0846 F10.0000
G1 X1.5177 Y-1.0758 F10.0000
G1 X1.5125 Y-1.0679 F10.0000
G0 X1.5091 Y-1.0650
G0 X1.4973 Y-1.0578
G0 X0.7975 Y-0.7657
G1 X0.7906 Y-0.7630 F10.0000
G1 X0.7739 Y-0.7569 F10.0000
G1 X0.7638 Y-0.7554 F10.0000
G1 X0.7542 Y-0.7564 F10.0000
G1 X0.7453 Y-0.7596 F10.0000
G1 X0.7328 Y-0.7665 F10.0000
G1 X0.7328 Y-0.7665 F10.0000
G1 X0.6988 Y-0.7997 F10.0000
G1 X0.6870 Y-0.8152 F10.0000
G1 X0.6818 Y-0.8258 F10.0000
G1 X0.6764 Y-0.8553 F10.0000
G1 X0.6757 Y-0.8701 F10.0000
G1 X0.6801 Y-0.9011 F10.0000
G1 X0.6907 Y-0.9429 F10.0000
G1 X0.7015 Y-0.9702 F10.0000
G1 X0.7111 Y-0.9916 F10.0000
G1 X0.7259 Y-1.0187 F10.0000
G1 X0.7409 Y-1.0416 F10.0000
G1 X0.7569 Y-1.0632 F10.0000
G1 X0.7746 Y-1.0854 F10.0000
G1 X0.7960 Y-1.1083 F10.0000
G1 X0.8182 Y-1.1294 F10.0000
G1 X0.8420 Y-1.1499 F10.0000
G1 X0.8666 Y-1.1693 F10.0000
G1 X0.9186 Y-1.2042 F10.0000
G1 X0.9456 Y-1.2200 F10.0000
G1 X0.9734 Y-1.2345 F10.0000
G1 X1.0017 Y-1.2480 F10.0000
G1 X1.0308 Y-1.2601 F10.0000
G1 X1.0898 Y-1.2813 F10.0000
G1 X1.1198 Y-1.2899 F10.0000
G1 X1.1503 Y-1.2975 F10.0000
G1 X1.1809 Y-1.3041 F10.0000
G1 X1.2119 Y-1.3095 F10.0000
G1 X1.2431 Y-1.3125 F10.0000
G1 X1.2744 Y-1.3147 F10.0000
G1 X1.3056 Y-1.3155 F10.0000
G1 X1.3369 Y-1.3145 F10.0000
G1 X1.3681 Y-1.3123 F10.0000
G1 X1.3991 Y-1.3068 F10.0000
G1 X1.4259 Y-1.3012 F10.0000
G1 X1.4562 Y-1.2931 F10.0000
G1 X1.4850 Y-1.2803 F10.0000
G1 X1.5108 Y-1.2633 F10.0000
G1 X1.5165 Y-1.2579 F10.0000
G1 X1.5224 Y-1.2475 F10.0000
G1 X1.5236 Y-1.2436 F10.0000
G1 X1.5236 Y-1.1727 F10.0000
G1 X1.5236 Y-1.1727 F10.0000
G1 X1.5212 Y-1.1582 F10.0000
G1 X1.5177 Y-1.1494 F10.0000
G1 X1.5125 Y-1.1415 F10.0000
G0 X1.5091 Y-1.1383
G0 X1.4973 Y-1.1314
G0 X0.7485 Y-0.8115
G1 X0.7416 Y-0.8086 F10.0000
G1 X0.7249 Y-0.8022 F10.0000
G1 X0.7148 Y-0.8004 F10.0000
G1 X0.7052 Y-0.8012 F10.0000
G1 X0.6964 Y-0.8039 F10.0000
G1 X0.6838 Y-0.8105 F10.0000
G1 X0.6838 Y-0.8105 F10.0000
G1 X0.6518 Y-0.8388 F10.0000
G1 X0.6395 Y-0.8541 F10.0000
G1 X0.6344 Y-0.8647 F10.0000
G1 X0.6277 Y-0.9016 F10.0000
G1 X0.6275 Y-0.9053 F10.0000
G1 X0.6302 Y-0.9365 F10.0000
G1 X0.6344 Y-0.9606 F10.0000
G1 X0.6393 Y-0.9806 F10.0000
G1 X0.6459 Y-1.0025 F10.0000
G1 X0.6570 Y-1.0313 F10.0000
G1 X0.6698 Y-1.0581 F10.0000
G1 X0.6831 Y-1.0822 F10.0000
G1 X0.6988 Y-1.1065 F10.0000
G1 X0.7160 Y-1.1294 F10.0000
G1 X0.7345 Y-1.1508 F10.0000
G1 X0.7539 Y-1.1722 F10.0000
G1 X0.7768 Y-1.1937 F10.0000
G1 X0.8002 Y-1.2146 F10.0000
G1 X0.8248 Y-1.2340 F10.0000
G1 X0.8499 Y-1.2527 F10.0000
G1 X0.8757 Y-1.2702 F10.0000
G1 X0.9023 Y-1.2867 F10.0000
G1 X0.9296 Y-1.3022 F10.0000
G1 X0.9577 Y-1.3164 F10.0000
G1 X0.9862 Y-1.3295 F10.0000
G1 X1.0153 Y-1.3413 F10.0000
G1 X1.0448 Y-1.3519 F10.0000
G1 X1.0748 Y-1.3612 F10.0000
G1 X1.1051 Y-1.3693 F10.0000
G1 X1.1663 Y-1.3829 F10.0000
G1 X1.1973 Y-1.3878 F10.0000
G1 X1.2283 Y-1.3917 F10.0000
G1 X1.2596 Y-1.3949 F10.0000
G1 X1.3221 Y-1.3949 F10.0000
G1 X1.3533 Y-1.3932 F10.0000
G1 X1.3846 Y-1.3895 F10.0000
G1 X1.4154 Y-1.3829 F10.0000
G1 X1.4400 Y-1.3767 F10.0000
G1 X1.4692 Y-1.3656 F10.0000
G1 X1.4899 Y-1.3563 F10.0000
G1 X1.5150 Y-1.3378 F10.0000
G1 X1.5217 Y-1.3280 F10.0000
G1 X1.5234 Y-1.3243 F10.0000
G1 X1.5236 Y-1.2495 F10.0000
G1 X1.5236 Y-1.2495 F10.0000
G1 X1.5212 Y-1.2350 F10.0000
G1 X1.5177 Y-1.2261 F10.0000
G1 X1.5125 Y-1.2183 F10.0000
G0 X1.5094 Y-1.2151
G0 X1.4934 Y-1.2057
G0 X0.7052 Y-0.8499
G1 X0.6981 Y-0.8467 F10.0000
G1 X0.6816 Y-0.8398 F10.0000
G1 X0.6715 Y-0.8378 F10.0000
G1 X0.6619 Y-0.8378 F10.0000
G1 X0.6528 Y-0.8401 F10.0000
G1 X0.6398 Y-0.8455 F10.0000
G1 X0.6398 Y-0.8455 F10.0000
G1 X0.6058 Y-0.8730 F10.0000
G1 X0.5928 Y-0.8875 F10.0000
G1 X0.5869 Y-0.8976 F10.0000
G1 X0.5785 Y-0.9309 F10.0000
G1 X0.5775 Y-0.9382 F10.0000
G1 X0.5775 Y-0.9695 F10.0000
G1 X0.5810 Y-1.0007 F10.0000
G1 X0.5898 Y-1.0381 F10.0000
G1 X0.5979 Y-1.0635 F10.0000
G1 X0.6097 Y-1.0925 F10.0000
G1 X0.6233 Y-1.1208 F10.0000
G1 X0.6380 Y-1.1471 F10.0000
G1 X0.6550 Y-1.1735 F10.0000
G1 X0.6735 Y-1.1983 F10.0000
G1 X0.6934 Y-1.2219 F10.0000
G1 X0.7151 Y-1.2443 F10.0000
G1 X0.7377 Y-1.2653 F10.0000
G1 X0.7611 Y-1.2854 F10.0000
G1 X0.7854 Y-1.3051 F10.0000
G1 X0.8110 Y-1.3231 F10.0000
G1 X0.8374 Y-1.3403 F10.0000
G1 X0.8915 Y-1.3720 F10.0000
G1 X0.9193 Y-1.3863 F10.0000
G1 X0.9476 Y-1.3996 F10.0000
G1 X0.9761 Y-1.4122 F10.0000
G1 X1.0054 Y-1.4235 F10.0000
G1 X1.0349 Y-1.4341 F10.0000
G1 X1.0647 Y-1.4437 F10.0000
G1 X1.0950 Y-1.4520 F10.0000
G1 X1.1255 Y-1.4594 F10.0000
G1 X1.1562 Y-1.4658 F10.0000
G1 X1.2185 Y-1.4732 F10.0000
G1 X1.2498 Y-1.4751 F10.0000
G1 X1.2810 Y-1.4754 F10.0000
G1 X1.3123 Y-1.4744 F10.0000
G1 X1.3435 Y-1.4719 F10.0000
G1 X1.3748 Y-1.4680 F10.0000
G1 X1.4058 Y-1.4628 F10.0000
G1 X1.4365 Y-1.4562 F10.0000
G1 X1.4660 Y-1.4454 F10.0000
G1 X1.4948 Y-1.4304 F10.0000
G1 X1.5135 Y-1.4161 F10.0000
G1 X1.5185 Y-1.4099 F10.0000
G1 X1.5236 Y-1.3994 F10.0000
G1 X1.5236 Y-1.3324 F10.0000
G1 X1.5236 Y-1.3324 F10.0000
G1 X1.5212 Y-1.3179 F10.0000
G1 X1.5177 Y-1.3091 F10.0000
G1 X1.5125 Y-1.3012 F10.0000
G0 X1.5094 Y-1.2980
G0 X1.4934 Y-1.2884
G0 X0.6594 Y-0.8841
G1 X0.6523 Y-0.8807 F10.0000
G1 X0.6356 Y-0.8733 F10.0000
G1 X0.6257 Y-0.8708 F10.0000
G1 X0.6161 Y-0.8711 F10.0000
G1 X0.6070 Y-0.8730 F10.0000
G1 X0.5942 Y-0.8787 F10.0000
G1 X0.5942 Y-0.8787 F10.0000
G1 X0.5556 Y-0.9065 F10.0000
G1 X0.5421 Y-0.9205 F10.0000
G1 X0.5362 Y-0.9306 F10.0000
G1 X0.5256 Y-0.9675 F10.0000
G1 X0.5241 Y-0.9988 F10.0000
G1 X0.5261 Y-1.0300 F10.0000
G1 X0.5290 Y-1.0524 F10.0000
G1 X0.5335 Y-1.0736 F10.0000
G1 X0.5396 Y-1.0972 F10.0000
G1 X0.5495 Y-1.1270 F10.0000
G1 X0.5615 Y-1.1560 F10.0000
G1 X0.5743 Y-1.1828 F10.0000
G1 X0.5896 Y-1.2101 F10.0000
G1 X0.6065 Y-1.2365 F10.0000
G1 X0.6260 Y-1.2608 F10.0000
G1 X0.6612 Y-1.3000 F10.0000
G1 X0.6833 Y-1.3221 F10.0000
G1 X0.7067 Y-1.3428 F10.0000
G1 X0.7308 Y-1.3627 F10.0000
G1 X0.7559 Y-1.3816 F10.0000
G1 X0.7817 Y-1.3994 F10.0000
G1 X0.8349 Y-1.4328 F10.0000
G1 X0.8625 Y-1.4478 F10.0000
G1 X0.8903 Y-1.4621 F10.0000
G1 X0.9186 Y-1.4756 F10.0000
G1 X1.0153 Y-1.5123 F10.0000
G1 X1.0780 Y-1.5231 F10.0000
G1 X1.4213 Y-1.5212 F10.0000
G1 X1.4619 Y-1.5133 F10.0000
G1 X1.4936 Y-1.4995 F10.0000
G1 X1.5133 Y-1.4865 F10.0000
G1 X1.5162 Y-1.4838 F10.0000
G1 X1.5224 Y-1.4737 F10.0000
G1 X1.5236 Y-1.4697 F10.0000
G1 X1.5236 Y-1.4067 F10.0000
G1 X1.5236 Y-1.4067 F10.0000
G1 X1.5212 Y-1.3922 F10.0000
G1 X1.5177 Y-1.3834 F10.0000
G1 X1.5125 Y-1.3755 F10.0000
G0 X1.5094 Y-1.3723
G0 X1.4936 Y-1.3622
G0 X0.6127 Y-0.9176
G1 X0.6056 Y-0.9139 F10.0000
G1 X0.5891 Y-0.9063 F10.0000
G1 X0.5790 Y-0.9033 F10.0000
G1 X0.5694 Y-0.9028 F10.0000
G1 X0.5600 Y-0.9040 F10.0000
G1 X0.5468 Y-0.9087 F10.0000
G1 X0.5468 Y-0.9087 F10.0000
G1 X0.5096 Y-0.9321 F10.0000
G1 X0.4946 Y-0.9449 F10.0000
G1 X0.4872 Y-0.9540 F10.0000
G1 X0.4744 Y-0.9862 F10.0000
G1 X0.4724 Y-0.9936 F10.0000
G1 X0.4692 Y-1.0249 F10.0000
G1 X0.4690 Y-1.0522 F10.0000
G1 X0.4695 Y-1.0728 F10.0000
G1 X0.4732 Y-1.1024 F10.0000
G1 X0.4783 Y-1.1272 F10.0000
G1 X0.4850 Y-1.1513 F10.0000
G1 X0.4931 Y-1.1764 F10.0000
G1 X0.5054 Y-1.2052 F10.0000
G1 X0.5180 Y-1.2301 F10.0000
G1 X0.5325 Y-1.2549 F10.0000
G1 X0.5482 Y-1.2803 F10.0000
G1 X0.5667 Y-1.3056 F10.0000
G1 X0.5866 Y-1.3300 F10.0000
G1 X0.6075 Y-1.3533 F10.0000
G1 X0.6289 Y-1.3762 F10.0000
G1 X0.6518 Y-1.3976 F10.0000
G1 X0.6754 Y-1.4181 F10.0000
G1 X0.7247 Y-1.4567 F10.0000
G1 X0.7505 Y-1.4744 F10.0000
G1 X0.8120 Y-1.5130 F10.0000
G1 X0.8408 Y-1.5224 F10.0000
G1 X1.0217 Y-1.5234 F10.0000
G1 X1.0217 Y-1.5234 F10.0000
G1 X1.0354 Y-1.5209 F10.0000
G1 X1.0440 Y-1.5175 F10.0000
G1 X1.0477 Y-1.5153 F10.0000
G1 X1.0502 Y-1.5125 F10.0000
G0 X1.0509 Y-1.5096
G0 X1.0504 Y-1.5064
G0 X1.0463 Y-1.4998
G0 X0.5556 Y-0.9567
G1 X0.5507 Y-0.9513 F10.0000
G1 X0.5423 Y-0.9424 F10.0000
G1 X0.5384 Y-0.9390 F10.0000
G1 X0.5340 Y-0.9360 F10.0000
G1 X0.5295 Y-0.9343 F10.0000
G1 X0.5204 Y-0.9326 F10.0000
G1 X0.5111 Y-0.9331 F10.0000
G1 X0.4975 Y-0.9365 F10.0000
G1 X0.4975 Y-0.9365 F10.0000
G1 X0.4498 Y-0.9646 F10.0000
G1 X0.4355 Y-0.9779 F10.0000
G1 X0.4262 Y-0.9948 F10.0000
G1 X0.4166 Y-1.0204 F10.0000
G1 X0.4117 Y-1.0514 F10.0000
G1 X0.4102 Y-1.0805 F10.0000
G1 X0.4104 Y-1.1004 F10.0000
G1 X0.4119 Y-1.1230 F10.0000
G1 X0.4161 Y-1.1523 F10.0000
G1 X0.4225 Y-1.1813 F10.0000
G1 X0.4299 Y-1.2072 F10.0000
G1 X0.4397 Y-1.2340 F10.0000
G1 X0.4513 Y-1.2598 F10.0000
G1 X0.4643 Y-1.2844 F10.0000
G1 X0.4783 Y-1.3091 F10.0000
G1 X0.4948 Y-1.3356 F10.0000
G1 X0.5130 Y-1.3610 F10.0000
G1 X0.5322 Y-1.3858 F10.0000
G1 X0.5527 Y-1.4097 F10.0000
G1 X0.5743 Y-1.4323 F10.0000
G1 X0.6198 Y-1.4754 F10.0000
G1 X0.6671 Y-1.5145 F10.0000
G1 X0.6806 Y-1.5212 F10.0000
G1 X0.6880 Y-1.5234 F10.0000
G1 X0.7876 Y-1.5234 F10.0000
G1 X0.7876 Y-1.5234 F10.0000
G1 X0.8014 Y-1.5209 F10.0000
G1 X0.8103 Y-1.5175 F10.0000
G1 X0.8137 Y-1.5153 F10.0000
G1 X0.8164 Y-1.5123 F10.0000
G0 X0.8174 Y-1.5091
G0 X0.8174 Y-1.5057
G0 X0.8145 Y-1.4980
G0 X0.5002 Y-0.9855
G1 X0.4968 Y-0.9796 F10.0000
G1 X0.4902 Y-0.9695 F10.0000
G1 X0.4870 Y-0.9656 F10.0000
G1 X0.4830 Y-0.9624 F10.0000
G1 X0.4791 Y-0.9601 F10.0000
G1 X0.4747 Y-0.9589 F10.0000
G1 X0.4656 Y-0.9579 F10.0000
G1 X0.4473 Y-0.9619 F10.0000
G1 X0.4473 Y-0.9619 F10.0000
G1 X0.4040 Y-0.9823 F10.0000
G1 X0.3875 Y-0.9941 F10.0000
G1 X0.3794 Y-1.0027 F10.0000
G1 X0.3664 Y-1.0268 F10.0000
G1 X0.3605 Y-1.0413 F10.0000
G1 X0.3531 Y-1.0719 F10.0000
G1 X0.3492 Y-1.1031 F10.0000
G1 X0.3487 Y-1.1228 F10.0000
G1 X0.3489 Y-1.1412 F10.0000
G1 X0.3509 Y-1.1686 F10.0000
G1 X0.3565 Y-1.1993 F10.0000
G1 X0.3622 Y-1.2237 F10.0000
G1 X0.3706 Y-1.2505 F10.0000
G1 X0.3799 Y-1.2773 F10.0000
G1 X0.3925 Y-1.3061 F10.0000
G1 X0.4067 Y-1.3342 F10.0000
G1 X0.4222 Y-1.3615 F10.0000
G1 X0.4385 Y-1.3883 F10.0000
G1 X0.4564 Y-1.4139 F10.0000
G1 X0.4756 Y-1.4387 F10.0000
G1 X0.4958 Y-1.4626 F10.0000
G1 X0.5426 Y-1.5130 F10.0000
G1 X0.5487 Y-1.5175 F10.0000
G1 X0.5591 Y-1.5224 F10.0000
G1 X0.5627 Y-1.5234 F10.0000
G1 X0.6255 Y-1.5234 F10.0000
G1 X0.6255 Y-1.5234 F10.0000
G1 X0.6393 Y-1.5209 F10.0000
G1 X0.6481 Y-1.5175 F10.0000
G1 X0.6518 Y-1.5153 F10.0000
G1 X0.6543 Y-1.5123 F10.0000
G0 X0.6558 Y-1.5089
G0 X0.6560 Y-1.5052
G0 X0.6538 Y-1.4970
G0 X0.4365 Y-1.0167
G1 X0.4338 Y-1.0108 F10.0000
G1 X0.4286 Y-1.0002 F10.0000
G1 X0.4257 Y-0.9958 F10.0000
G1 X0.4225 Y-0.9924 F10.0000
G1 X0.4186 Y-0.9897 F10.0000
G1 X0.4144 Y-0.9877 F10.0000
G1 X0.4055 Y-0.9860 F10.0000
G1 X0.3868 Y-0.9875 F10.0000
G1 X0.3868 Y-0.9875 F10.0000
G1 X0.3467 Y-1.0044 F10.0000
G1 X0.3300 Y-1.0153 F10.0000
G1 X0.3241 Y-1.0204 F10.0000
G1 X0.3093 Y-1.0433 F10.0000
G1 X0.3009 Y-1.0605 F10.0000
G1 X0.2921 Y-1.0908 F10.0000
G1 X0.2869 Y-1.1218 F10.0000
G1 X0.2852 Y-1.1604 F10.0000
G1 X0.2862 Y-1.1877 F10.0000
G1 X0.2896 Y-1.2190 F10.0000
G1 X0.2948 Y-1.2493 F10.0000
G1 X0.3017 Y-1.2783 F10.0000
G1 X0.3108 Y-1.3078 F10.0000
G1 X0.3216 Y-1.3361 F10.0000
G1 X0.3342 Y-1.3637 F10.0000
G1 X0.3487 Y-1.3907 F10.0000
G1 X0.3639 Y-1.4173 F10.0000
G1 X0.3807 Y-1.4439 F10.0000
G1 X0.3989 Y-1.4692 F10.0000
G1 X0.4350 Y-1.5143 F10.0000
G1 X0.4412 Y-1.5187 F10.0000
G1 X0.4515 Y-1.5234 F10.0000
G1 X0.4995 Y-1.5234 F10.0000
G1 X0.4995 Y-1.5234 F10.0000
G1 X0.5133 Y-1.5209 F10.0000
G1 X0.5221 Y-1.5175 F10.0000
G1 X0.5258 Y-1.5153 F10.0000
G1 X0.5285 Y-1.5123 F10.0000
G0 X0.5303 Y-1.5089
G0 X0.5305 Y-1.5049
G0 X0.5283 Y-1.4921
G0 X0.3802 Y-1.0379
G1 X0.3782 Y-1.0317 F10.0000
G1 X0.3743 Y-1.0209 F10.0000
G1 X0.3718 Y-1.0162 F10.0000
G1 X0.3688 Y-1.0125 F10.0000
G1 X0.3654 Y-1.0098 F10.0000
G1 X0.3612 Y-1.0076 F10.0000
G1 X0.3524 Y-1.0057 F10.0000
G1 X0.3433 Y-1.0057 F10.0000
G1 X0.3339 Y-1.0069 F10.0000
G1 X0.3339 Y-1.0069 F10.0000
G1 X0.2960 Y-1.0199 F10.0000
G1 X0.2783 Y-1.0293 F10.0000
G1 X0.2689 Y-1.0362 F10.0000
G1 X0.2520 Y-1.0578 F10.0000
G1 X0.2424 Y-1.0748 F10.0000
G1 X0.2325 Y-1.1046 F10.0000
G1 X0.2264 Y-1.1326 F10.0000
G1 X0.2229 Y-1.1535 F10.0000
G1 X0.2212 Y-1.1772 F10.0000
G1 X0.2202 Y-1.2013 F10.0000
G1 X0.2222 Y-1.2325 F10.0000
G1 X0.2256 Y-1.2591 F10.0000
G1 X0.2308 Y-1.2867 F10.0000
G1 X0.2375 Y-1.3152 F10.0000
G1 X0.2468 Y-1.3452 F10.0000
G1 X0.2576 Y-1.3743 F10.0000
G1 X0.2702 Y-1.4031 F10.0000
G1 X0.2837 Y-1.4313 F10.0000
G1 X0.2990 Y-1.4587 F10.0000
G1 X0.3349 Y-1.5130 F10.0000
G1 X0.3374 Y-1.5157 F10.0000
G1 X0.3504 Y-1.5234 F10.0000
G1 X0.3910 Y-1.5234 F10.0000
G1 X0.3910 Y-1.5234 F10.0000
G1 X0.4048 Y-1.5209 F10.0000
G1 X0.4136 Y-1.5175 F10.0000
G1 X0.4173 Y-1.5153 F10.0000
G1 X0.4203 Y-1.5123 F10.0000
G0 X0.4220 Y-1.5086
G0 X0.4227 Y-1.5049
G0 X0.4215 Y-1.4916
G0 X0.3233 Y-1.0561
G1 X0.3221 Y-1.0500 F10.0000
G1 X0.3191 Y-1.0386 F10.0000
G1 X0.3172 Y-1.0340 F10.0000
G1 X0.3145 Y-1.0300 F10.0000
G1 X0.3113 Y-1.0271 F10.0000
G1 X0.3073 Y-1.0249 F10.0000
G1 X0.2985 Y-1.0224 F10.0000
G1 X0.2800 Y-1.0229 F10.0000
G1 X0.2800 Y-1.0229 F10.0000
G1 X0.2372 Y-1.0354 F10.0000
G1 X0.2190 Y-1.0440 F10.0000
G1 X0.2094 Y-1.0509 F10.0000
G1 X0.1966 Y-1.0657 F10.0000
G1 X0.1838 Y-1.0851 F10.0000
G1 X0.1722 Y-1.1144 F10.0000
G1 X0.1651 Y-1.1398 F10.0000
G1 X0.1607 Y-1.1599 F10.0000
G1 X0.1570 Y-1.1826 F10.0000
G1 X0.1543 Y-1.2133 F10.0000
G1 X0.1538 Y-1.2429 F10.0000
G1 X0.1550 Y-1.2702 F10.0000
G1 X0.1585 Y-1.2995 F10.0000
G1 X0.1639 Y-1.3275 F10.0000
G1 X0.1710 Y-1.3551 F10.0000
G1 X0.1794 Y-1.3826 F10.0000
G1 X0.2025 Y-1.4407 F10.0000
G1 X0.2163 Y-1.4690 F10.0000
G1 X0.2379 Y-1.5059 F10.0000
G1 X0.2446 Y-1.5148 F10.0000
G1 X0.2539 Y-1.5214 F10.0000
G1 X0.2574 Y-1.5231 F10.0000
G1 X0.2869 Y-1.5234 F10.0000
G1 X0.2869 Y-1.5234 F10.0000
G1 X0.3007 Y-1.5209 F10.0000
G1 X0.3095 Y-1.5175 F10.0000
G1 X0.3132 Y-1.5153 F10.0000
G1 X0.3162 Y-1.5121 F10.0000
G0 X0.3182 Y-1.5086
G0 X0.3191 Y-1.5047
G0 X0.3191 Y-1.4914
G0 X0.2655 Y-1.0709
G1 X0.2648 Y-1.0647 F10.0000
G1 X0.2628 Y-1.0534 F10.0000
G1 X0.2613 Y-1.0485 F10.0000
G1 X0.2589 Y-1.0445 F10.0000
G1 X0.2559 Y-1.0413 F10.0000
G1 X0.2522 Y-1.0389 F10.0000
G1 X0.2436 Y-1.0362 F10.0000
G1 X0.2343 Y-1.0357 F10.0000
G1 X0.2251 Y-1.0364 F10.0000
G1 X0.2251 Y-1.0364 F10.0000
G1 X0.1779 Y-1.0475 F10.0000
G1 X0.1597 Y-1.0554 F10.0000
G1 X0.1501 Y-1.0620 F10.0000
G1 X0.1309 Y-1.0871 F10.0000
G1 X0.1270 Y-1.0940 F10.0000
G1 X0.1132 Y-1.1223 F10.0000
G1 X0.1026 Y-1.1518 F10.0000
G1 X0.0952 Y-1.1823 F10.0000
G1 X0.0915 Y-1.2032 F10.0000
G1 X0.0876 Y-1.2500 F10.0000
G1 X0.0874 Y-1.2813 F10.0000
G1 X0.0896 Y-1.3125 F10.0000
G1 X0.0942 Y-1.3435 F10.0000
G1 X0.0992 Y-1.3684 F10.0000
G1 X0.1075 Y-1.3984 F10.0000
G1 X0.1161 Y-1.4264 F10.0000
G1 X0.1275 Y-1.4557 F10.0000
G1 X0.1405 Y-1.4843 F10.0000
G1 X0.1594 Y-1.5140 F10.0000
G1 X0.1651 Y-1.5189 F10.0000
G1 X0.1718 Y-1.5226 F10.0000
G1 X0.1754 Y-1.5234 F10.0000
G1 X0.1976 Y-1.5234 F10.0000
G1 X0.1976 Y-1.5234 F10.0000
G1 X0.2114 Y-1.5209 F10.0000
G1 X0.2202 Y-1.5175 F10.0000
G1 X0.2239 Y-1.5150 F10.0000
G1 X0.2271 Y-1.5121 F10.0000
G0 X0.2291 Y-1.5086
G0 X0.2303 Y-1.5047
G0 X0.2311 Y-1.4911
G0 X0.2077 Y-1.0856
G1 X0.2074 Y-1.0792 F10.0000
G1 X0.2064 Y-1.0679 F10.0000
G1 X0.2052 Y-1.0630 F10.0000
G1 X0.2030 Y-1.0588 F10.0000
G1 X0.2003 Y-1.0554 F10.0000
G1 X0.1966 Y-1.0527 F10.0000
G1 X0.1885 Y-1.0490 F10.0000
G1 X0.1700 Y-1.0468 F10.0000
G1 X0.1700 Y-1.0468 F10.0000
G1 X0.1267 Y-1.0546 F10.0000
G1 X0.1080 Y-1.0615 F10.0000
G1 X0.0979 Y-1.0677 F10.0000
G1 X0.0773 Y-1.0910 F10.0000
G1 X0.0728 Y-1.0974 F10.0000
G1 X0.0568 Y-1.1245 F10.0000
G1 X0.0438 Y-1.1531 F10.0000
G1 X0.0342 Y-1.1831 F10.0000
G1 X0.0295 Y-1.2020 F10.0000
G1 X0.0253 Y-1.2229 F10.0000
G1 X0.0209 Y-1.2539 F10.0000
G1 X0.0192 Y-1.2852 F10.0000
G1 X0.0189 Y-1.3130 F10.0000
G1 X0.0209 Y-1.3440 F10.0000
G1 X0.0251 Y-1.3748 F10.0000
G1 X0.0308 Y-1.4043 F10.0000
G1 X0.0386 Y-1.4341 F10.0000
G1 X0.0482 Y-1.4631 F10.0000
G1 X0.0637 Y-1.4936 F10.0000
G1 X0.0800 Y-1.5150 F10.0000
G1 X0.0930 Y-1.5226 F10.0000
G1 X0.0967 Y-1.5234 F10.0000
G1 X0.1115 Y-1.5234 F10.0000
G1 X0.1115 Y-1.5234 F10.0000
G1 X0.1252 Y-1.5209 F10.0000
G1 X0.1341 Y-1.5175 F10.0000
G1 X0.1378 Y-1.5153 F10.0000
G1 X0.1410 Y-1.5121 F10.0000
G0 X0.1432 Y-1.5086
G0 X0.1454 Y-1.5005
G0 X0.1464 Y-1.4823
G0 X0.1496 Y-1.0930
G1 X0.1499 Y-1.0866 F10.0000
G1 X0.1494 Y-1.0753 F10.0000
G1 X0.1486 Y-1.0701 F10.0000
G1 X0.1469 Y-1.0659 F10.0000
G1 X0.1442 Y-1.0625 F10.0000
G1 X0.1407 Y-1.0598 F10.0000
G1 X0.1326 Y-1.0561 F10.0000
G1 X0.1235 Y-1.0546 F10.0000
G1 X0.1142 Y-1.0544 F10.0000
G1 X0.1142 Y-1.0544 F10.0000
G1 X0.0709 Y-1.0600 F10.0000
G1 X0.0517 Y-1.0664 F10.0000
G1 X0.0445 Y-1.0701 F10.0000
G1 X0.0273 Y-1.0864 F10.0000
G1 X0.0150 Y-1.1014 F10.0000
G1 X-0.0030 Y-1.1270 F10.0000
G1 X-0.0177 Y-1.1545 F10.0000
G1 X-0.0285 Y-1.1809 F10.0000
G1 X-0.0349 Y-1.2013 F10.0000
G1 X-0.0401 Y-1.2205 F10.0000
G1 X-0.0458 Y-1.2493 F10.0000
G1 X-0.0490 Y-1.2805 F10.0000
G1 X-0.0502 Y-1.3063 F10.0000
G1 X-0.0497 Y-1.3351 F10.0000
G1 X-0.0482 Y-1.3639 F10.0000
G1 X-0.0443 Y-1.3949 F10.0000
G1 X-0.0384 Y-1.4257 F10.0000
G1 X-0.0290 Y-1.4557 F10.0000
G1 X-0.0217 Y-1.4764 F10.0000
G1 X-0.0084 Y-1.5010 F10.0000
G1 X0.0039 Y-1.5157 F10.0000
G1 X0.0135 Y-1.5217 F10.0000
G1 X0.0170 Y-1.5231 F10.0000
G1 X0.0281 Y-1.5234 F10.0000
G1 X0.0281 Y-1.5234 F10.0000
G1 X0.0418 Y-1.5209 F10.0000
G1 X0.0507 Y-1.5175 F10.0000
G1 X0.0544 Y-1.5150 F10.0000
G1 X0.0576 Y-1.5121 F10.0000
G0 X0.0600 Y-1.5086
G0 X0.0627 Y-1.5002
G0 X0.0647 Y-1.4823
G0 X0.0910 Y-1.1001
G1 X0.0915 Y-1.0938 F10.0000
G1 X0.0915 Y-1.0822 F10.0000
G1 X0.0903 Y-1.0768 F10.0000
G1 X0.0881 Y-1.0719 F10.0000
G1 X0.0846 Y-1.0679 F10.0000
G1 X0.0807 Y-1.0650 F10.0000
G1 X0.0765 Y-1.0627 F10.0000
G1 X0.0674 Y-1.0600 F10.0000
G1 X0.0581 Y-1.0591 F10.0000
G1 X0.0581 Y-1.0591 F10.0000
G1 X0.0226 Y-1.0615 F10.0000
G1 X-0.0007 Y-1.0667 F10.0000
G1 X-0.0113 Y-1.0709 F10.0000
G1 X-0.0317 Y-1.0871 F10.0000
G1 X-0.0450 Y-1.1006 F10.0000
G1 X-0.0637 Y-1.1257 F10.0000
G1 X-0.0800 Y-1.1526 F10.0000
G1 X-0.0901 Y-1.1745 F10.0000
G1 X-0.0967 Y-1.1914 F10.0000
G1 X-0.1043 Y-1.2143 F10.0000
G1 X-0.1122 Y-1.2443 F10.0000
G1 X-0.1179 Y-1.2751 F10.0000
G1 X-0.1213 Y-1.3034 F10.0000
G1 X-0.1230 Y-1.3337 F10.0000
G1 X-0.1216 Y-1.3637 F10.0000
G1 X-0.1193 Y-1.3866 F10.0000
G1 X-0.1144 Y-1.4136 F10.0000
G1 X-0.1085 Y-1.4395 F10.0000
G1 X-0.0992 Y-1.4695 F10.0000
G1 X-0.0864 Y-1.4958 F10.0000
G1 X-0.0723 Y-1.5145 F10.0000
G1 X-0.0625 Y-1.5212 F10.0000
G1 X-0.0588 Y-1.5229 F10.0000
G1 X-0.0470 Y-1.5234 F10.0000
G1 X-0.0470 Y-1.5234 F10.0000
G1 X-0.0325 Y-1.5209 F10.0000
G1 X-0.0236 Y-1.5175 F10.0000
G1 X-0.0197 Y-1.5153 F10.0000
G1 X-0.0162 Y-1.5121 F10.0000
G0 X-0.0138 Y-1.5086
G0 X-0.0106 Y-1.5005
G0 X-0.0081 Y-1.4825
G0 X0.0325 Y-1.1043
G1 X0.0332 Y-1.0982 F10.0000
G1 X0.0340 Y-1.0869 F10.0000
G1 X0.0337 Y-1.0819 F10.0000
G1 X0.0325 Y-1.0773 F10.0000
G1 X0.0303 Y-1.0736 F10.0000
G1 X0.0271 Y-1.0704 F10.0000
G1 X0.0194 Y-1.0657 F10.0000
G1 X0.0017 Y-1.0608 F10.0000
G1 X0.0017 Y-1.0608 F10.0000
G1 X-0.0389 Y-1.0613 F10.0000
G1 X-0.0610 Y-1.0652 F10.0000
G1 X-0.0716 Y-1.0694 F10.0000
G1 X-0.0982 Y-1.0901 F10.0000
G1 X-0.1036 Y-1.0955 F10.0000
G1 X-0.1238 Y-1.1193 F10.0000
G1 X-0.1407 Y-1.1457 F10.0000
G1 X-0.1503 Y-1.1631 F10.0000
G1 X-0.1594 Y-1.1826 F10.0000
G1 X-0.1688 Y-1.2052 F10.0000
G1 X-0.1789 Y-1.2350 F10.0000
G1 X-0.1868 Y-1.2653 F10.0000
G1 X-0.1909 Y-1.2948 F10.0000
G1 X-0.1929 Y-1.3159 F10.0000
G1 X-0.1932 Y-1.3430 F10.0000
G1 X-0.1924 Y-1.3684 F10.0000
G1 X-0.1890 Y-1.3996 F10.0000
G1 X-0.1838 Y-1.4284 F10.0000
G1 X-0.1757 Y-1.4572 F10.0000
G1 X-0.1683 Y-1.4788 F10.0000
G1 X-0.1558 Y-1.5027 F10.0000
G1 X-0.1462 Y-1.5150 F10.0000
G1 X-0.1361 Y-1.5214 F10.0000
G1 X-0.1324 Y-1.5231 F10.0000
G1 X-0.1206 Y-1.5234 F10.0000
G1 X-0.1206 Y-1.5234 F10.0000
G1 X-0.1061 Y-1.5209 F10.0000
G1 X-0.0972 Y-1.5175 F10.0000
G1 X-0.0930 Y-1.5153 F10.0000
G1 X-0.0898 Y-1.5123 F10.0000
G0 X-0.0871 Y-1.5086
G0 X-0.0839 Y-1.5005
G0 X-0.0805 Y-1.4828
G0 X-0.0236 Y-1.1029
G1 X-0.0226 Y-1.0967 F10.0000
G1 X-0.0214 Y-1.0854 F10.0000
G1 X-0.0217 Y-1.0802 F10.0000
G1 X-0.0229 Y-1.0758 F10.0000
G1 X-0.0251 Y-1.0719 F10.0000
G1 X-0.0281 Y-1.0687 F10.0000
G1 X-0.0357 Y-1.0640 F10.0000
G1 X-0.0448 Y-1.0610 F10.0000
G1 X-0.0544 Y-1.0593 F10.0000
G1 X-0.0544 Y-1.0593 F10.0000
G1 X-0.1024 Y-1.0581 F10.0000
G1 X-0.1245 Y-1.0623 F10.0000
G1 X-0.1442 Y-1.0736 F10.0000
G1 X-0.1644 Y-1.0908 F10.0000
G1 X-0.1853 Y-1.1142 F10.0000
G1 X-0.2042 Y-1.1390 F10.0000
G1 X-0.2175 Y-1.1619 F10.0000
G1 X-0.2264 Y-1.1789 F10.0000
G1 X-0.2367 Y-1.2018 F10.0000
G1 X-0.2468 Y-1.2298 F10.0000
G1 X-0.2549 Y-1.2586 F10.0000
G1 X-0.2596 Y-1.2864 F10.0000
G1 X-0.2621 Y-1.3083 F10.0000
G1 X-0.2640 Y-1.3344 F10.0000
G1 X-0.2633 Y-1.3656 F10.0000
G1 X-0.2611 Y-1.3925 F10.0000
G1 X-0.2569 Y-1.4210 F10.0000
G1 X-0.2502 Y-1.4503 F10.0000
G1 X-0.2409 Y-1.4774 F10.0000
G1 X-0.2298 Y-1.4993 F10.0000
G1 X-0.2175 Y-1.5148 F10.0000
G1 X-0.2074 Y-1.5214 F10.0000
G1 X-0.2037 Y-1.5231 F10.0000
G1 X-0.1959 Y-1.5234 F10.0000
G1 X-0.1959 Y-1.5234 F10.0000
G1 X-0.1813 Y-1.5209 F10.0000
G1 X-0.1725 Y-1.5175 F10.0000
G1 X-0.1683 Y-1.5153 F10.0000
G1 X-0.1649 Y-1.5123 F10.0000
G0 X-0.1622 Y-1.5086
G0 X-0.1587 Y-1.5005
G0 X-0.1548 Y-1.4825
G0 X-0.0822 Y-1.1011
G1 X-0.0812 Y-1.0950 F10.0000
G1 X-0.0795 Y-1.0839 F10.0000
G1 X-0.0795 Y-1.0787 F10.0000
G1 X-0.0805 Y-1.0741 F10.0000
G1 X-0.0824 Y-1.0701 F10.0000
G1 X-0.0851 Y-1.0667 F10.0000
G1 X-0.0925 Y-1.0613 F10.0000
G1 X-0.1011 Y-1.0573 F10.0000
G1 X-0.1105 Y-1.0549 F10.0000
G1 X-0.1105 Y-1.0549 F10.0000
G1 X-0.1585 Y-1.0509 F10.0000
G1 X-0.1806 Y-1.0539 F10.0000
G1 X-0.1976 Y-1.0618 F10.0000
G1 X-0.2224 Y-1.0790 F10.0000
G1 X-0.2446 Y-1.1011 F10.0000
G1 X-0.2608 Y-1.1211 F10.0000
G1 X-0.2724 Y-1.1371 F10.0000
G1 X-0.2849 Y-1.1572 F10.0000
G1 X-0.2975 Y-1.1826 F10.0000
G1 X-0.3066 Y-1.2042 F10.0000
G1 X-0.3152 Y-1.2276 F10.0000
G1 X-0.3231 Y-1.2579 F10.0000
G1 X-0.3280 Y-1.2840 F10.0000
G1 X-0.3314 Y-1.3113 F10.0000
G1 X-0.3339 Y-1.3396 F10.0000
G1 X-0.3339 Y-1.3708 F10.0000
G1 X-0.3322 Y-1.4011 F10.0000
G1 X-0.3268 Y-1.4321 F10.0000
G1 X-0.3221 Y-1.4525 F10.0000
G1 X-0.3130 Y-1.4776 F10.0000
G1 X-0.3049 Y-1.4956 F10.0000
G1 X-0.2904 Y-1.5143 F10.0000
G1 X-0.2803 Y-1.5209 F10.0000
G1 X-0.2766 Y-1.5226 F10.0000
G1 X-0.2726 Y-1.5234 F10.0000
G1 X-0.2687 Y-1.5234 F10.0000
G1 X-0.2687 Y-1.5234 F10.0000
G1 X-0.2542 Y-1.5209 F10.0000
G1 X-0.2453 Y-1.5175 F10.0000
G1 X-0.2411 Y-1.5153 F10.0000
G1 X-0.2377 Y-1.5123 F10.0000
G0 X-0.2350 Y-1.5086
G0 X-0.2313 Y-1.5005
G0 X-0.2266 Y-1.4828
G0 X-0.1405 Y-1.0962
G1 X-0.1393 Y-1.0901 F10.0000
G1 X-0.1371 Y-1.0787 F10.0000
G1 X-0.1368 Y-1.0736 F10.0000
G1 X-0.1378 Y-1.0689 F10.0000
G1 X-0.1395 Y-1.0647 F10.0000
G1 X-0.1420 Y-1.0610 F10.0000
G1 X-0.1491 Y-1.0551 F10.0000
G1 X-0.1663 Y-1.0475 F10.0000
G1 X-0.1663 Y-1.0475 F10.0000
G1 X-0.2143 Y-1.0406 F10.0000
G1 X-0.2365 Y-1.0418 F10.0000
G1 X-0.2438 Y-1.0436 F10.0000
G1 X-0.2670 Y-1.0561 F10.0000
G1 X-0.2795 Y-1.0650 F10.0000
G1 X-0.3029 Y-1.0859 F10.0000
G1 X-0.3236 Y-1.1095 F10.0000
G1 X-0.3356 Y-1.1257 F10.0000
G1 X-0.3472 Y-1.1437 F10.0000
G1 X-0.3593 Y-1.1649 F10.0000
G1 X-0.3730 Y-1.1932 F10.0000
G1 X-0.3844 Y-1.2217 F10.0000
G1 X-0.3922 Y-1.2493 F10.0000
G1 X-0.3971 Y-1.2714 F10.0000
G1 X-0.4021 Y-1.2980 F10.0000
G1 X-0.4048 Y-1.3292 F10.0000
G1 X-0.4055 Y-1.3565 F10.0000
G1 X-0.4045 Y-1.3858 F10.0000
G1 X-0.4013 Y-1.4161 F10.0000
G1 X-0.3964 Y-1.4446 F10.0000
G1 X-0.3871 Y-1.4729 F10.0000
G1 X-0.3797 Y-1.4892 F10.0000
G1 X-0.3615 Y-1.5145 F10.0000
G1 X-0.3551 Y-1.5194 F10.0000
G1 X-0.3479 Y-1.5231 F10.0000
G1 X-0.3322 Y-1.5234 F10.0000
G1 X-0.3322 Y-1.5234 F10.0000
G1 X-0.3177 Y-1.5209 F10.0000
G1 X-0.3088 Y-1.5175 F10.0000
G1 X-0.3046 Y-1.5153 F10.0000
G1 X-0.3012 Y-1.5123 F10.0000
G0 X-0.2985 Y-1.5086
G0 X-0.2945 Y-1.5005
G0 X-0.2899 Y-1.4828
G0 X-0.1969 Y-1.0878
G1 X-0.1956 Y-1.0817 F10.0000
G1 X-0.1934 Y-1.0704 F10.0000
G1 X-0.1929 Y-1.0652 F10.0000
G1 X-0.1937 Y-1.0605 F10.0000
G1 X-0.1954 Y-1.0561 F10.0000
G1 X-0.1978 Y-1.0524 F10.0000
G1 X-0.2047 Y-1.0460 F10.0000
G1 X-0.2128 Y-1.0411 F10.0000
G1 X-0.2217 Y-1.0374 F10.0000
G1 X-0.2217 Y-1.0374 F10.0000
G1 X-0.2734 Y-1.0271 F10.0000
G1 X-0.2881 Y-1.0271 F10.0000
G1 X-0.2992 Y-1.0293 F10.0000
G1 X-0.3233 Y-1.0401 F10.0000
G1 X-0.3361 Y-1.0482 F10.0000
G1 X-0.3605 Y-1.0679 F10.0000
G1 X-0.3824 Y-1.0903 F10.0000
G1 X-0.3964 Y-1.1073 F10.0000
G1 X-0.4087 Y-1.1243 F10.0000
G1 X-0.4225 Y-1.1457 F10.0000
G1 X-0.4365 Y-1.1730 F10.0000
G1 X-0.4466 Y-1.1961 F10.0000
G1 X-0.4557 Y-1.2215 F10.0000
G1 X-0.4628 Y-1.2480 F10.0000
G1 X-0.4690 Y-1.2736 F10.0000
G1 X-0.4737 Y-1.3046 F10.0000
G1 X-0.4764 Y-1.3346 F10.0000
G1 X-0.4776 Y-1.3659 F10.0000
G1 X-0.4766 Y-1.3971 F10.0000
G1 X-0.4715 Y-1.4281 F10.0000
G1 X-0.4668 Y-1.4471 F10.0000
G1 X-0.4604 Y-1.4668 F10.0000
G1 X-0.4518 Y-1.4882 F10.0000
G1 X-0.4338 Y-1.5138 F10.0000
G1 X-0.4277 Y-1.5187 F10.0000
G1 X-0.4205 Y-1.5224 F10.0000
G1 X-0.4166 Y-1.5234 F10.0000
G1 X-0.4048 Y-1.5234 F10.0000
G1 X-0.4048 Y-1.5234 F10.0000
G1 X-0.3903 Y-1.5209 F10.0000
G1 X-0.3814 Y-1.5175 F10.0000
G1 X-0.3772 Y-1.5153 F10.0000
G1 X-0.3738 Y-1.5123 F10.0000
G0 X-0.3708 Y-1.5089
G0 X-0.3669 Y-1.5007
G0 X-0.3615 Y-1.4828
G0 X-0.2547 Y-1.0768
G1 X-0.2532 Y-1.0706 F10.0000
G1 X-0.2505 Y-1.0593 F10.0000
G1 X-0.2500 Y-1.0541 F10.0000
G1 X-0.2505 Y-1.0492 F10.0000
G1 X-0.2520 Y-1.0448 F10.0000
G1 X-0.2542 Y-1.0408 F10.0000
G1 X-0.2606 Y-1.0340 F10.0000
G1 X-0.2766 Y-1.0239 F10.0000
G1 X-0.2766 Y-1.0239 F10.0000
G1 X-0.3246 Y-1.0116 F10.0000
G1 X-0.3467 Y-1.0101 F10.0000
G1 X-0.3541 Y-1.0108 F10.0000
G1 X-0.3949 Y-1.0290 F10.0000
G1 X-0.4198 Y-1.0482 F10.0000
G1 X-0.4392 Y-1.0669 F10.0000
G1 X-0.4520 Y-1.0810 F10.0000
G1 X-0.4658 Y-1.0974 F10.0000
G1 X-0.4838 Y-1.1230 F10.0000
G1 X-0.4988 Y-1.1481 F10.0000
G1 X-0.5113 Y-1.1720 F10.0000
G1 X-0.5229 Y-1.1991 F10.0000
G1 X-0.5322 Y-1.2259 F10.0000
G1 X-0.5399 Y-1.2530 F10.0000
G1 X-0.5455 Y-1.2810 F10.0000
G1 X-0.5492 Y-1.3091 F10.0000
G1 X-0.5509 Y-1.3374 F10.0000
G1 X-0.5507 Y-1.3656 F10.0000
G1 X-0.5485 Y-1.3939 F10.0000
G1 X-0.5443 Y-1.4220 F10.0000
G1 X-0.5384 Y-1.4498 F10.0000
G1 X-0.5288 Y-1.4766 F10.0000
G1 X-0.5182 Y-1.4975 F10.0000
G1 X-0.5066 Y-1.5133 F10.0000
G1 X-0.5005 Y-1.5185 F10.0000
G1 X-0.4934 Y-1.5221 F10.0000
G1 X-0.4897 Y-1.5234 F10.0000
G1 X-0.4739 Y-1.5234 F10.0000
G1 X-0.4739 Y-1.5234 F10.0000
G1 X-0.4594 Y-1.5209 F10.0000
G1 X-0.4505 Y-1.5175 F10.0000
G1 X-0.4464 Y-1.5153 F10.0000
G1 X-0.4429 Y-1.5123 F10.0000
G0 X-0.4400 Y-1.5089
G0 X-0.4360 Y-1.5007
G0 X-0.4306 Y-1.4825
G0 X-0.3189 Y-1.0591
G1 X-0.3174 Y-1.0529 F10.0000
G1 X-0.3147 Y-1.0416 F10.0000
G1 X-0.3142 Y-1.0362 F10.0000
G1 X-0.3145 Y-1.0315 F10.0000
G1 X-0.3159 Y-1.0268 F10.0000
G1 X-0.3179 Y-1.0229 F10.0000
G1 X-0.3238 Y-1.0155 F10.0000
G1 X-0.3393 Y-1.0049 F10.0000
G1 X-0.3393 Y-1.0049 F10.0000
G1 X-0.3467 Y-1.0030 F10.0000
G1 X-0.3760 Y-0.9929 F10.0000
G1 X-0.3981 Y-0.9894 F10.0000
G1 X-0.4092 Y-0.9902 F10.0000
G1 X-0.4375 Y-1.0007 F10.0000
G1 X-0.4478 Y-1.0059 F10.0000
G1 X-0.4739 Y-1.0231 F10.0000
G1 X-0.4983 Y-1.0428 F10.0000
G1 X-0.5145 Y-1.0595 F10.0000
G1 X-0.5263 Y-1.0731 F10.0000
G1 X-0.5411 Y-1.0913 F10.0000
G1 X-0.5588 Y-1.1171 F10.0000
G1 X-0.5748 Y-1.1442 F10.0000
G1 X-0.5874 Y-1.1713 F10.0000
G1 X-0.5957 Y-1.1922 F10.0000
G1 X-0.6041 Y-1.2188 F10.0000
G1 X-0.6110 Y-1.2443 F10.0000
G1 X-0.6169 Y-1.2751 F10.0000
G1 X-0.6206 Y-1.3049 F10.0000
G1 X-0.6228 Y-1.3356 F10.0000
G1 X-0.6228 Y-1.3669 F10.0000
G1 X-0.6211 Y-1.3979 F10.0000
G1 X-0.6156 Y-1.4289 F10.0000
G1 X-0.6110 Y-1.4500 F10.0000
G1 X-0.6016 Y-1.4759 F10.0000
G1 X-0.5933 Y-1.4946 F10.0000
G1 X-0.5790 Y-1.5135 F10.0000
G1 X-0.5728 Y-1.5185 F10.0000
G1 X-0.5657 Y-1.5221 F10.0000
G1 X-0.5620 Y-1.5234 F10.0000
G1 X-0.5463 Y-1.5234 F10.0000
G1 X-0.5463 Y-1.5234 F10.0000
G1 X-0.5317 Y-1.5209 F10.0000
G1 X-0.5229 Y-1.5175 F10.0000
G1 X-0.5187 Y-1.5153 F10.0000
G1 X-0.5153 Y-1.5123 F10.0000
G0 X-0.5123 Y-1.5089
G0 X-0.5081 Y-1.5007
G0 X-0.5022 Y-1.4825
G0 X-0.3723 Y-1.0394
G1 X-0.3706 Y-1.0332 F10.0000
G1 X-0.3676 Y-1.0219 F10.0000
G1 X-0.3669 Y-1.0167 F10.0000
G1 X-0.3674 Y-1.0118 F10.0000
G1 X-0.3686 Y-1.0074 F10.0000
G1 X-0.3706 Y-1.0034 F10.0000
G1 X-0.3765 Y-0.9961 F10.0000
G1 X-0.3922 Y-0.9855 F10.0000
G1 X-0.3922 Y-0.9855 F10.0000
G1 X-0.4284 Y-0.9717 F10.0000
G1 X-0.4505 Y-0.9673 F10.0000
G1 X-0.4616 Y-0.9668 F10.0000
G1 X-0.4909 Y-0.9754 F10.0000
G1 X-0.5012 Y-0.9798 F10.0000
G1 X-0.5281 Y-0.9961 F10.0000
G1 X-0.5492 Y-1.0118 F10.0000
G1 X-0.5647 Y-1.0249 F10.0000
G1 X-0.5819 Y-1.0411 F10.0000
G1 X-0.6016 Y-1.0640 F10.0000
G1 X-0.6161 Y-1.0832 F10.0000
G1 X-0.6302 Y-1.1048 F10.0000
G1 X-0.6435 Y-1.1277 F10.0000
G1 X-0.6570 Y-1.1560 F10.0000
G1 X-0.6673 Y-1.1821 F10.0000
G1 X-0.6764 Y-1.2094 F10.0000
G1 X-0.6836 Y-1.2384 F10.0000
G1 X-0.6887 Y-1.2670 F10.0000
G1 X-0.6932 Y-1.2960 F10.0000
G1 X-0.6954 Y-1.3273 F10.0000
G1 X-0.6959 Y-1.3585 F10.0000
G1 X-0.6949 Y-1.3898 F10.0000
G1 X-0.6902 Y-1.4208 F10.0000
G1 X-0.6858 Y-1.4434 F10.0000
G1 X-0.6764 Y-1.4712 F10.0000
G1 X-0.6690 Y-1.4889 F10.0000
G1 X-0.6508 Y-1.5143 F10.0000
G1 X-0.6479 Y-1.5170 F10.0000
G1 X-0.6375 Y-1.5229 F10.0000
G1 X-0.6139 Y-1.5234 F10.0000
G1 X-0.6139 Y-1.5234 F10.0000
G1 X-0.5994 Y-1.5209 F10.0000
G1 X-0.5906 Y-1.5175 F10.0000
G1 X-0.5864 Y-1.5153 F10.0000
G1 X-0.5829 Y-1.5123 F10.0000
G0 X-0.5800 Y-1.5089
G0 X-0.5758 Y-1.5010
G0 X-0.5694 Y-1.4825
G0 X-0.4264 Y-1.0187
G1 X-0.4245 Y-1.0123 F10.0000
G1 X-0.4213 Y-1.0010 F10.0000
G1 X-0.4205 Y-0.9958 F10.0000
G1 X-0.4205 Y-0.9909 F10.0000
G1 X-0.4218 Y-0.9862 F10.0000
G1 X-0.4235 Y-0.9820 F10.0000
G1 X-0.4289 Y-0.9747 F10.0000
G1 X-0.4360 Y-0.9685 F10.0000
G1 X-0.4441 Y-0.9633 F10.0000
G1 X-0.4441 Y-0.9633 F10.0000
G1 X-0.4906 Y-0.9444 F10.0000
G1 X-0.5054 Y-0.9414 F10.0000
G1 X-0.5165 Y-0.9419 F10.0000
G1 X-0.5531 Y-0.9523 F10.0000
G1 X-0.5810 Y-0.9668 F10.0000
G1 X-0.6051 Y-0.9833 F10.0000
G1 X-0.6208 Y-0.9953 F10.0000
G1 X-0.6378 Y-1.0101 F10.0000
G1 X-0.6575 Y-1.0300 F10.0000
G1 X-0.6767 Y-1.0529 F10.0000
G1 X-0.6924 Y-1.0741 F10.0000
G1 X-0.7074 Y-1.0977 F10.0000
G1 X-0.7207 Y-1.1223 F10.0000
G1 X-0.7320 Y-1.1471 F10.0000
G1 X-0.7416 Y-1.1732 F10.0000
G1 X-0.7500 Y-1.1996 F10.0000
G1 X-0.7571 Y-1.2301 F10.0000
G1 X-0.7633 Y-1.2594 F10.0000
G1 X-0.7677 Y-1.2904 F10.0000
G1 X-0.7704 Y-1.3216 F10.0000
G1 X-0.7717 Y-1.3529 F10.0000
G1 X-0.7697 Y-1.3841 F10.0000
G1 X-0.7670 Y-1.4107 F10.0000
G1 X-0.7601 Y-1.4412 F10.0000
G1 X-0.7542 Y-1.4616 F10.0000
G1 X-0.7441 Y-1.4857 F10.0000
G1 X-0.7239 Y-1.5143 F10.0000
G1 X-0.7175 Y-1.5192 F10.0000
G1 X-0.7106 Y-1.5231 F10.0000
G1 X-0.6870 Y-1.5234 F10.0000
G1 X-0.6870 Y-1.5234 F10.0000
G1 X-0.6725 Y-1.5209 F10.0000
G1 X-0.6636 Y-1.5175 F10.0000
G1 X-0.6594 Y-1.5153 F10.0000
G1 X-0.6560 Y-1.5123 F10.0000
G0 X-0.6531 Y-1.5089
G0 X-0.6486 Y-1.5010
G0 X-0.6417 Y-1.4823
G0 X-0.4806 Y-0.9966
G1 X-0.4786 Y-0.9902 F10.0000
G1 X-0.4751 Y-0.9791 F10.0000
G1 X-0.4742 Y-0.9737 F10.0000
G1 X-0.4742 Y-0.9688 F10.0000
G1 X-0.4749 Y-0.9641 F10.0000
G1 X-0.4783 Y-0.9555 F10.0000
G1 X-0.4840 Y-0.9478 F10.0000
G1 X-0.4946 Y-0.9382 F10.0000
G1 X-0.4946 Y-0.9382 F10.0000
G1 X-0.5362 Y-0.9173 F10.0000
G1 X-0.5546 Y-0.9122 F10.0000
G1 X-0.5657 Y-0.9114 F10.0000
G1 X-0.5952 Y-0.9173 F10.0000
G1 X-0.6063 Y-0.9210 F10.0000
G1 X-0.6346 Y-0.9345 F10.0000
G1 X-0.6612 Y-0.9513 F10.0000
G1 X-0.6781 Y-0.9636 F10.0000
G1 X-0.6944 Y-0.9774 F10.0000
G1 X-0.7121 Y-0.9938 F10.0000
G1 X-0.7335 Y-1.0165 F10.0000
G1 X-0.7532 Y-1.0408 F10.0000
G1 X-0.7697 Y-1.0657 F10.0000
G1 X-0.7812 Y-1.0851 F10.0000
G1 X-0.7936 Y-1.1102 F10.0000
G1 X-0.8044 Y-1.1344 F10.0000
G1 X-0.8159 Y-1.1634 F10.0000
G1 X-0.8253 Y-1.1934 F10.0000
G1 X-0.8334 Y-1.2237 F10.0000
G1 X-0.8401 Y-1.2544 F10.0000
G1 X-0.8447 Y-1.2854 F10.0000
G1 X-0.8479 Y-1.3167 F10.0000
G1 X-0.8479 Y-1.3479 F10.0000
G1 X-0.8469 Y-1.3725 F10.0000
G1 X-0.8435 Y-1.4038 F10.0000
G1 X-0.8378 Y-1.4336 F10.0000
G1 X-0.8290 Y-1.4609 F10.0000
G1 X-0.8221 Y-1.4793 F10.0000
G1 X-0.8100 Y-1.5015 F10.0000
G1 X-0.8004 Y-1.5138 F10.0000
G1 X-0.7874 Y-1.5226 F10.0000
G1 X-0.7835 Y-1.5234 F10.0000
G1 X-0.7638 Y-1.5234 F10.0000
G1 X-0.7638 Y-1.5234 F10.0000
G1 X-0.7493 Y-1.5209 F10.0000
G1 X-0.7404 Y-1.5175 F10.0000
G1 X-0.7328 Y-1.5123 F10.0000
G0 X-0.7296 Y-1.5089
G0 X-0.7251 Y-1.5010
G0 X-0.5310 Y-0.9688
G1 X-0.5288 Y-0.9626 F10.0000
G1 X-0.5251 Y-0.9513 F10.0000
G1 X-0.5239 Y-0.9461 F10.0000
G1 X-0.5236 Y-0.9412 F10.0000
G1 X-0.5244 Y-0.9365 F10.0000
G1 X-0.5276 Y-0.9279 F10.0000
G1 X-0.5330 Y-0.9203 F10.0000
G1 X-0.5436 Y-0.9107 F10.0000
G1 X-0.5436 Y-0.9107 F10.0000
G1 X-0.5844 Y-0.8878 F10.0000
G1 X-0.6026 Y-0.8814 F10.0000
G1 X-0.6137 Y-0.8799 F10.0000
G1 X-0.6432 Y-0.8836 F10.0000
G1 X-0.6543 Y-0.8866 F10.0000
G1 X-0.6833 Y-0.8981 F10.0000
G1 X-0.7111 Y-0.9126 F10.0000
G1 X-0.7320 Y-0.9267 F10.0000
G1 X-0.7475 Y-0.9382 F10.0000
G1 X-0.7670 Y-0.9547 F10.0000
G1 X-0.7881 Y-0.9754 F10.0000
G1 X-0.8078 Y-0.9975 F10.0000
G1 X-0.8250 Y-1.0197 F10.0000
G1 X-0.8413 Y-1.0438 F10.0000
G1 X-0.8558 Y-1.0689 F10.0000
G1 X-0.8684 Y-1.0945 F10.0000
G1 X-0.8900 Y-1.1481 F10.0000
G1 X-0.8999 Y-1.1779 F10.0000
G1 X-0.9080 Y-1.2082 F10.0000
G1 X-0.9154 Y-1.2387 F10.0000
G1 X-0.9210 Y-1.2694 F10.0000
G1 X-0.9250 Y-1.3265 F10.0000
G1 X-0.9245 Y-1.3578 F10.0000
G1 X-0.9218 Y-1.3890 F10.0000
G1 X-0.9163 Y-1.4198 F10.0000
G1 X-0.9109 Y-1.4437 F10.0000
G1 X-0.9011 Y-1.4712 F10.0000
G1 X-0.8925 Y-1.4911 F10.0000
G1 X-0.8760 Y-1.5130 F10.0000
G1 X-0.8698 Y-1.5182 F10.0000
G1 X-0.8629 Y-1.5221 F10.0000
G1 X-0.8593 Y-1.5234 F10.0000
G1 X-0.8396 Y-1.5234 F10.0000
G1 X-0.8396 Y-1.5234 F10.0000
G1 X-0.8250 Y-1.5209 F10.0000
G1 X-0.8162 Y-1.5175 F10.0000
G1 X-0.8083 Y-1.5123 F10.0000
G0 X-0.8054 Y-1.5089
G0 X-0.7987 Y-1.4968
G0 X-0.5810 Y-0.9397
G1 X-0.5785 Y-0.9333 F10.0000
G1 X-0.5746 Y-0.9222 F10.0000
G1 X-0.5733 Y-0.9171 F10.0000
G1 X-0.5728 Y-0.9119 F10.0000
G1 X-0.5731 Y-0.9072 F10.0000
G1 X-0.5760 Y-0.8984 F10.0000
G1 X-0.5812 Y-0.8907 F10.0000
G1 X-0.5913 Y-0.8807 F10.0000
G1 X-0.5913 Y-0.8807 F10.0000
G1 X-0.6270 Y-0.8568 F10.0000
G1 X-0.6447 Y-0.8487 F10.0000
G1 X-0.6558 Y-0.8452 F10.0000
G1 X-0.6816 Y-0.8455 F10.0000
G1 X-0.7000 Y-0.8484 F10.0000
G1 X-0.7296 Y-0.8588 F10.0000
G1 X-0.7539 Y-0.8701 F10.0000
G1 X-0.7726 Y-0.8804 F10.0000
G1 X-0.7908 Y-0.8917 F10.0000
G1 X-0.8159 Y-0.9102 F10.0000
G1 X-0.8381 Y-0.9294 F10.0000
G1 X-0.8573 Y-0.9478 F10.0000
G1 X-0.8765 Y-0.9692 F10.0000
G1 X-0.8937 Y-0.9916 F10.0000
G1 X-0.9092 Y-1.0148 F10.0000
G1 X-0.9232 Y-1.0394 F10.0000
G1 X-0.9365 Y-1.0642 F10.0000
G1 X-0.9498 Y-1.0925 F10.0000
G1 X-0.9614 Y-1.1218 F10.0000
G1 X-0.9717 Y-1.1513 F10.0000
G1 X-0.9806 Y-1.1813 F10.0000
G1 X-0.9877 Y-1.2119 F10.0000
G1 X-0.9934 Y-1.2426 F10.0000
G1 X-0.9973 Y-1.2736 F10.0000
G1 X-0.9998 Y-1.3049 F10.0000
G1 X-1.0005 Y-1.3361 F10.0000
G1 X-0.9998 Y-1.3674 F10.0000
G1 X-0.9958 Y-1.3986 F10.0000
G1 X-0.9916 Y-1.4237 F10.0000
G1 X-0.9828 Y-1.4540 F10.0000
G1 X-0.9754 Y-1.4747 F10.0000
G1 X-0.9633 Y-1.4980 F10.0000
G1 X-0.9515 Y-1.5135 F10.0000
G1 X-0.9454 Y-1.5185 F10.0000
G1 X-0.9385 Y-1.5226 F10.0000
G1 X-0.9345 Y-1.5234 F10.0000
G1 X-0.9149 Y-1.5234 F10.0000
G1 X-0.9149 Y-1.5234 F10.0000
G1 X-0.9003 Y-1.5209 F10.0000
G1 X-0.8915 Y-1.5175 F10.0000
G1 X-0.8836 Y-1.5123 F10.0000
G0 X-0.8807 Y-1.5089
G0 X-0.8735 Y-1.4970
G0 X-0.6284 Y-0.9077
G1 X-0.6257 Y-0.9013 F10.0000
G1 X-0.6216 Y-0.8903 F10.0000
G1 X-0.6201 Y-0.8851 F10.0000
G1 X-0.6196 Y-0.8799 F10.0000
G1 X-0.6198 Y-0.8752 F10.0000
G1 X-0.6225 Y-0.8661 F10.0000
G1 X-0.6275 Y-0.8583 F10.0000
G1 X-0.6371 Y-0.8479 F10.0000
G1 X-0.6371 Y-0.8479 F10.0000
G1 X-0.6750 Y-0.8199 F10.0000
G1 X-0.6922 Y-0.8108 F10.0000
G1 X-0.7032 Y-0.8071 F10.0000
G1 X-0.7217 Y-0.8061 F10.0000
G1 X-0.7475 Y-0.8086 F10.0000
G1 X-0.7778 Y-0.8169 F10.0000
G1 X-0.8036 Y-0.8280 F10.0000
G1 X-0.8191 Y-0.8356 F10.0000
G1 X-0.8371 Y-0.8455 F10.0000
G1 X-0.8632 Y-0.8627 F10.0000
G1 X-0.8880 Y-0.8819 F10.0000
G1 X-0.9087 Y-0.8996 F10.0000
G1 X-0.9304 Y-0.9213 F10.0000
G1 X-0.9498 Y-0.9434 F10.0000
G1 X-0.9675 Y-0.9665 F10.0000
G1 X-0.9840 Y-0.9911 F10.0000
G1 X-0.9988 Y-1.0165 F10.0000
G1 X-1.0118 Y-1.0428 F10.0000
G1 X-1.0241 Y-1.0696 F10.0000
G1 X-1.0359 Y-1.0987 F10.0000
G1 X-1.0458 Y-1.1284 F10.0000
G1 X-1.0546 Y-1.1585 F10.0000
G1 X-1.0620 Y-1.1890 F10.0000
G1 X-1.0679 Y-1.2197 F10.0000
G1 X-1.0723 Y-1.2507 F10.0000
G1 X-1.0753 Y-1.2820 F10.0000
G1 X-1.0768 Y-1.3132 F10.0000
G1 X-1.0768 Y-1.3445 F10.0000
G1 X-1.0753 Y-1.3757 F10.0000
G1 X-1.0704 Y-1.4067 F10.0000
G1 X-1.0657 Y-1.4311 F10.0000
G1 X-1.0561 Y-1.4611 F10.0000
G1 X-1.0482 Y-1.4815 F10.0000
G1 X-1.0354 Y-1.5042 F10.0000
G1 X-1.0281 Y-1.5133 F10.0000
G1 X-1.0219 Y-1.5182 F10.0000
G1 X-1.0150 Y-1.5224 F10.0000
G1 X-1.0111 Y-1.5234 F10.0000
G1 X-0.9875 Y-1.5234 F10.0000
G1 X-0.9875 Y-1.5234 F10.0000
G1 X-0.9729 Y-1.5209 F10.0000
G1 X-0.9641 Y-1.5175 F10.0000
G1 X-0.9562 Y-1.5123 F10.0000
G0 X-0.9532 Y-1.5089
G0 X-0.9461 Y-1.4970
G0 X-0.6831 Y-0.8688
G1 X-0.6804 Y-0.8625 F10.0000
G1 X-0.6759 Y-0.8511 F10.0000
G1 X-0.6737 Y-0.8408 F10.0000
G1 X-0.6737 Y-0.8359 F10.0000
G1 X-0.6757 Y-0.8268 F10.0000
G1 X-0.6799 Y-0.8184 F10.0000
G1 X-0.6885 Y-0.8071 F10.0000
G1 X-0.6885 Y-0.8071 F10.0000
G1 X-0.7249 Y-0.7781 F10.0000
G1 X-0.7424 Y-0.7694 F10.0000
G1 X-0.7534 Y-0.7670 F10.0000
G1 X-0.7904 Y-0.7670 F10.0000
G1 X-0.8209 Y-0.7744 F10.0000
G1 X-0.8433 Y-0.7820 F10.0000
G1 X-0.8625 Y-0.7899 F10.0000
G1 X-0.8831 Y-0.7995 F10.0000
G1 X-0.9104 Y-0.8147 F10.0000
G1 X-0.9358 Y-0.8314 F10.0000
G1 X-0.9577 Y-0.8492 F10.0000
G1 X-0.9742 Y-0.8642 F10.0000
G1 X-0.9929 Y-0.8829 F10.0000
G1 X-1.0135 Y-0.9063 F10.0000
G1 X-1.0327 Y-0.9311 F10.0000
G1 X-1.0504 Y-0.9569 F10.0000
G1 X-1.0667 Y-0.9838 F10.0000
G1 X-1.0812 Y-1.0116 F10.0000
G1 X-1.0950 Y-1.0396 F10.0000
G1 X-1.1068 Y-1.0687 F10.0000
G1 X-1.1171 Y-1.0982 F10.0000
G1 X-1.1348 Y-1.1585 F10.0000
G1 X-1.1415 Y-1.1892 F10.0000
G1 X-1.1469 Y-1.2200 F10.0000
G1 X-1.1513 Y-1.2510 F10.0000
G1 X-1.1543 Y-1.2822 F10.0000
G1 X-1.1560 Y-1.3135 F10.0000
G1 X-1.1550 Y-1.3447 F10.0000
G1 X-1.1533 Y-1.3740 F10.0000
G1 X-1.1481 Y-1.4050 F10.0000
G1 X-1.1425 Y-1.4304 F10.0000
G1 X-1.1344 Y-1.4599 F10.0000
G1 X-1.1216 Y-1.4884 F10.0000
G1 X-1.1031 Y-1.5135 F10.0000
G1 X-1.0969 Y-1.5185 F10.0000
G1 X-1.0901 Y-1.5224 F10.0000
G1 X-1.0861 Y-1.5234 F10.0000
G1 X-1.0704 Y-1.5234 F10.0000
G1 X-1.0704 Y-1.5234 F10.0000
G1 X-1.0559 Y-1.5209 F10.0000
G1 X-1.0470 Y-1.5175 F10.0000
G1 X-1.0391 Y-1.5123 F10.0000
G0 X-1.0359 Y-1.5089
G0 X-1.0266 Y-1.4931
G0 X-0.7283 Y-0.8317
G1 X-0.7254 Y-0.8250 F10.0000
G1 X-0.7188 Y-0.8088 F10.0000
G1 X-0.7178 Y-0.8036 F10.0000
G1 X-0.7180 Y-0.7940 F10.0000
G1 X-0.7205 Y-0.7852 F10.0000
G1 X-0.7301 Y-0.7689 F10.0000
G1 X-0.7301 Y-0.7689 F10.0000
G1 X-0.7333 Y-0.7667 F10.0000
G1 X-0.7655 Y-0.7377 F10.0000
G1 X-0.7825 Y-0.7281 F10.0000
G1 X-0.7899 Y-0.7256 F10.0000
G1 X-0.8305 Y-0.7227 F10.0000
G1 X-0.8615 Y-0.7281 F10.0000
G1 X-0.8858 Y-0.7347 F10.0000
G1 X-0.9045 Y-0.7411 F10.0000
G1 X-0.9259 Y-0.7498 F10.0000
G1 X-0.9528 Y-0.7640 F10.0000
G1 X-0.9729 Y-0.7766 F10.0000
G1 X-0.9938 Y-0.7906 F10.0000
G1 X-1.0187 Y-0.8098 F10.0000
G1 X-1.0421 Y-0.8307 F10.0000
G1 X-1.0640 Y-0.8524 F10.0000
G1 X-1.0849 Y-0.8757 F10.0000
G1 X-1.1043 Y-0.9003 F10.0000
G1 X-1.1223 Y-0.9259 F10.0000
G1 X-1.1388 Y-0.9525 F10.0000
G1 X-1.1535 Y-0.9801 F10.0000
G1 X-1.1791 Y-1.0374 F10.0000
G1 X-1.1905 Y-1.0667 F10.0000
G1 X-1.2000 Y-1.0965 F10.0000
G1 X-1.2087 Y-1.1265 F10.0000
G1 X-1.2160 Y-1.1570 F10.0000
G1 X-1.2219 Y-1.1877 F10.0000
G1 X-1.2266 Y-1.2188 F10.0000
G1 X-1.2301 Y-1.2500 F10.0000
G1 X-1.2323 Y-1.2813 F10.0000
G1 X-1.2330 Y-1.3125 F10.0000
G1 X-1.2325 Y-1.3438 F10.0000
G1 X-1.2308 Y-1.3750 F10.0000
G1 X-1.2254 Y-1.4060 F10.0000
G1 X-1.2197 Y-1.4296 F10.0000
G1 X-1.2124 Y-1.4540 F10.0000
G1 X-1.2013 Y-1.4813 F10.0000
G1 X-1.1882 Y-1.5042 F10.0000
G1 X-1.1806 Y-1.5130 F10.0000
G1 X-1.1745 Y-1.5180 F10.0000
G1 X-1.1676 Y-1.5219 F10.0000
G1 X-1.1639 Y-1.5234 F10.0000
G1 X-1.1363 Y-1.5234 F10.0000
G1 X-1.1363 Y-1.5234 F10.0000
G1 X-1.1218 Y-1.5209 F10.0000
G1 X-1.1129 Y-1.5175 F10.0000
G1 X-1.1051 Y-1.5123 F10.0000
G0 X-1.1019 Y-1.5089
G0 X-1.0925 Y-1.4931
G0 X-0.7709 Y-0.7936
G1 X-0.7680 Y-0.7869 F10.0000
G1 X-0.7613 Y-0.7704 F10.0000
G1 X-0.7598 Y-0.7603 F10.0000
G1 X-0.7606 Y-0.7507 F10.0000
G1 X-0.7635 Y-0.7419 F10.0000
G1 X-0.7702 Y-0.7293 F10.0000
G1 X-0.7702 Y-0.7293 F10.0000
G1 X-0.8004 Y-0.6981 F10.0000
G1 X-0.8196 Y-0.6848 F10.0000
G1 X-0.8268 Y-0.6816 F10.0000
G1 X-0.8526 Y-0.6769 F10.0000
G1 X-0.8674 Y-0.6759 F10.0000
G1 X-0.8986 Y-0.6796 F10.0000
G1 X-0.9247 Y-0.6855 F10.0000
G1 X-0.9437 Y-0.6909 F10.0000
G1 X-0.9658 Y-0.6988 F10.0000
G1 X-0.9924 Y-0.7104 F10.0000
G1 X-1.0185 Y-0.7242 F10.0000
G1 X-1.0416 Y-0.7384 F10.0000
G1 X-1.0650 Y-0.7552 F10.0000
G1 X-1.0869 Y-0.7734 F10.0000
G1 X-1.1078 Y-0.7918 F10.0000
G1 X-1.1294 Y-0.8145 F10.0000
G1 X-1.1501 Y-0.8374 F10.0000
G1 X-1.1698 Y-0.8617 F10.0000
G1 X-1.1880 Y-0.8873 F10.0000
G1 X-1.2052 Y-0.9136 F10.0000
G1 X-1.2207 Y-0.9409 F10.0000
G1 X-1.2347 Y-0.9690 F10.0000
G1 X-1.2598 Y-1.0263 F10.0000
G1 X-1.2702 Y-1.0559 F10.0000
G1 X-1.2793 Y-1.0859 F10.0000
G1 X-1.2874 Y-1.1161 F10.0000
G1 X-1.3002 Y-1.1777 F10.0000
G1 X-1.3049 Y-1.2087 F10.0000
G1 X-1.3086 Y-1.2399 F10.0000
G1 X-1.3113 Y-1.2712 F10.0000
G1 X-1.3127 Y-1.3024 F10.0000
G1 X-1.3118 Y-1.3337 F10.0000
G1 X-1.3088 Y-1.3649 F10.0000
G1 X-1.3049 Y-1.3949 F10.0000
G1 X-1.2985 Y-1.4257 F10.0000
G1 X-1.2891 Y-1.4557 F10.0000
G1 X-1.2793 Y-1.4786 F10.0000
G1 X-1.2702 Y-1.4968 F10.0000
G1 X-1.2584 Y-1.5123 F10.0000
G1 X-1.2525 Y-1.5175 F10.0000
G1 X-1.2419 Y-1.5234 F10.0000
G1 X-1.2183 Y-1.5234 F10.0000
G1 X-1.2183 Y-1.5234 F10.0000
G1 X-1.2037 Y-1.5209 F10.0000
G1 X-1.1949 Y-1.5175 F10.0000
G1 X-1.1870 Y-1.5123 F10.0000
G0 X-1.1838 Y-1.5091
G0 X-1.1740 Y-1.4931
G0 X-0.8103 Y-0.7517
G1 X-0.8068 Y-0.7448 F10.0000
G1 X-0.7997 Y-0.7283 F10.0000
G1 X-0.7980 Y-0.7185 F10.0000
G1 X-0.7985 Y-0.7089 F10.0000
G1 X-0.8012 Y-0.7000 F10.0000
G1 X-0.8078 Y-0.6875 F10.0000
G1 X-0.8078 Y-0.6875 F10.0000
G1 X-0.8359 Y-0.6553 F10.0000
G1 X-0.8541 Y-0.6407 F10.0000
G1 X-0.8610 Y-0.6371 F10.0000
G1 X-0.8868 Y-0.6307 F10.0000
G1 X-0.9053 Y-0.6284 F10.0000
G1 X-0.9365 Y-0.6307 F10.0000
G1 X-0.9631 Y-0.6348 F10.0000
G1 X-0.9847 Y-0.6393 F10.0000
G1 X-1.0133 Y-0.6479 F10.0000
G1 X-1.0374 Y-0.6572 F10.0000
G1 X-1.0605 Y-0.6678 F10.0000
G1 X-1.0839 Y-0.6811 F10.0000
G1 X-1.1056 Y-0.6956 F10.0000
G1 X-1.1267 Y-0.7109 F10.0000
G1 X-1.1511 Y-0.7306 F10.0000
G1 X-1.1740 Y-0.7520 F10.0000
G1 X-1.1959 Y-0.7744 F10.0000
G1 X-1.2362 Y-0.8221 F10.0000
G1 X-1.2544 Y-0.8474 F10.0000
G1 X-1.2714 Y-0.8738 F10.0000
G1 X-1.2874 Y-0.9006 F10.0000
G1 X-1.3019 Y-0.9284 F10.0000
G1 X-1.3280 Y-0.9852 F10.0000
G1 X-1.3391 Y-1.0145 F10.0000
G1 X-1.3492 Y-1.0443 F10.0000
G1 X-1.3669 Y-1.1046 F10.0000
G1 X-1.3740 Y-1.1351 F10.0000
G1 X-1.3804 Y-1.1658 F10.0000
G1 X-1.3858 Y-1.1966 F10.0000
G1 X-1.3903 Y-1.2276 F10.0000
G1 X-1.3930 Y-1.2899 F10.0000
G1 X-1.3925 Y-1.3211 F10.0000
G1 X-1.3900 Y-1.3524 F10.0000
G1 X-1.3866 Y-1.3836 F10.0000
G1 X-1.3799 Y-1.4144 F10.0000
G1 X-1.3733 Y-1.4405 F10.0000
G1 X-1.3620 Y-1.4697 F10.0000
G1 X-1.3529 Y-1.4899 F10.0000
G1 X-1.3334 Y-1.5148 F10.0000
G1 X-1.3233 Y-1.5214 F10.0000
G1 X-1.3196 Y-1.5231 F10.0000
G1 X-1.2960 Y-1.5234 F10.0000
G1 X-1.2960 Y-1.5234 F10.0000
G1 X-1.2815 Y-1.5209 F10.0000
G1 X-1.2726 Y-1.5175 F10.0000
G1 X-1.2648 Y-1.5123 F10.0000
G0 X-1.2616 Y-1.5091
G0 X-1.2515 Y-1.4934
G0 X-0.8482 Y-0.7082
G1 X-0.8447 Y-0.7013 F10.0000
G1 X-0.8371 Y-0.6850 F10.0000
G1 X-0.8346 Y-0.6752 F10.0000
G1 X-0.8349 Y-0.6656 F10.0000
G1 X-0.8371 Y-0.6565 F10.0000
G1 X-0.8428 Y-0.6435 F10.0000
G1 X-0.8428 Y-0.6435 F10.0000
G1 X-0.8728 Y-0.6061 F10.0000
G1 X-0.8846 Y-0.5955 F10.0000
G1 X-0.8944 Y-0.5893 F10.0000
G1 X-0.9313 Y-0.5792 F10.0000
G1 X-0.9350 Y-0.5787 F10.0000
G1 X-0.9663 Y-0.5782 F10.0000
G1 X-0.9946 Y-0.5810 F10.0000
G1 X-1.0153 Y-0.5842 F10.0000
G1 X-1.0369 Y-0.5896 F10.0000
G1 X-1.0595 Y-0.5962 F10.0000
G1 X-1.0886 Y-0.6080 F10.0000
G1 X-1.1115 Y-0.6191 F10.0000
G1 X-1.1348 Y-0.6321 F10.0000
G1 X-1.1590 Y-0.6467 F10.0000
G1 X-1.1843 Y-0.6651 F10.0000
G1 X-1.2082 Y-0.6845 F10.0000
G1 X-1.2315 Y-0.7055 F10.0000
G1 X-1.2542 Y-0.7271 F10.0000
G1 X-1.2753 Y-0.7502 F10.0000
G1 X-1.2953 Y-0.7744 F10.0000
G1 X-1.3142 Y-0.7992 F10.0000
G1 X-1.3489 Y-0.8516 F10.0000
G1 X-1.3644 Y-0.8789 F10.0000
G1 X-1.3787 Y-0.9067 F10.0000
G1 X-1.3922 Y-0.9350 F10.0000
G1 X-1.4163 Y-0.9931 F10.0000
G1 X-1.4267 Y-1.0226 F10.0000
G1 X-1.4363 Y-1.0524 F10.0000
G1 X-1.4451 Y-1.0824 F10.0000
G1 X-1.4528 Y-1.1129 F10.0000
G1 X-1.4594 Y-1.1437 F10.0000
G1 X-1.4651 Y-1.1745 F10.0000
G1 X-1.4697 Y-1.2055 F10.0000
G1 X-1.4732 Y-1.2680 F10.0000
G1 X-1.4732 Y-1.2992 F10.0000
G1 X-1.4715 Y-1.3305 F10.0000
G1 X-1.4685 Y-1.3617 F10.0000
G1 X-1.4641 Y-1.3927 F10.0000
G1 X-1.4569 Y-1.4232 F10.0000
G1 X-1.4476 Y-1.4508 F10.0000
G1 X-1.4395 Y-1.4724 F10.0000
G1 X-1.4254 Y-1.4985 F10.0000
G1 X-1.4134 Y-1.5138 F10.0000
G1 X-1.4040 Y-1.5207 F10.0000
G1 X-1.4006 Y-1.5224 F10.0000
G1 X-1.3967 Y-1.5234 F10.0000
G1 X-1.3652 Y-1.5234 F10.0000
G1 X-1.3652 Y-1.5234 F10.0000
G1 X-1.3506 Y-1.5209 F10.0000
G1 X-1.3418 Y-1.5175 F10.0000
G1 X-1.3339 Y-1.5123 F10.0000
G0 X-1.3305 Y-1.5091
G0 X-1.3204 Y-1.4934
G0 X-0.8826 Y-0.6626
G1 X-0.8789 Y-0.6558 F10.0000
G1 X-0.8711 Y-0.6393 F10.0000
G1 X-0.8686 Y-0.6294 F10.0000
G1 X-0.8684 Y-0.6198 F10.0000
G1 X-0.8703 Y-0.6107 F10.0000
G1 X-0.8757 Y-0.5977 F10.0000
G1 X-0.8757 Y-0.5977 F10.0000
G1 X-0.9031 Y-0.5591 F10.0000
G1 X-0.9171 Y-0.5450 F10.0000
G1 X-0.9235 Y-0.5404 F10.0000
G1 X-0.9451 Y-0.5320 F10.0000
G1 X-0.9673 Y-0.5268 F10.0000
G1 X-0.9985 Y-0.5249 F10.0000
G1 X-1.0298 Y-0.5268 F10.0000
G1 X-1.0504 Y-0.5295 F10.0000
G1 X-1.0704 Y-0.5337 F10.0000
G1 X-1.0938 Y-0.5396 F10.0000
G1 X-1.1235 Y-0.5492 F10.0000
G1 X-1.1526 Y-0.5610 F10.0000
G1 X-1.1796 Y-0.5738 F10.0000
G1 X-1.2069 Y-0.5888 F10.0000
G1 X-1.2333 Y-0.6058 F10.0000
G1 X-1.2586 Y-0.6243 F10.0000
G1 X-1.2827 Y-0.6442 F10.0000
G1 X-1.3056 Y-0.6656 F10.0000
G1 X-1.3270 Y-0.6885 F10.0000
G1 X-1.3479 Y-0.7119 F10.0000
G1 X-1.3676 Y-0.7362 F10.0000
G1 X-1.3858 Y-0.7616 F10.0000
G1 X-1.4033 Y-0.7876 F10.0000
G1 X-1.4355 Y-0.8415 F10.0000
G1 X-1.4498 Y-0.8693 F10.0000
G1 X-1.4633 Y-0.8976 F10.0000
G1 X-1.5086 Y-1.0128 F10.0000
G1 X-1.5234 Y-1.0940 F10.0000
G1 X-1.5212 Y-1.4151 F10.0000
G1 X-1.5165 Y-1.4446 F10.0000
G1 X-1.5049 Y-1.4771 F10.0000
G1 X-1.4938 Y-1.4975 F10.0000
G1 X-1.4823 Y-1.5135 F10.0000
G1 X-1.4729 Y-1.5207 F10.0000
G1 X-1.4695 Y-1.5226 F10.0000
G1 X-1.4656 Y-1.5234 F10.0000
G1 X-1.4498 Y-1.5234 F10.0000
G1 X-1.4498 Y-1.5234 F10.0000
G1 X-1.4353 Y-1.5209 F10.0000
G1 X-1.4264 Y-1.5175 F10.0000
G1 X-1.4186 Y-1.5123 F10.0000
G0 X-1.4151 Y-1.5091
G0 X-1.4048 Y-1.4938
G0 X-0.9158 Y-0.6159
G1 X-0.9119 Y-0.6088 F10.0000
G1 X-0.9035 Y-0.5925 F10.0000
G1 X-0.9006 Y-0.5827 F10.0000
G1 X-0.9001 Y-0.5731 F10.0000
G1 X-0.9016 Y-0.5637 F10.0000
G1 X-0.9065 Y-0.5504 F10.0000
G1 X-0.9065 Y-0.5504 F10.0000
G1 X-0.9296 Y-0.5135 F10.0000
G1 X-0.9449 Y-0.4956 F10.0000
G1 X-0.9540 Y-0.4884 F10.0000
G1 X-0.9678 Y-0.4818 F10.0000
G1 X-0.9936 Y-0.4739 F10.0000
G1 X-1.0249 Y-0.4705 F10.0000
G1 X-1.0561 Y-0.4697 F10.0000
G1 X-1.0802 Y-0.4717 F10.0000
G1 X-1.0994 Y-0.4744 F10.0000
G1 X-1.1238 Y-0.4788 F10.0000
G1 X-1.1540 Y-0.4867 F10.0000
G1 X-1.1838 Y-0.4968 F10.0000
G1 X-1.2116 Y-0.5079 F10.0000
G1 X-1.2399 Y-0.5214 F10.0000
G1 X-1.2672 Y-0.5367 F10.0000
G1 X-1.2928 Y-0.5544 F10.0000
G1 X-1.3120 Y-0.5691 F10.0000
G1 X-1.3339 Y-0.5871 F10.0000
G1 X-1.3573 Y-0.6080 F10.0000
G1 X-1.3792 Y-0.6304 F10.0000
G1 X-1.4003 Y-0.6535 F10.0000
G1 X-1.4402 Y-0.7020 F10.0000
G1 X-1.4587 Y-0.7274 F10.0000
G1 X-1.4761 Y-0.7534 F10.0000
G1 X-1.5133 Y-0.8162 F10.0000
G1 X-1.5226 Y-0.8450 F10.0000
G1 X-1.5234 Y-0.8487 F10.0000
G1 X-1.5234 Y-1.0369 F10.0000
G1 X-1.5234 Y-1.0369 F10.0000
G1 X-1.5209 Y-1.0507 F10.0000
G1 X-1.5175 Y-1.0593 F10.0000
G1 X-1.5153 Y-1.0630 F10.0000
G1 X-1.5125 Y-1.0655 F10.0000
G0 X-1.5096 Y-1.0662
G0 X-1.5064 Y-1.0657
G0 X-1.4998 Y-1.0615
G0 X-0.9555 Y-0.5603
G1 X-0.9503 Y-0.5554 F10.0000
G1 X-0.9414 Y-0.5468 F10.0000
G1 X-0.9377 Y-0.5428 F10.0000
G1 X-0.9350 Y-0.5384 F10.0000
G1 X-0.9331 Y-0.5340 F10.0000
G1 X-0.9311 Y-0.5249 F10.0000
G1 X-0.9313 Y-0.5155 F10.0000
G1 X-0.9345 Y-0.5017 F10.0000
G1 X-0.9345 Y-0.5017 F10.0000
G1 X-0.9552 Y-0.4633 F10.0000
G1 X-0.9719 Y-0.4417 F10.0000
G1 X-0.9811 Y-0.4343 F10.0000
G1 X-1.0059 Y-0.4230 F10.0000
G1 X-1.0170 Y-0.4193 F10.0000
G1 X-1.0477 Y-0.4131 F10.0000
G1 X-1.0790 Y-0.4104 F10.0000
G1 X-1.1006 Y-0.4107 F10.0000
G1 X-1.1203 Y-0.4119 F10.0000
G1 X-1.1449 Y-0.4149 F10.0000
G1 X-1.1757 Y-0.4208 F10.0000
G1 X-1.2060 Y-0.4286 F10.0000
G1 X-1.2340 Y-0.4377 F10.0000
G1 X-1.2630 Y-0.4493 F10.0000
G1 X-1.2906 Y-0.4638 F10.0000
G1 X-1.3110 Y-0.4759 F10.0000
G1 X-1.3346 Y-0.4911 F10.0000
G1 X-1.3602 Y-0.5091 F10.0000
G1 X-1.3846 Y-0.5288 F10.0000
G1 X-1.4080 Y-0.5495 F10.0000
G1 X-1.4525 Y-0.5935 F10.0000
G1 X-1.4732 Y-0.6169 F10.0000
G1 X-1.5143 Y-0.6676 F10.0000
G1 X-1.5207 Y-0.6811 F10.0000
G1 X-1.5231 Y-0.6885 F10.0000
G1 X-1.5234 Y-0.7992 F10.0000
G1 X-1.5234 Y-0.7992 F10.0000
G1 X-1.5209 Y-0.8130 F10.0000
G1 X-1.5175 Y-0.8219 F10.0000
G1 X-1.5153 Y-0.8253 F10.0000
G1 X-1.5123 Y-0.8280 F10.0000
G0 X-1.5091 Y-0.8290
G0 X-1.5057 Y-0.8287
G0 X-1.4983 Y-0.8258
G0 X-0.9887 Y-0.4966
G1 X-0.9830 Y-0.4929 F10.0000
G1 X-0.9732 Y-0.4857 F10.0000
G1 X-0.9690 Y-0.4813 F10.0000
G1 X-0.9656 Y-0.4756 F10.0000
G1 X-0.9633 Y-0.4697 F10.0000
G1 X-0.9621 Y-0.4636 F10.0000
G1 X-0.9621 Y-0.4528 F10.0000
G1 X-0.9638 Y-0.4429 F10.0000
G1 X-0.9638 Y-0.4429 F10.0000
G1 X-0.9847 Y-0.3999 F10.0000
G1 X-0.9968 Y-0.3844 F10.0000
G1 X-1.0025 Y-0.3792 F10.0000
G1 X-1.0367 Y-0.3620 F10.0000
G1 X-1.0709 Y-0.3538 F10.0000
G1 X-1.1019 Y-0.3504 F10.0000
G1 X-1.1233 Y-0.3487 F10.0000
G1 X-1.1526 Y-0.3489 F10.0000
G1 X-1.1791 Y-0.3514 F10.0000
G1 X-1.2042 Y-0.3553 F10.0000
G1 X-1.2303 Y-0.3615 F10.0000
G1 X-1.2552 Y-0.3693 F10.0000
G1 X-1.2798 Y-0.3782 F10.0000
G1 X-1.3086 Y-0.3905 F10.0000
G1 X-1.3364 Y-0.4048 F10.0000
G1 X-1.3637 Y-0.4203 F10.0000
G1 X-1.3900 Y-0.4373 F10.0000
G1 X-1.4158 Y-0.4550 F10.0000
G1 X-1.4405 Y-0.4744 F10.0000
G1 X-1.4641 Y-0.4948 F10.0000
G1 X-1.5140 Y-0.5421 F10.0000
G1 X-1.5197 Y-0.5517 F10.0000
G1 X-1.5226 Y-0.5586 F10.0000
G1 X-1.5234 Y-0.5623 F10.0000
G1 X-1.5234 Y-0.6435 F10.0000
G1 X-1.5234 Y-0.6435 F10.0000
G1 X-1.5209 Y-0.6572 F10.0000
G1 X-1.5175 Y-0.6661 F10.0000
G1 X-1.5153 Y-0.6698 F10.0000
G1 X-1.5123 Y-0.6722 F10.0000
G0 X-1.5091 Y-0.6737
G0 X-1.5054 Y-0.6737
G0 X-1.4973 Y-0.6715
G0 X-1.0128 Y-0.4412
G1 X-1.0066 Y-0.4382 F10.0000
G1 X-0.9963 Y-0.4328 F10.0000
G1 X-0.9919 Y-0.4299 F10.0000
G1 X-0.9884 Y-0.4264 F10.0000
G1 X-0.9860 Y-0.4225 F10.0000
G1 X-0.9845 Y-0.4183 F10.0000
G1 X-0.9830 Y-0.4094 F10.0000
G1 X-0.9838 Y-0.4001 F10.0000
G1 X-0.9857 Y-0.3910 F10.0000
G1 X-0.9857 Y-0.3910 F10.0000
G1 X-1.0047 Y-0.3472 F10.0000
G1 X-1.0155 Y-0.3307 F10.0000
G1 X-1.0239 Y-0.3226 F10.0000
G1 X-1.0576 Y-0.3036 F10.0000
G1 X-1.0878 Y-0.2948 F10.0000
G1 X-1.1169 Y-0.2894 F10.0000
G1 X-1.1385 Y-0.2867 F10.0000
G1 X-1.1622 Y-0.2857 F10.0000
G1 X-1.1868 Y-0.2862 F10.0000
G1 X-1.2168 Y-0.2894 F10.0000
G1 X-1.2424 Y-0.2938 F10.0000
G1 X-1.2685 Y-0.2995 F10.0000
G1 X-1.2985 Y-0.3088 F10.0000
G1 X-1.3529 Y-0.3300 F10.0000
G1 X-1.3809 Y-0.3440 F10.0000
G1 X-1.4087 Y-0.3588 F10.0000
G1 X-1.4355 Y-0.3750 F10.0000
G1 X-1.4614 Y-0.3927 F10.0000
G1 X-1.5128 Y-0.4328 F10.0000
G1 X-1.5177 Y-0.4385 F10.0000
G1 X-1.5229 Y-0.4486 F10.0000
G1 X-1.5234 Y-0.4966 F10.0000
G1 X-1.5234 Y-0.4966 F10.0000
G1 X-1.5209 Y-0.5103 F10.0000
G1 X-1.5175 Y-0.5192 F10.0000
G1 X-1.5153 Y-0.5229 F10.0000
G1 X-1.5123 Y-0.5256 F10.0000
G0 X-1.5089 Y-0.5273
G0 X-1.5049 Y-0.5278
G0 X-1.4921 Y-0.5256
G0 X-1.0367 Y-0.3839
G1 X-1.0305 Y-0.3821 F10.0000
G1 X-1.0194 Y-0.3782 F10.0000
G1 X-1.0148 Y-0.3760 F10.0000
G1 X-1.0111 Y-0.3730 F10.0000
G1 X-1.0084 Y-0.3696 F10.0000
G1 X-1.0062 Y-0.3654 F10.0000
G1 X-1.0042 Y-0.3565 F10.0000
G1 X-1.0042 Y-0.3474 F10.0000
G1 X-1.0054 Y-0.3381 F10.0000
G1 X-1.0054 Y-0.3381 F10.0000
G1 X-1.0199 Y-0.2960 F10.0000
G1 X-1.0290 Y-0.2783 F10.0000
G1 X-1.0364 Y-0.2689 F10.0000
G1 X-1.0554 Y-0.2549 F10.0000
G1 X-1.0723 Y-0.2453 F10.0000
G1 X-1.1019 Y-0.2345 F10.0000
G1 X-1.1324 Y-0.2274 F10.0000
G1 X-1.1531 Y-0.2239 F10.0000
G1 X-1.1745 Y-0.2219 F10.0000
G1 X-1.1993 Y-0.2210 F10.0000
G1 X-1.2306 Y-0.2229 F10.0000
G1 X-1.2559 Y-0.2261 F10.0000
G1 X-1.2827 Y-0.2303 F10.0000
G1 X-1.3132 Y-0.2379 F10.0000
G1 X-1.3413 Y-0.2466 F10.0000
